(1001)
(T1  D=3.175 CR=0. - ZMIN=-4.84 - FLAT END MILL)
(T2  D=1.587 CR=0. - ZMIN=-5.35 - FLAT END MILL)
G0 G90 G94 G17
G21
G53 G0 Z0.

(ADAPTIVE1)
M5
M9
T1 M6
S16500 M3
G4 P4.
G55
G0 X66.352 Y-35.62
Z15.
Z5.
Z-4.205
G1 Z-4.523 F1016.
X66.348 Y-35.626 Z-4.593
X66.334 Y-35.646 Z-4.66
X66.313 Y-35.677 Z-4.72
X66.284 Y-35.718 Z-4.771
X66.25 Y-35.768 Z-4.809
X66.212 Y-35.823 Z-4.832
X66.172 Y-35.882 Z-4.84
G3 X65.571 Y-37.521 I2.899 J-1.994
G1 X65.563 Y-37.638
X65.541 Y-37.806
X65.491 Y-38.141
X65.456 Y-38.308
X65.374 Y-38.644
X65.317 Y-38.811
X65.212 Y-39.063
X65.197 Y-39.105
X65.188 Y-39.147
X65.172 Y-39.314
X65.163 Y-39.482
X65.146 Y-39.88
X64.981 Y-40.349
X64.96 Y-40.378
X64.878 Y-40.503
X64.769 Y-40.761
X64.656 Y-41.106
X64.539 Y-41.593
X64.423 Y-42.322
X64.364 Y-43.057
X64.333 Y-43.794
X64.317 Y-44.532
X64.309 Y-45.27
X64.304 Y-46.007
X64.302 Y-46.745
X64.299 Y-48.959
X64.285 Y-49.142
X64.226 Y-49.317
X64.035 Y-49.633
X63.769 Y-49.889
X63.154 Y-50.297
X62.454 Y-50.529
X61.727 Y-50.656
X60.993 Y-50.725
X60.256 Y-50.761
X59.518 Y-50.78
X58.78 Y-50.79
X58.043 Y-50.796
X57.305 Y-50.799
X55.829 Y-50.801
X48.451 Y-50.802
X23.365 Y-50.801
X-26.806 Y-50.8
X-62.59 Y-50.799
X-62.766 Y-50.745
X-63.091 Y-50.569
X-63.355 Y-50.312
X-63.777 Y-49.707
X-64.018 Y-49.009
X-64.15 Y-48.283
X-64.221 Y-47.549
X-64.259 Y-46.812
X-64.279 Y-46.074
X-64.29 Y-45.337
X-64.295 Y-44.599
X-64.298 Y-43.861
X-64.3 Y-42.385
X-64.301 Y-41.462
X-64.324 Y-41.279
X-64.391 Y-41.107
X-64.498 Y-40.958
X-64.64 Y-40.84
X-64.691 Y-40.806
X-64.706 Y-40.793
X-65.037 Y-40.352
X-65.043 Y-40.341
X-65.192 Y-39.922
X-65.195 Y-39.912
X-65.197 Y-39.901
X-65.212 Y-39.398
X-65.199 Y-39.314
X-65.176 Y-39.147
X-65.156 Y-38.979
X-65.14 Y-38.811
X-65.144 Y-38.77
X-65.154 Y-38.728
X-65.181 Y-38.644
X-65.217 Y-38.476
X-65.253 Y-38.276
X-65.264 Y-38.141
X-65.275 Y-37.806
X-65.278 Y-37.638
X-65.275 Y-37.303
X-65.272 Y-37.135
X-65.234 Y-36.632
X-65.191 Y-36.297
X-65.153 Y-36.129
X-65.085 Y-35.938
X-64.972 Y-35.626
X-64.944 Y-35.542
X-64.937 Y-35.5
X-64.936 Y-35.458
X-64.986 Y-34.955
X-64.993 Y-34.788
X-64.997 Y-34.285
Y-31.099
X-64.993 Y-30.932
X-64.976 Y-30.596
X-64.958 Y-30.429
X-64.847 Y-29.926
X-64.724 Y-29.423
X-64.715 Y-29.381
X-64.71 Y-29.339
Y-28.249
X-64.7 Y-28.082
X-64.678 Y-27.746
X-64.654 Y-27.579
X-64.621 Y-27.411
X-64.561 Y-27.16
X-64.555 Y-27.118
X-64.554 Y-27.076
X-64.604 Y-26.573
X-64.632 Y-26.405
X-64.683 Y-26.07
X-64.702 Y-25.902
X-64.71 Y-25.399
Y-12.155
X-64.713 Y-11.987
X-64.718 Y-11.959
X-64.726 Y-11.931
X-64.736 Y-11.903
X-64.75 Y-11.874
X-64.767 Y-11.847
X-64.788 Y-11.819
X-64.821 Y-11.787
X-64.853 Y-11.763
X-64.889 Y-11.738
G3 X-65.363 Y-12.105 I-0.174 J-0.266
G1 X-65.34 Y-12.172 Z-4.832
X-65.319 Y-12.235 Z-4.809
X-65.3 Y-12.292 Z-4.771
X-65.284 Y-12.34 Z-4.72
X-65.272 Y-12.376 Z-4.66
X-65.264 Y-12.398 Z-4.593
X-65.262 Y-12.406 Z-4.523
G0 Z5.
X-66.848 Y39.138
Z-4.205
G1 Z-4.523 F1016.
X-66.843 Y39.144 Z-4.593
X-66.827 Y39.161 Z-4.66
X-66.801 Y39.188 Z-4.72
X-66.766 Y39.225 Z-4.771
X-66.725 Y39.268 Z-4.809
X-66.679 Y39.317 Z-4.832
X-66.63 Y39.368 Z-4.84
G3 X-65.572 Y40.758 I-5.883 J5.577
G1 X-65.536 Y40.823
X-65.42 Y40.999
X-65.289 Y41.159
X-65.253 Y41.196
X-65.149 Y41.304
X-65.059 Y41.429
X-64.962 Y41.589
X-64.858 Y41.796
X-64.749 Y42.066
X-64.635 Y42.43
X-64.517 Y42.951
X-64.412 Y43.682
X-64.358 Y44.417
X-64.33 Y45.155
X-64.315 Y45.892
X-64.307 Y46.63
X-64.303 Y47.368
X-64.301 Y48.106
X-64.3 Y49.028
X-64.262 Y49.208
X-64.106 Y49.543
X-63.859 Y49.817
X-63.265 Y50.254
X-62.571 Y50.505
X-61.846 Y50.643
X-61.112 Y50.717
X-60.375 Y50.757
X-59.638 Y50.778
X-58.9 Y50.789
X-58.162 Y50.795
X-57.425 Y50.798
X-55.949 Y50.8
X-49.309
X-22.747 Y50.797
X27.424 Y50.79
X62.47 Y50.786
X62.654 Y50.771
X62.829 Y50.711
X63.144 Y50.52
X63.4 Y50.254
X63.808 Y49.639
X64.039 Y48.938
X64.166 Y48.212
X64.235 Y47.477
X64.271 Y46.74
X64.29 Y46.003
X64.3 Y45.265
X64.306 Y44.527
X64.308 Y43.789
X64.31 Y42.256
X64.339 Y42.052
X64.423 Y41.864
X64.555 Y41.706
X64.726 Y41.591
G3 X65.136 Y42.028 I0.129 J0.29
G1 X65.104 Y42.091 Z-4.832
X65.072 Y42.15 Z-4.809
X65.044 Y42.204 Z-4.771
X65.021 Y42.248 Z-4.72
X65.004 Y42.282 Z-4.66
X64.993 Y42.303 Z-4.593
X64.989 Y42.31 Z-4.523
G0 Z5.
X65.874 Y-39.774
Z-4.205
G1 Z-4.523 F1016.
X65.867 Y-39.777 Z-4.593
X65.845 Y-39.787 Z-4.66
X65.811 Y-39.802 Z-4.72
X65.764 Y-39.821 Z-4.771
X65.709 Y-39.845 Z-4.809
X65.647 Y-39.871 Z-4.832
X65.582 Y-39.899 Z-4.84
G3 X64.96 Y-40.378 I0.623 J-1.455
G1 X64.707 Y-40.725
X64.687 Y-40.744
X64.596 Y-40.823
X64.344 Y-40.991
X64.223 Y-41.08
X64.114 Y-41.184
X64.015 Y-41.296
X63.908 Y-41.439
X63.79 Y-41.625
X63.672 Y-41.852
X63.549 Y-42.141
X63.422 Y-42.523
X63.292 Y-43.05
X63.174 Y-43.778
X63.109 Y-44.513
X63.073 Y-45.25
X63.054 Y-45.987
X63.043 Y-46.725
X63.037 Y-47.463
X62.946 Y-47.821
X62.763 Y-48.141
X62.269 Y-48.689
X61.62 Y-49.039
X60.912 Y-49.25
X60.185 Y-49.372
X59.45 Y-49.442
X58.714 Y-49.482
X57.976 Y-49.504
X57.238 Y-49.517
X56.501 Y-49.523
X55.763 Y-49.527
X54.287 Y-49.53
X50.598 Y-49.532
X20.348 Y-49.531
X-29.824 Y-49.53
X-60.812 Y-49.529
X-61.178 Y-49.484
X-61.517 Y-49.339
X-61.81 Y-49.115
X-62.301 Y-48.564
X-62.608 Y-47.893
X-62.79 Y-47.178
X-62.896 Y-46.447
X-62.955 Y-45.712
X-62.989 Y-44.975
X-63.008 Y-44.237
X-63.018 Y-43.5
X-63.024 Y-42.762
X-63.034 Y-42.219
X-63.067 Y-41.878
X-63.075 Y-41.833
X-63.137 Y-41.643
X-63.247 Y-41.476
X-63.398 Y-41.345
X-63.579 Y-41.259
X-63.776 Y-41.224
X-63.787 Y-41.222
X-64.009 Y-41.159
G3 X-64.336 Y-41.661 I-0.076 J-0.308
G1 X-64.292 Y-41.717 Z-4.832
X-64.251 Y-41.77 Z-4.809
X-64.214 Y-41.818 Z-4.771
X-64.183 Y-41.858 Z-4.72
X-64.16 Y-41.887 Z-4.66
X-64.146 Y-41.906 Z-4.593
X-64.141 Y-41.912 Z-4.523
G0 Z5.
X-66.266 Y40.777
Z-4.205
G1 Z-4.523 F1016.
X-66.258 Y40.779 Z-4.593
X-66.235 Y40.784 Z-4.66
X-66.198 Y40.792 Z-4.72
X-66.149 Y40.803 Z-4.771
X-66.09 Y40.815 Z-4.809
X-66.024 Y40.83 Z-4.832
X-65.955 Y40.845 Z-4.84
G3 X-65.253 Y41.196 I-0.335 J1.547
G1 X-65.085 Y41.352
X-64.918 Y41.471
X-64.884 Y41.494
X-64.75 Y41.579
X-64.583 Y41.661
X-64.451 Y41.734
X-64.331 Y41.823
X-64.219 Y41.923
X-64.11 Y42.041
X-63.988 Y42.196
X-63.86 Y42.387
X-63.738 Y42.606
X-63.606 Y42.898
X-63.476 Y43.258
X-63.341 Y43.752
X-63.207 Y44.462
X-63.129 Y45.196
X-63.085 Y45.933
X-63.06 Y46.67
X-63.046 Y47.408
X-62.973 Y47.769
X-62.803 Y48.097
X-62.564 Y48.378
X-61.993 Y48.845
X-61.315 Y49.135
X-60.597 Y49.306
X-59.866 Y49.405
X-59.13 Y49.461
X-58.393 Y49.492
X-57.655 Y49.509
X-56.918 Y49.519
X-56.18 Y49.524
X-55.442 Y49.527
X-53.966 Y49.53
X-48.064
X-20.027 Y49.526
X30.144 Y49.52
X60.764 Y49.516
X61.131 Y49.484
X61.476 Y49.351
X61.776 Y49.137
X62.282 Y48.6
X62.6 Y47.934
X62.79 Y47.221
X62.9 Y46.492
X62.962 Y45.757
X62.997 Y45.02
X63.017 Y44.282
X63.028 Y43.544
X63.04 Y42.996
X63.075 Y42.66
X63.121 Y42.412
X63.13 Y42.38
X63.225 Y42.168
X63.38 Y41.996
X63.581 Y41.881
X63.809 Y41.833
X63.891 Y41.829
X64.08 Y41.81
X64.248 Y41.774
X64.415 Y41.724
X64.583 Y41.661
X64.726 Y41.591
G3 X65.136 Y42.028 I0.129 J0.29
G1 X65.104 Y42.091 Z-4.832
X65.072 Y42.15 Z-4.809
X65.044 Y42.204 Z-4.771
X65.021 Y42.248 Z-4.72
X65.004 Y42.282 Z-4.66
X64.993 Y42.303 Z-4.593
X64.989 Y42.31 Z-4.523
G0 Z5.
X65.411 Y-40.743
Z-4.205
G1 Z-4.523 F1016.
X65.403 Y-40.744 Z-4.593
X65.38 Y-40.745 Z-4.66
X65.342 Y-40.747 Z-4.72
X65.292 Y-40.749 Z-4.771
X65.232 Y-40.752 Z-4.809
X65.164 Y-40.755 Z-4.832
X65.094 Y-40.759 Z-4.84
G3 X64.344 Y-40.991 I0.078 J-1.581
G1 X64.248 Y-41.054
X63.776 Y-41.202
X63.766 Y-41.204
X63.618 Y-41.229
X63.481 Y-41.29
X63.352 Y-41.367
X63.232 Y-41.456
X63.111 Y-41.562
X62.975 Y-41.703
X62.847 Y-41.859
X62.709 Y-42.058
X62.556 Y-42.321
X62.419 Y-42.608
X62.269 Y-42.999
X62.127 Y-43.48
X61.983 Y-44.173
X61.891 Y-44.905
X61.836 Y-45.641
X61.82 Y-46.009
X61.745 Y-46.37
X61.584 Y-46.702
X61.356 Y-46.993
X60.807 Y-47.486
X60.14 Y-47.801
X59.428 Y-47.993
X58.699 Y-48.106
X57.964 Y-48.173
X57.227 Y-48.211
X56.49 Y-48.233
X55.752 Y-48.245
X55.014 Y-48.252
X54.276 Y-48.256
X52.801 Y-48.26
X49.85 Y-48.261
X18.123
X-32.048 Y-48.26
X-59.347 Y-48.259
X-59.714 Y-48.223
X-60.063 Y-48.102
X-60.373 Y-47.902
X-60.903 Y-47.39
X-61.248 Y-46.737
X-61.461 Y-46.031
X-61.587 Y-45.304
X-61.661 Y-44.57
X-61.704 Y-43.833
X-61.732 Y-43.096
X-61.765 Y-42.602
X-61.81 Y-42.297
X-61.873 Y-42.022
X-61.939 Y-41.814
X-61.984 Y-41.704
X-62.095 Y-41.516
X-62.257 Y-41.369
X-62.454 Y-41.276
X-62.67 Y-41.243
X-63.242
X-63.605 Y-41.231
X-63.776 Y-41.224
G0 Z5.
X-65.673 Y41.554
Z-4.205
G1 Z-4.523 F1016.
X-65.665 Z-4.593
X-65.642 Y41.552 Z-4.66
X-65.604 Y41.549 Z-4.72
X-65.554 Y41.545 Z-4.771
X-65.494 Y41.54 Z-4.809
X-65.427 Y41.534 Z-4.832
X-65.357 Y41.529 Z-4.84
G3 X-64.583 Y41.661 I0.129 J1.577
G1 X-64.415 Y41.724
X-64.248 Y41.774
X-64.08 Y41.81
X-63.988 Y41.819
X-63.84 Y41.842
X-63.697 Y41.889
X-63.561 Y41.952
X-63.433 Y42.03
X-63.312 Y42.118
X-63.185 Y42.228
X-63.042 Y42.374
X-62.907 Y42.535
X-62.76 Y42.743
X-62.6 Y43.014
X-62.457 Y43.306
X-62.299 Y43.706
X-62.153 Y44.19
X-62.004 Y44.875
X-61.905 Y45.606
X-61.876 Y45.973
X-61.795 Y46.333
X-61.639 Y46.668
X-61.415 Y46.961
X-60.871 Y47.459
X-60.207 Y47.782
X-59.496 Y47.98
X-58.768 Y48.098
X-58.034 Y48.167
X-57.297 Y48.207
X-56.559 Y48.23
X-55.822 Y48.244
X-55.084 Y48.251
X-54.346 Y48.255
X-53.608 Y48.257
X-52.133 Y48.259
X-45.492 Y48.26
X-17.455 Y48.256
X32.716 Y48.25
X59.277 Y48.246
X59.646 Y48.226
X60. Y48.124
X60.319 Y47.939
X60.87 Y47.448
X61.231 Y46.804
X61.454 Y46.101
X61.587 Y45.375
X61.665 Y44.642
X61.714 Y43.905
X61.764 Y43.276
X61.826 Y42.898
X61.887 Y42.647
X61.968 Y42.405
X62.017 Y42.289
X62.129 Y42.105
X62.29 Y41.961
X62.485 Y41.869
X62.699 Y41.838
X63.577 Y41.837
X63.745 Y41.836
X63.809 Y41.833
G3 X64.013 Y42.397 I0.005 J0.317
G1 X63.958 Y42.442 Z-4.832
X63.906 Y42.484 Z-4.809
X63.86 Y42.522 Z-4.771
X63.821 Y42.554 Z-4.72
X63.791 Y42.578 Z-4.66
X63.773 Y42.592 Z-4.593
X63.767 Y42.597 Z-4.523
G0 Z5.
X64.813 Y-41.528
Z-4.205
G1 Z-4.523 F1016.
X64.806 Y-41.524 Z-4.593
X64.785 Y-41.514 Z-4.66
X64.751 Y-41.496 Z-4.72
X64.707 Y-41.473 Z-4.771
X64.653 Y-41.445 Z-4.809
X64.594 Y-41.414 Z-4.832
X64.531 Y-41.382 Z-4.84
G3 X63.766 Y-41.204 I-0.73 J-1.404
G1 X63.242 Y-41.234
X62.983 Y-41.263
X62.835 Y-41.287
X62.69 Y-41.328
X62.552 Y-41.385
X62.419 Y-41.455
X62.292 Y-41.537
X62.146 Y-41.649
X62.004 Y-41.776
X61.849 Y-41.941
X61.691 Y-42.137
X61.531 Y-42.373
X61.354 Y-42.685
X61.197 Y-43.022
X61.029 Y-43.476
X60.866 Y-44.051
X60.724 Y-44.774
X60.605 Y-45.124
X60.421 Y-45.444
X59.941 Y-46.004
X59.31 Y-46.385
X58.612 Y-46.627
X57.89 Y-46.775
X57.157 Y-46.865
X56.421 Y-46.917
X55.684 Y-46.949
X54.947 Y-46.967
X54.209 Y-46.977
X53.471 Y-46.983
X52.733 Y-46.987
X51.258 Y-46.99
X47.569 Y-46.991
X15.843
X-34.329 Y-46.989
X-57.939
X-58.307 Y-46.964
X-58.662 Y-46.864
X-58.984 Y-46.684
X-59.543 Y-46.202
X-59.915 Y-45.565
X-60.148 Y-44.865
X-60.29 Y-44.141
X-60.386 Y-43.409
X-60.489 Y-42.679
X-60.58 Y-42.274
X-60.674 Y-41.971
X-60.765 Y-41.742
X-60.809 Y-41.654
X-60.925 Y-41.485
X-61.082 Y-41.355
X-61.27 Y-41.272
X-61.473 Y-41.243
X-62.67
G3 X-62.847 Y-41.817 I0.011 J-0.317
G1 X-62.79 Y-41.859 Z-4.832
X-62.735 Y-41.898 Z-4.809
X-62.687 Y-41.934 Z-4.771
X-62.646 Y-41.964 Z-4.72
X-62.616 Y-41.986 Z-4.66
X-62.597 Y-42. Z-4.593
X-62.591 Y-42.005 Z-4.523
G0 Z5.
X-65.049 Y42.093
Z-4.205
G1 Z-4.523 F1016.
X-65.042 Y42.09 Z-4.593
X-65.02 Y42.08 Z-4.66
X-64.986 Y42.064 Z-4.72
X-64.94 Y42.043 Z-4.771
X-64.886 Y42.018 Z-4.809
X-64.825 Y41.99 Z-4.832
X-64.761 Y41.96 Z-4.84
G3 X-63.988 Y41.819 I0.662 J1.438
G1 X-63.891 Y41.829
X-63.745 Y41.836
X-63.192 Y41.838
X-63.042 Y41.845
X-62.895 Y41.875
X-62.752 Y41.922
X-62.615 Y41.982
X-62.477 Y42.06
X-62.341 Y42.151
X-62.187 Y42.272
X-62.033 Y42.416
X-61.869 Y42.594
X-61.701 Y42.811
X-61.532 Y43.068
X-61.35 Y43.402
X-61.184 Y43.775
X-61.011 Y44.263
X-60.823 Y44.977
X-60.651 Y45.303
X-60.202 Y45.889
X-59.59 Y46.301
X-58.903 Y46.57
X-58.185 Y46.739
X-57.454 Y46.842
X-56.719 Y46.903
X-55.982 Y46.939
X-55.245 Y46.961
X-54.507 Y46.973
X-53.769 Y46.981
X-53.031 Y46.985
X-52.294 Y46.987
X-50.818 Y46.989
X-44.915
X-15.403 Y46.986
X34.769 Y46.979
X58.379 Y46.976
X58.729 Y46.861
X59.044 Y46.668
X59.586 Y46.168
X59.946 Y45.524
X60.172 Y44.822
X60.321 Y44.099
X60.452 Y43.373
X60.565 Y42.902
X60.675 Y42.566
X60.773 Y42.331
X60.82 Y42.239
X60.937 Y42.073
X61.094 Y41.945
X61.28 Y41.865
X61.48 Y41.837
X62.699 Y41.838
G3 X62.876 Y42.411 I-0.011 J0.317
G1 X62.819 Y42.453 Z-4.832
X62.765 Y42.492 Z-4.809
X62.716 Y42.528 Z-4.771
X62.675 Y42.558 Z-4.72
X62.645 Y42.58 Z-4.66
X62.626 Y42.594 Z-4.593
X62.62 Y42.599 Z-4.523
G0 Z5.
X64.046 Y-41.53
Z-4.205
G1 Z-4.523 F1016.
X64.038 Y-41.526 Z-4.593
X64.017 Y-41.517 Z-4.66
X63.983 Y-41.501 Z-4.72
X63.937 Y-41.48 Z-4.771
X63.882 Y-41.455 Z-4.809
X63.821 Y-41.428 Z-4.832
X63.756 Y-41.399 Z-4.84
G3 X62.983 Y-41.263 I-0.652 J-1.442
G1 X62.74 Y-41.29
X62.405 Y-41.333
X62.237 Y-41.355
X62.07 Y-41.373
X61.978 Y-41.379
X61.829 Y-41.396
X61.683 Y-41.43
X61.541 Y-41.481
X61.406 Y-41.545
X61.268 Y-41.624
X61.116 Y-41.729
X60.966 Y-41.851
X60.795 Y-42.016
X60.633 Y-42.198
X60.45 Y-42.441
X60.276 Y-42.716
X60.085 Y-43.078
X59.794 Y-43.756
X59.4 Y-44.38
X58.833 Y-44.852
X58.17 Y-45.176
X57.463 Y-45.386
X56.737 Y-45.518
X56.003 Y-45.599
X55.267 Y-45.648
X54.53 Y-45.678
X53.792 Y-45.696
X53.055 Y-45.707
X52.317 Y-45.713
X51.579 Y-45.716
X50.103 Y-45.72
X47.152 Y-45.721
X13.213
X-36.959 Y-45.719
X-56.88
X-57.242 Y-45.647
X-57.577 Y-45.494
X-57.874 Y-45.275
X-58.382 Y-44.74
X-58.719 Y-44.083
X-58.952 Y-43.383
X-59.151 Y-42.673
X-59.31 Y-42.168
X-59.443 Y-41.841
X-59.565 Y-41.599
X-59.683 Y-41.451
X-59.835 Y-41.338
X-60.01 Y-41.268
X-60.198 Y-41.243
X-61.473
G3 X-61.649 Y-41.817 I0.011 J-0.317
G1 X-61.592 Y-41.859 Z-4.832
X-61.538 Y-41.898 Z-4.809
X-61.49 Y-41.934 Z-4.771
X-61.449 Y-41.964 Z-4.72
X-61.419 Y-41.986 Z-4.66
X-61.4 Y-42. Z-4.593
X-61.393 Y-42.005 Z-4.523
G0 Z5.
X-64.218 Y42.221
Z-4.205
G1 Z-4.523 F1016.
X-64.211 Y42.217 Z-4.593
X-64.191 Y42.205 Z-4.66
X-64.159 Y42.186 Z-4.72
X-64.115 Y42.16 Z-4.771
X-64.064 Y42.129 Z-4.809
X-64.006 Y42.095 Z-4.832
X-63.945 Y42.059 Z-4.84
G3 X-63.192 Y41.838 I0.809 J1.36
G1 X-62.237
X-62.087 Y41.845
X-61.939 Y41.868
X-61.794 Y41.907
X-61.654 Y41.96
X-61.514 Y42.028
X-61.359 Y42.119
X-61.204 Y42.227
X-61.03 Y42.371
X-60.863 Y42.534
X-60.672 Y42.751
X-60.495 Y42.989
X-60.104 Y43.615
X-59.717 Y44.243
X-59.176 Y44.744
X-58.528 Y45.097
X-57.828 Y45.332
X-57.106 Y45.482
X-56.374 Y45.576
X-55.639 Y45.633
X-54.902 Y45.668
X-54.164 Y45.689
X-53.426 Y45.702
X-52.689 Y45.71
X-51.951 Y45.714
X-51.213 Y45.717
X-49.737 Y45.719
X-44.573
X-13.585 Y45.716
X36.587 Y45.709
X56.877 Y45.707
X57.24 Y45.642
X57.578 Y45.493
X58.176 Y45.062
X58.595 Y44.454
X58.893 Y43.779
X59.143 Y43.085
X59.332 Y42.595
X59.468 Y42.311
X59.53 Y42.205
X59.647 Y42.053
X59.8 Y41.936
X59.978 Y41.862
X60.169 Y41.837
X61.065 Y41.836
X61.48 Y41.837
G3 X61.656 Y42.411 I-0.012 J0.317
G1 X61.599 Y42.453 Z-4.832
X61.545 Y42.492 Z-4.809
X61.496 Y42.528 Z-4.771
X61.456 Y42.557 Z-4.72
X61.425 Y42.58 Z-4.66
X61.406 Y42.594 Z-4.593
X61.4 Y42.598 Z-4.523
G0 Z5.
X63.026 Y-41.699
Z-4.205
G1 Z-4.523 F1016.
X63.019 Y-41.695 Z-4.593
X62.998 Y-41.684 Z-4.66
X62.964 Y-41.667 Z-4.72
X62.919 Y-41.644 Z-4.771
X62.866 Y-41.616 Z-4.809
X62.806 Y-41.586 Z-4.832
X62.743 Y-41.553 Z-4.84
G3 X61.978 Y-41.379 I-0.723 J-1.408
G1 X61.567 Y-41.404
X61.065 Y-41.425
X60.972 Y-41.428
X60.823 Y-41.44
X60.676 Y-41.468
X60.532 Y-41.511
X60.393 Y-41.568
X60.252 Y-41.64
X60.091 Y-41.739
X59.935 Y-41.854
X59.755 Y-42.009
X59.237 Y-42.534
X58.753 Y-43.091
X58.163 Y-43.534
X57.499 Y-43.855
X56.794 Y-44.073
X56.07 Y-44.215
X55.338 Y-44.306
X54.602 Y-44.363
X53.865 Y-44.398
X53.127 Y-44.419
X52.39 Y-44.432
X51.652 Y-44.44
X50.914 Y-44.445
X50.176 Y-44.447
X48.701 Y-44.45
X44.274 Y-44.451
X11.81
X-38.361 Y-44.449
X-55.331
X-55.699 Y-44.426
X-56.056 Y-44.331
X-56.384 Y-44.162
X-56.968 Y-43.711
X-57.398 Y-43.112
X-57.738 Y-42.457
X-58.037 Y-41.841
X-58.202 Y-41.559
X-58.321 Y-41.427
X-58.467 Y-41.327
X-58.633 Y-41.265
X-58.809 Y-41.243
X-60.198
G3 X-60.374 Y-41.817 I0.011 J-0.317
G1 X-60.318 Y-41.859 Z-4.832
X-60.263 Y-41.898 Z-4.809
X-60.215 Y-41.934 Z-4.771
X-60.174 Y-41.964 Z-4.72
X-60.144 Y-41.986 Z-4.66
X-60.125 Y-42. Z-4.593
X-60.119 Y-42.005 Z-4.523
G0 Z5.
X-63.264 Y42.221
Z-4.205
G1 Z-4.523 F1016.
X-63.257 Y42.217 Z-4.593
X-63.237 Y42.205 Z-4.66
X-63.204 Y42.186 Z-4.72
X-63.161 Y42.16 Z-4.771
X-63.109 Y42.129 Z-4.809
X-63.052 Y42.095 Z-4.832
X-62.991 Y42.059 Z-4.84
G3 X-62.237 Y41.838 I0.809 J1.36
G1 X-61.14
X-60.99 Y41.845
X-60.842 Y41.871
X-60.698 Y41.912
X-60.558 Y41.966
X-60.397 Y42.043
X-60.207 Y42.155
X-59.985 Y42.31
X-59.416 Y42.78
X-58.859 Y43.263
X-58.23 Y43.649
X-57.546 Y43.926
X-56.833 Y44.114
X-56.105 Y44.238
X-55.372 Y44.318
X-54.636 Y44.369
X-53.899 Y44.4
X-53.161 Y44.42
X-52.423 Y44.432
X-51.686 Y44.439
X-50.948 Y44.444
X-50.21 Y44.446
X-48.734 Y44.449
X-44.307
X-11.106 Y44.445
X39.066 Y44.439
X55.298 Y44.437
X55.666 Y44.424
X56.027 Y44.348
X56.364 Y44.197
X56.972 Y43.779
X57.441 Y43.21
X58.08 Y42.179
X58.111 Y42.138
X58.275 Y41.976
X58.48 Y41.873
X58.707 Y41.838
X60.169 Y41.837
G3 X60.346 Y42.41 I-0.01 J0.317
G1 X60.289 Y42.452 Z-4.832
X60.235 Y42.492 Z-4.809
X60.187 Y42.527 Z-4.771
X60.146 Y42.557 Z-4.72
X60.116 Y42.58 Z-4.66
X60.097 Y42.594 Z-4.593
X60.091 Y42.598 Z-4.523
G0 Z5.
X62.011 Y-41.776
Z-4.205
G1 Z-4.523 F1016.
X62.004 Y-41.772 Z-4.593
X61.984 Y-41.761 Z-4.66
X61.951 Y-41.743 Z-4.72
X61.907 Y-41.719 Z-4.771
X61.854 Y-41.69 Z-4.809
X61.795 Y-41.657 Z-4.832
X61.733 Y-41.623 Z-4.84
G3 X60.972 Y-41.428 I-0.762 J-1.387
G1 X60.394 Y-41.446
X59.892 Y-41.46
X59.712 Y-41.473
X59.564 Y-41.496
X59.41 Y-41.535
X59.226 Y-41.596
X58.548 Y-41.886
X57.893 Y-42.227
X57.215 Y-42.516
X56.509 Y-42.733
X55.788 Y-42.886
X55.057 Y-42.991
X54.323 Y-43.06
X53.586 Y-43.105
X52.849 Y-43.134
X52.111 Y-43.152
X51.374 Y-43.163
X50.636 Y-43.17
X49.898 Y-43.175
X49.16 Y-43.177
X47.685 Y-43.18
X43.258 Y-43.181
X10.056
X-40.115 Y-43.179
X-54.134
X-54.501 Y-43.145
X-54.858 Y-43.051
X-55.526 Y-42.739
X-56.071 Y-42.241
X-56.644 Y-41.521
X-56.806 Y-41.372
X-57.005 Y-41.276
X-57.223 Y-41.243
X-58.809
G3 X-58.986 Y-41.817 I0.011 J-0.317
G1 X-58.929 Y-41.859 Z-4.832
X-58.874 Y-41.898 Z-4.809
X-58.826 Y-41.934 Z-4.771
X-58.785 Y-41.964 Z-4.72
X-58.755 Y-41.986 Z-4.66
X-58.736 Y-42. Z-4.593
X-58.73 Y-42.005 Z-4.523
G0 Z5.
X-62.166 Y42.221
Z-4.205
G1 Z-4.523 F1016.
X-62.16 Y42.217 Z-4.593
X-62.139 Y42.205 Z-4.66
X-62.107 Y42.186 Z-4.72
X-62.064 Y42.16 Z-4.771
X-62.012 Y42.129 Z-4.809
X-61.954 Y42.095 Z-4.832
X-61.894 Y42.059 Z-4.84
G3 X-61.14 Y41.838 I0.809 J1.36
G1 X-59.892 Y41.837
X-59.742 Y41.844
X-59.563 Y41.872
X-59.247 Y41.948
X-58.545 Y42.178
X-57.856 Y42.44
X-57.151 Y42.659
X-56.432 Y42.825
X-55.704 Y42.944
X-54.971 Y43.026
X-54.235 Y43.081
X-53.498 Y43.117
X-52.761 Y43.141
X-52.023 Y43.155
X-51.285 Y43.165
X-50.548 Y43.171
X-49.81 Y43.174
X-48.334 Y43.178
X-45.383 Y43.179
X-9.968 Y43.175
X40.204 Y43.169
X54.222 Y43.167
X54.956 Y43.095
X55.625 Y42.783
X56.189 Y42.307
X56.422 Y42.065
X56.578 Y41.942
X56.76 Y41.864
X56.956 Y41.838
X58.707
G3 X58.884 Y42.411 I-0.011 J0.317
G1 X58.827 Y42.453 Z-4.832
X58.772 Y42.492 Z-4.809
X58.724 Y42.528 Z-4.771
X58.683 Y42.558 Z-4.72
X58.653 Y42.58 Z-4.66
X58.634 Y42.594 Z-4.593
X58.628 Y42.599 Z-4.523
G0 Z5.
X60.927 Y-41.819
Z-4.205
G1 Z-4.523 F1016.
X60.92 Y-41.815 Z-4.593
X60.9 Y-41.803 Z-4.66
X60.867 Y-41.785 Z-4.72
X60.823 Y-41.76 Z-4.771
X60.771 Y-41.73 Z-4.809
X60.712 Y-41.698 Z-4.832
X60.651 Y-41.663 Z-4.84
G3 X59.892 Y-41.46 I-0.775 J-1.38
G1 X59.054 Y-41.48
X58.049 Y-41.5
X57.546 Y-41.509
X56.81 Y-41.559
X56.075 Y-41.616
X55.34 Y-41.686
X54.605 Y-41.75
X53.869 Y-41.8
X53.132 Y-41.836
X52.395 Y-41.862
X51.657 Y-41.879
X50.919 Y-41.891
X50.182 Y-41.898
X49.444 Y-41.903
X48.706 Y-41.906
X47.23 Y-41.909
X44.279 Y-41.911
X7.388 Y-41.91
X-42.783 Y-41.909
X-53.112
X-53.845 Y-41.822
X-54.515 Y-41.512
X-54.688 Y-41.386
X-54.823 Y-41.308
X-54.971 Y-41.26
X-55.125 Y-41.243
X-57.223
G3 X-57.399 Y-41.817 I0.011 J-0.317
G1 X-57.342 Y-41.859 Z-4.832
X-57.288 Y-41.898 Z-4.809
X-57.24 Y-41.934 Z-4.771
X-57.199 Y-41.964 Z-4.72
X-57.169 Y-41.986 Z-4.66
X-57.15 Y-42. Z-4.593
X-57.143 Y-42.005 Z-4.523
G0 Z5.
X-60.917 Y42.223
Z-4.205
G1 Z-4.523 F1016.
X-60.91 Y42.219 Z-4.593
X-60.89 Y42.207 Z-4.66
X-60.858 Y42.188 Z-4.72
X-60.815 Y42.162 Z-4.771
X-60.763 Y42.131 Z-4.809
X-60.705 Y42.096 Z-4.832
X-60.645 Y42.06 Z-4.84
G3 X-59.892 Y41.837 I0.813 J1.358
G1 X-59.222 Y41.835
X-58.552 Y41.836
X-58.049 Y41.838
X-32.752 Y41.837
X-28.061
X-27.559 Y41.836
X-26.889 Y41.838
X-15.161 Y41.837
X-13.151 Y41.834
X-11.978 Y41.83
X-7.958 Y41.834
X-6.617 Y41.837
X-4.942
X-2.932 Y41.833
X-1.927
X-1.424 Y41.837
X31.077
X31.579 Y41.836
X32.082 Y41.832
X33.757
X34.93 Y41.837
X36.103 Y41.838
X42.134 Y41.837
X43.809 Y41.835
X44.312 Y41.837
X50.008
X51.18 Y41.834
X52.353 Y41.83
X54.196 Y41.828
X54.866 Y41.829
X55.536 Y41.836
X56.206 Y41.838
X56.956
G3 X57.133 Y42.411 I-0.011 J0.317
G1 X57.076 Y42.453 Z-4.832
X57.022 Y42.492 Z-4.809
X56.973 Y42.528 Z-4.771
X56.933 Y42.558 Z-4.72
X56.902 Y42.58 Z-4.66
X56.883 Y42.594 Z-4.593
X56.877 Y42.599 Z-4.523
G0 Z5.
X58.579 Y-41.875
Z-4.205
G1 Z-4.523 F1016.
X58.573 Y-41.871 Z-4.593
X58.552 Y-41.859 Z-4.66
X58.519 Y-41.84 Z-4.72
X58.476 Y-41.816 Z-4.771
X58.423 Y-41.786 Z-4.809
X58.365 Y-41.752 Z-4.832
X58.304 Y-41.717 Z-4.84
G3 X57.546 Y-41.509 I-0.785 J-1.374
G1 X56.039 Y-41.534
X54.196 Y-41.56
X52.018 Y-41.586
X49.505 Y-41.613
X48.165 Y-41.626
X47.662 Y-41.629
X0.084 Y-41.628
X-0.754 Y-41.625
X-6.282 Y-41.598
X-10.973 Y-41.571
X-14.826 Y-41.546
X-18.177 Y-41.52
X-20.857 Y-41.496
X-22.868 Y-41.475
X-24.543 Y-41.454
X-25.883 Y-41.435
X-26.889 Y-41.416
X-27.559 Y-41.401
X-28.061 Y-41.387
X-28.396 Y-41.375
X-29.737 Y-41.32
X-31.412 Y-41.25
X-31.579 Y-41.24
X-31.914 Y-41.219
X-32.082 Y-41.207
X-32.585 Y-41.166
X-32.626 Y-41.165
X-32.668 Y-41.17
X-33.087 Y-41.227
X-33.255 Y-41.241
X-33.925 Y-41.242
X-34.762 Y-41.243
X-55.125
G3 X-55.431 Y-41.541 I0.011 J-0.317
G1 X-55.432 Y-41.561 Z-4.839
X-55.418 Y-41.614 Z-4.831
X-55.405 Y-41.665 Z-4.813
X-55.393 Y-41.712 Z-4.786
X-55.362 Y-41.748 Z-4.746
X-55.336 Y-41.777 Z-4.698
X-55.317 Y-41.799 Z-4.643
X-55.306 Y-41.812 Z-4.584
X-55.302 Y-41.817 Z-4.523
G0 Z5.
X66.886 Y-32.968
Z-3.357
G1 Z-3.675 F1016.
X66.881 Y-32.974 Z-3.746
X66.864 Y-32.99 Z-3.813
X66.837 Y-33.017 Z-3.873
X66.802 Y-33.053 Z-3.923
X66.759 Y-33.096 Z-3.961
X66.712 Y-33.143 Z-3.984
X66.662 Y-33.193 Z-3.992
G3 X65.572 Y-34.557 I5.749 J-5.714
G1 X65.535 Y-34.62
X65.424 Y-34.788
X65.29 Y-34.955
X65.253 Y-34.997
X65.152 Y-35.108
X65.062 Y-35.232
X64.965 Y-35.392
X64.862 Y-35.598
X64.753 Y-35.867
X64.586 Y-36.397
X64.422 Y-37.116
X64.232 Y-37.829
X64.152 Y-38.189
X64.109 Y-38.368
X63.955 Y-38.703
X63.483 Y-39.27
X62.847 Y-39.645
X62.146 Y-39.875
X61.421 Y-40.012
X60.688 Y-40.096
X59.952 Y-40.149
X59.215 Y-40.184
X58.477 Y-40.209
X57.74 Y-40.228
X57.002 Y-40.244
X56.265 Y-40.258
X55.527 Y-40.27
X54.051 Y-40.291
X51.838 Y-40.318
X49.625 Y-40.341
X48.887 Y-40.348
X48.149 Y-40.353
X47.411 Y-40.356
X45.936 Y-40.358
X37.082 Y-40.359
X17.899
X0.929
X0.191 Y-40.357
X-2.022 Y-40.349
X-6.449 Y-40.327
X-10.876 Y-40.302
X-14.565 Y-40.277
X-17.516 Y-40.255
X-19.729 Y-40.236
X-21.943 Y-40.215
X-23.418 Y-40.198
X-24.894 Y-40.179
X-25.632 Y-40.167
X-26.369 Y-40.154
X-27.107 Y-40.138
X-27.844 Y-40.117
X-28.582 Y-40.091
X-29.319 Y-40.063
X-30.056 Y-40.034
X-30.793 Y-40.001
X-31.53 Y-39.959
X-32.268 Y-39.95
X-33.005 Y-39.96
X-33.743 Y-39.966
X-34.481 Y-39.97
X-35.957 Y-39.972
X-41.859 Y-39.973
X-61.78
X-62.149
X-62.329 Y-39.933
X-62.659 Y-39.766
X-63.2 Y-39.265
X-63.562 Y-38.622
X-63.76 Y-37.911
X-63.807 Y-37.175
X-63.744 Y-36.44
X-63.73 Y-35.702
X-63.728 Y-34.227
X-63.727 Y-32.013
X-63.695 Y-31.276
X-63.598 Y-30.545
X-63.523 Y-29.811
X-63.483 Y-29.074
X-63.415 Y-28.339
X-63.369 Y-27.717
X-63.375 Y-26.979
X-63.406 Y-26.242
X-63.422 Y-25.504
X-63.431 Y-24.766
X-63.435 Y-24.028
X-63.437 Y-23.291
X-63.439 Y-21.815
X-63.44 Y-20.339
Y-12.961
X-63.462 Y-12.652
X-63.483 Y-12.518
X-63.552 Y-12.298
X-63.683 Y-12.109
X-63.864 Y-11.967
X-64.08 Y-11.886
X-64.248 Y-11.85
X-64.353 Y-11.819
X-64.507 Y-11.763
G0 Z5.
X-66.755 Y0.512
Z-3.357
G1 Z-3.675 F1016.
X-66.749 Y0.518 Z-3.746
X-66.734 Y0.536 Z-3.813
X-66.71 Y0.565 Z-3.873
X-66.678 Y0.604 Z-3.923
X-66.639 Y0.65 Z-3.961
X-66.596 Y0.701 Z-3.984
X-66.55 Y0.755 Z-3.992
G3 X-65.575 Y2.204 I-6.199 J5.222
G1 X-65.547 Y2.263
X-65.457 Y2.431
X-65.42 Y2.491
X-65.346 Y2.599
X-65.253 Y2.723
X-65.214 Y2.766
X-65.114 Y2.879
X-65.022 Y3.017
X-64.922 Y3.194
X-64.816 Y3.424
X-64.705 Y3.727
X-64.589 Y4.143
X-64.469 Y4.763
X-64.388 Y5.496
X-64.346 Y6.233
X-64.324 Y6.971
X-64.313 Y7.708
X-64.307 Y8.446
X-64.303 Y9.184
X-64.301 Y10.66
X-64.3 Y16.562
X-64.299 Y32.711
X-64.324 Y32.901
X-64.397 Y33.078
X-64.513 Y33.231
X-64.664 Y33.349
X-64.75 Y33.4
X-64.817 Y33.447
X-64.918 Y33.532
X-65.085 Y33.688
X-65.212 Y33.844
G3 X-65.707 Y33.447 I-0.248 J-0.199
X-65.226 Y33.431 I0.248 J0.199
X-65.282 Y33.909 I-0.234 J0.215
G1 X-66.366 Y34.64
G3 X-66.721 Y34.114 I-0.178 J-0.263
X-66.268 Y34.22 I0.178 J0.263
X-65.571 Y35.822 I-7.043 J4.013
G1 X-65.533 Y35.961
X-65.469 Y36.129
X-65.42 Y36.232
X-65.385 Y36.297
X-65.289 Y36.464
X-65.253 Y36.517
X-65.162 Y36.632
X-65.073 Y36.753
X-64.977 Y36.907
X-64.874 Y37.106
X-64.766 Y37.365
X-64.653 Y37.712
X-64.535 Y38.203
X-64.421 Y38.932
X-64.281 Y39.273
X-64.042 Y39.553
X-63.457 Y40.003
X-62.766 Y40.261
X-62.042 Y40.404
X-61.308 Y40.481
X-60.571 Y40.521
X-59.834 Y40.542
X-59.096 Y40.554
X-58.358 Y40.56
X-57.62 Y40.564
X-56.145 Y40.566
X-50.98 Y40.567
X-43.451 Y40.568
X-43.274 Y40.589
X-43.107 Y40.652
X-42.96 Y40.753
X-42.842 Y40.886
X-42.804 Y40.941
X-42.766 Y40.991
X-42.636 Y41.147
X-42.453 Y41.326
X-42.301 Y41.439
X-42.223 Y41.494
X-42.134 Y41.548
X-41.966 Y41.637
X-41.905 Y41.662
X-41.799 Y41.702
X-41.631 Y41.756
X-41.464 Y41.798
X-41.233 Y41.829
X-41.036 Y41.835
X-40.961 Y41.837
X-40.458 Y41.834
X-40.39 Y41.829
X-40.291 Y41.818
X-40.123 Y41.792
X-39.956 Y41.754
X-39.788 Y41.697
X-39.693 Y41.662
X-39.453 Y41.541
X-39.286 Y41.427
X-39.213 Y41.371
X-39.089 Y41.287
X-38.911 Y41.187
X-38.68 Y41.081
X-38.437 Y40.993
X-38.218 Y40.949
X-37.996 Y40.972
X-37.791 Y41.06
G3 X-37.882 Y41.629 I-0.178 J0.263
G1 X-37.943 Y41.646
X-38.926 Y41.923
G3 X-39.213 Y41.371 I-0.086 J-0.306
G1 X-39.154 Y41.326
X-38.973 Y41.159
X-38.783 Y40.919
X-38.715 Y40.823
X-38.694 Y40.788
X-38.676 Y40.76
X-38.65 Y40.728
X-38.616 Y40.696
X-38.583 Y40.673
X-38.551 Y40.656
X-38.499 Y40.637
X-38.448 Y40.628
X-38.407 Y40.626
X-38.366 Y40.63
X-38.324 Y40.64
X-38.281 Y40.657
X-38.239 Y40.681
X-38.197 Y40.715
X-38.102 Y40.823
X-38.004 Y40.921
X-37.985 Y40.939
X-37.495 Y41.245
X-37.485 Y41.25
X-37.443 Y41.265
X-37.275 Y41.318
X-37.045 Y41.364
X-36.57 Y41.349
X-36.552 Y41.347
X-36.438 Y41.32
X-36.27 Y41.259
X-36.124 Y41.2
X-36.113 Y41.194
X-35.948 Y41.114
X-35.669 Y41.004
X-35.291 Y40.89
X-34.743 Y40.771
X-34.154 Y40.692
X-33.957
X-33.767 Y40.745
X-33.597 Y40.845
X-33.46 Y40.987
X-33.315 Y41.159
X-33.255 Y41.216
X-33.087 Y41.37
X-33.003 Y41.432
X-32.904 Y41.494
X-32.752 Y41.586
X-32.585 Y41.662
X-32.417 Y41.725
X-32.249 Y41.775
X-32.082 Y41.806
X-31.914 Y41.826
X-31.747 Y41.837
X-31.579 Y41.835
X-31.465 Y41.829
X-31.412 Y41.823
X-31.244 Y41.803
X-31.077 Y41.765
X-30.909 Y41.713
X-30.769 Y41.662
X-30.574 Y41.565
X-30.461 Y41.494
X-30.407 Y41.457
X-30.314 Y41.389
X-30.142 Y41.276
X-29.959 Y41.175
X-29.721 Y41.069
X-29.404 Y40.957
X-28.964 Y40.839
X-28.311 Y40.721
X-27.577 Y40.647
X-26.84 Y40.609
X-26.102 Y40.589
X-25.365 Y40.579
X-24.565 Y40.573
X-24.39 Y40.594
X-24.224 Y40.655
X-24.078 Y40.753
X-23.959 Y40.884
X-23.883 Y40.991
X-23.873 Y41.003
X-23.742 Y41.159
X-23.538 Y41.351
X-23.37 Y41.47
X-23.335 Y41.494
X-23.203 Y41.573
X-23.023 Y41.662
X-22.868 Y41.717
X-22.7 Y41.768
X-22.533 Y41.805
X-22.365 Y41.825
G3 X-22.433 Y42.455 I-0.047 J0.314
G1 X-30.119 Y41.957
X-30.139 Y41.956
G3 X-30.314 Y41.389 I0.021 J-0.317
G1 X-30.239 Y41.334
X-30.072 Y41.18
X-30.051 Y41.159
X-29.904 Y40.973
X-29.798 Y40.823
X-29.764 Y40.763
X-29.684 Y40.637
X-29.59 Y40.52
X-29.483 Y40.41
X-29.364 Y40.306
X-29.212 Y40.193
X-29.012 Y40.068
X-28.776 Y39.946
X-28.472 Y39.819
X-28.075 Y39.688
X-27.525 Y39.556
X-26.796 Y39.441
X-26.061 Y39.378
X-25.467 Y39.349
X-25.125 Y39.361
X-24.94 Y39.382
X-24.751 Y39.429
X-24.581 Y39.523
X-24.441 Y39.659
X-24.342 Y39.826
X-24.29 Y40.014
X-24.27 Y40.153
X-24.208 Y40.385
X-24.168 Y40.488
X-24.096 Y40.656
X-24.002 Y40.823
X-23.959 Y40.884
G3 X-24.233 Y41.376 I-0.265 J0.175
G1 X-24.325 Y41.374
X-29.349 Y41.231
X-29.492 Y41.227
G3 X-29.764 Y40.763 I0.009 J-0.317
G1 X-29.703 Y40.656
X-29.633 Y40.488
X-29.572 Y40.32
X-29.532 Y40.153
X-29.528 Y40.125
X-29.498 Y39.978
X-29.443 Y39.838
X-29.372 Y39.706
X-29.288 Y39.582
X-29.193 Y39.465
X-29.072 Y39.338
X-28.912 Y39.196
X-28.736 Y39.063
X-28.51 Y38.919
X-28.217 Y38.764
X-27.887 Y38.622
X-27.442 Y38.472
X-26.884 Y38.332
X-26.356 Y38.244
X-25.938 Y38.209
X-25.617 Y38.207
X-25.362 Y38.226
X-25.134 Y38.262
X-24.941 Y38.309
X-24.748 Y38.372
X-24.675 Y38.403
X-24.495 Y38.511
X-24.352 Y38.665
X-24.258 Y38.853
X-24.221 Y39.059
X-24.243 Y39.268
X-24.255 Y39.314
X-24.29 Y39.482
X-24.307 Y39.65
X-24.306 Y39.817
X-24.294 Y39.985
X-24.29 Y40.014
G3 X-24.597 Y40.365 I-0.316 J0.034
G1 X-24.858 Y40.371
X-28.963 Y40.473
X-29.205 Y40.479
G3 X-29.528 Y40.125 I-0.008 J-0.317
G1 X-29.507 Y39.985
X-29.496 Y39.817
X-29.495 Y39.65
X-29.511 Y39.482
X-29.526 Y39.333
X-29.505 Y39.184
X-29.465 Y39.04
X-29.409 Y38.9
X-29.34 Y38.767
X-29.255 Y38.63
X-29.147 Y38.485
X-29.017 Y38.337
X-28.848 Y38.173
X-28.66 Y38.018
X-28.408 Y37.841
X-28.135 Y37.682
X-27.791 Y37.516
X-27.412 Y37.37
X-27.018 Y37.253
X-26.626 Y37.17
X-26.251 Y37.122
X-25.895 Y37.105
X-25.56 Y37.116
X-25.291 Y37.147
X-25.038 Y37.196
X-24.843 Y37.251
X-24.642 Y37.325
X-24.475 Y37.403
X-24.328 Y37.486
X-24.178 Y37.588
X-24.158 Y37.603
X-24.016 Y37.755
X-23.921 Y37.941
X-23.882 Y38.145
X-23.901 Y38.353
X-23.977 Y38.546
X-24.041 Y38.66
X-24.111 Y38.811
X-24.17 Y38.979
X-24.243 Y39.268
G3 X-24.532 Y39.497 I-0.305 J-0.089
G1 X-24.924 Y39.516
X-28.846 Y39.713
X-29.185 Y39.731
G3 X-29.511 Y39.482 I-0.016 J-0.317
G1 X-29.542 Y39.314
X-29.569 Y39.194
X-29.584 Y39.147
X-29.643 Y38.979
X-29.657 Y38.951
X-29.715 Y38.813
X-29.734 Y38.664
X-29.731 Y38.514
X-29.711 Y38.365
X-29.676 Y38.22
X-29.626 Y38.076
X-29.563 Y37.931
X-29.475 Y37.769
X-29.372 Y37.609
X-29.234 Y37.429
X-29.079 Y37.257
X-28.879 Y37.069
X-28.654 Y36.889
X-28.391 Y36.71
X-28.083 Y36.536
X-27.745 Y36.379
X-27.387 Y36.246
X-27.007 Y36.139
X-26.612 Y36.062
X-26.226 Y36.018
X-25.861 Y36.006
X-25.514 Y36.022
X-25.186 Y36.064
X-24.879 Y36.129
X-24.608 Y36.209
X-24.381 Y36.297
X-24.177 Y36.395
X-24.014 Y36.491
X-23.849 Y36.606
X-23.714 Y36.717
X-23.598 Y36.83
X-23.483 Y36.961
X-23.439 Y37.02
X-23.338 Y37.206
X-23.294 Y37.412
X-23.31 Y37.623
X-23.385 Y37.82
X-23.512 Y37.989
X-23.705 Y38.18
X-23.811 Y38.308
X-23.873 Y38.388
X-23.937 Y38.476
X-23.977 Y38.546
G3 X-24.222 Y38.697 I-0.271 J-0.166
G1 X-24.707 Y38.737
X-28.938 Y39.087
X-29.349 Y39.121
G3 X-29.657 Y38.951 I-0.026 J-0.316
G1 X-29.724 Y38.811
X-29.737 Y38.786
X-29.816 Y38.644
X-29.924 Y38.476
X-29.946 Y38.448
X-30.034 Y38.326
X-30.083 Y38.184
X-30.11 Y38.037
X-30.12 Y37.887
X-30.114 Y37.737
X-30.094 Y37.589
X-30.058 Y37.431
X-30.008 Y37.272
X-29.938 Y37.096
X-29.847 Y36.915
X-29.733 Y36.726
X-29.587 Y36.523
X-29.421 Y36.327
X-29.214 Y36.119
X-28.971 Y35.911
X-28.704 Y35.719
X-28.395 Y35.531
X-28.045 Y35.355
X-27.664 Y35.201
X-27.263 Y35.075
X-26.849 Y34.98
X-26.429 Y34.919
X-26.01 Y34.892
X-25.601 Y34.899
X-25.213 Y34.937
X-24.846 Y35.003
X-24.508 Y35.092
X-24.196 Y35.201
X-23.915 Y35.326
X-23.655 Y35.468
X-23.443 Y35.607
X-23.245 Y35.76
X-23.091 Y35.9
X-22.961 Y36.04
X-22.839 Y36.193
X-22.747 Y36.331
X-22.665 Y36.478
X-22.595 Y36.631
X-22.569 Y36.703
X-22.525 Y36.92
X-22.547 Y37.141
X-22.634 Y37.345
X-22.777 Y37.514
X-22.964 Y37.633
X-22.974 Y37.638
X-23.035 Y37.67
X-23.203 Y37.762
X-23.27 Y37.806
X-23.37 Y37.878
X-23.496 Y37.973
X-23.512 Y37.989
X-23.569 Y38.03
X-23.633 Y38.059
X-23.702 Y38.072
X-24.274 Y38.119
X-29.196 Y38.52
X-29.679 Y38.559
G3 X-29.946 Y38.448 I-0.026 J-0.316
G1 X-30.057 Y38.308
X-30.239 Y38.131
X-30.267 Y38.109
X-30.381 Y38.011
X-30.472 Y37.892
X-30.541 Y37.759
X-30.592 Y37.618
X-30.626 Y37.472
X-30.644 Y37.323
X-30.648 Y37.173
X-30.64 Y37.018
X-30.616 Y36.846
X-30.578 Y36.67
X-30.519 Y36.474
X-30.439 Y36.273
X-30.336 Y36.061
X-30.201 Y35.835
X-30.044 Y35.613
X-29.851 Y35.383
X-29.616 Y35.144
X-29.352 Y34.916
X-29.052 Y34.696
X-28.707 Y34.483
X-28.322 Y34.286
X-27.903 Y34.113
X-27.46 Y33.97
X-26.999 Y33.862
X-26.528 Y33.79
X-26.053 Y33.757
X-25.585 Y33.761
X-25.132 Y33.802
X-24.698 Y33.877
X-24.285 Y33.983
X-23.901 Y34.115
X-23.545 Y34.271
X-23.228 Y34.44
X-22.946 Y34.622
X-22.696 Y34.813
X-22.47 Y35.016
X-22.273 Y35.225
X-22.123 Y35.411
X-21.986 Y35.614
X-21.888 Y35.784
X-21.808 Y35.957
X-21.741 Y36.136
X-21.697 Y36.292
X-21.665 Y36.454
X-21.646 Y36.622
X-21.644 Y36.676
X-21.669 Y36.895
X-21.757 Y37.096
X-21.9 Y37.263
X-22.086 Y37.38
X-22.298 Y37.438
X-22.365 Y37.446
X-22.525 Y37.47
X-22.7 Y37.523
X-22.868 Y37.591
X-22.964 Y37.633
X-23.011 Y37.648
X-23.06 Y37.656
X-23.745 Y37.706
X-29.496 Y38.127
X-30.058 Y38.169
X-30.113 Y38.168
X-30.168 Y38.157
X-30.219 Y38.138
X-30.267 Y38.109
X-30.443 Y37.973
X-30.509 Y37.931
X-30.574 Y37.894
X-30.742 Y37.809
X-30.872 Y37.734
X-30.981 Y37.632
X-31.073 Y37.513
X-31.148 Y37.383
X-31.208 Y37.246
X-31.254 Y37.103
X-31.286 Y36.956
X-31.307 Y36.797
X-31.316 Y36.63
X-31.311 Y36.445
X-31.289 Y36.243
X-31.25 Y36.037
X-31.188 Y35.811
X-31.1 Y35.571
X-30.99 Y35.329
X-30.845 Y35.07
X-30.664 Y34.8
X-30.458 Y34.541
X-30.208 Y34.273
X-29.911 Y34.002
X-29.57 Y33.737
X-29.199 Y33.495
X-28.786 Y33.27
X-28.33 Y33.067
X-27.84 Y32.894
X-27.323 Y32.758
X-26.789 Y32.662
X-26.247 Y32.61
X-25.706 Y32.601
X-25.173 Y32.635
X-24.655 Y32.71
X-24.158 Y32.823
X-23.687 Y32.971
X-23.25 Y33.149
X-22.85 Y33.349
X-22.487 Y33.57
X-22.163 Y33.804
X-21.871 Y34.053
X-21.616 Y34.309
X-21.398 Y34.566
X-21.215 Y34.821
X-21.06 Y35.077
X-20.932 Y35.335
X-20.843 Y35.555
X-20.77 Y35.788
X-20.726 Y35.983
X-20.7 Y36.167
X-20.688 Y36.36
X-20.692 Y36.525
X-20.708 Y36.684
X-20.729 Y36.799
X-20.799 Y37.009
X-20.927 Y37.191
X-21.101 Y37.328
X-21.307 Y37.41
X-21.528 Y37.43
X-21.863 Y37.412
X-22.03 Y37.406
X-22.298 Y37.438
X-23.083 Y37.476
X-29.961 Y37.808
X-30.592 Y37.838
X-30.644 Y37.837
X-30.694 Y37.827
X-30.742 Y37.809
X-30.748 Y37.806
X-30.909 Y37.741
X-31.077 Y37.686
X-31.21 Y37.652
X-31.354 Y37.609
X-31.485 Y37.536
X-31.602 Y37.442
X-31.705 Y37.333
X-31.794 Y37.212
X-31.871 Y37.084
X-31.935 Y36.948
X-31.989 Y36.804
X-32.034 Y36.647
X-32.07 Y36.467
X-32.091 Y36.28
X-32.099 Y36.071
X-32.089 Y35.842
X-32.059 Y35.609
X-32.005 Y35.35
X-31.924 Y35.074
X-31.819 Y34.8
X-31.679 Y34.507
X-31.499 Y34.197
X-31.282 Y33.884
X-31.03 Y33.578
X-30.73 Y33.267
X-30.38 Y32.958
X-29.98 Y32.658
X-29.535 Y32.378
X-29.059 Y32.129
X-28.54 Y31.909
X-27.98 Y31.723
X-27.39 Y31.578
X-26.781 Y31.48
X-26.162 Y31.43
X-25.542
X-24.929 Y31.48
X-24.332 Y31.577
X-23.758 Y31.718
X-23.215 Y31.899
X-22.71 Y32.113
X-22.247 Y32.356
X-21.824 Y32.623
X-21.44 Y32.911
X-21.095 Y33.216
X-20.788 Y33.533
X-20.519 Y33.862
X-20.294 Y34.186
X-20.11 Y34.502
X-19.963 Y34.811
X-19.846 Y35.117
X-19.758 Y35.415
X-19.7 Y35.696
X-19.669 Y35.943
X-19.659 Y36.189
X-19.666 Y36.384
X-19.69 Y36.589
X-19.726 Y36.771
X-19.77 Y36.927
X-19.833 Y37.096
X-19.902 Y37.243
X-19.917 Y37.269
X-20.045 Y37.434
X-20.215 Y37.557
X-20.412 Y37.627
X-20.621 Y37.64
X-20.825 Y37.594
X-20.857 Y37.581
X-21.025 Y37.525
X-21.274 Y37.47
X-21.36 Y37.453
X-21.528 Y37.43
G3 X-21.623 Y36.838 I0.055 J-0.313
G1 X-21.561 Y36.804 Z-3.984
X-21.502 Y36.772 Z-3.961
X-21.449 Y36.744 Z-3.923
X-21.405 Y36.72 Z-3.873
X-21.372 Y36.702 Z-3.813
X-21.351 Y36.691 Z-3.746
X-21.344 Y36.687 Z-3.675
G0 Z5.
X-22.522 Y42.233
Z-3.357
G1 Z-3.675 F1016.
X-22.515 Y42.229 Z-3.746
X-22.495 Y42.216 Z-3.813
X-22.462 Y42.197 Z-3.873
X-22.42 Y42.17 Z-3.923
X-22.368 Y42.139 Z-3.961
X-22.311 Y42.104 Z-3.984
X-22.251 Y42.067 Z-3.992
G3 X-21.5 Y41.837 I0.825 J1.351
G1 X-21.36 Y41.836
X-21.192 Y41.831
X-21.025 Y41.811
X-20.857 Y41.778
X-20.69 Y41.734
X-20.492 Y41.662
X-20.355 Y41.594
X-20.187 Y41.499
X-20.02 Y41.382
X-19.897 Y41.297
X-19.723 Y41.198
X-19.498 Y41.093
X-19.203 Y40.982
X-18.798 Y40.866
X-18.201 Y40.747
X-17.468 Y40.661
X-16.732 Y40.616
X-15.994 Y40.593
X-15.257 Y40.58
X-14.519 Y40.573
X-13.781 Y40.568
X-13.043 Y40.565
X-12.305 Y40.563
X-10.83 Y40.562
X-8.616 Y40.564
X-6.403 Y40.567
X-4.927 Y40.566
X-3.452 Y40.564
X-2.714 Y40.563
X-1.238 Y40.566
X3.189 Y40.567
X30.488
X31.963 Y40.564
X32.701 Y40.563
X33.439
X34.915 Y40.566
X38.604 Y40.567
X41.555
X42.43 Y40.566
X42.606 Y40.587
X42.772 Y40.65
X42.919 Y40.75
X43.037 Y40.882
X43.113 Y40.991
X43.139 Y41.025
X43.255 Y41.159
X43.424 Y41.326
X43.474 Y41.367
X43.654 Y41.494
X43.809 Y41.583
X43.977 Y41.662
X44.144 Y41.729
X44.312 Y41.773
X44.479 Y41.807
X44.647 Y41.829
X44.814 Y41.835
X44.982 Y41.834
X45.108 Y41.829
X45.149 Y41.825
X45.317 Y41.801
X45.484 Y41.764
X45.652 Y41.717
X45.799 Y41.662
X45.819 Y41.653
X45.861 Y41.637
X45.903 Y41.627
X45.945 Y41.622
X45.987 Y41.623
X46.189 Y41.662
X46.322 Y41.688
X46.489 Y41.716
X46.657 Y41.761
X46.825 Y41.795
X46.992 Y41.818
X47.099 Y41.829
X47.16 Y41.832
X47.495 Y41.836
G3 X47.619 Y42.444 I-0.003 J0.317
G1 X47.58 Y42.454
X47.54 Y42.453
X47.502 Y42.44
X47.469 Y42.417
X47.445 Y42.385
X47.431 Y42.347
X47.429 Y42.307
G3 X47.581 Y42.065 I0.316 J0.029
X48.332 Y41.837 I0.82 J1.353
G1 X48.5 Y41.836
X48.667 Y41.825
X48.835 Y41.808
X49.002 Y41.785
X49.17 Y41.749
X49.337 Y41.707
X49.505 Y41.656
X49.673 Y41.591
X49.84 Y41.519
X49.892 Y41.494
X50.008 Y41.432
X50.175 Y41.329
X50.328 Y41.234
X50.532 Y41.131
X50.797 Y41.021
X51.152 Y40.907
X51.657 Y40.788
X52.387 Y40.678
X53.122 Y40.621
X53.86 Y40.591
X54.236 Y40.585
X54.419 Y40.604
X54.591 Y40.669
X54.743 Y40.773
X54.863 Y40.912
X54.926 Y40.991
X55.033 Y41.108
X55.084 Y41.159
X55.201 Y41.262
X55.281 Y41.326
X55.369 Y41.387
X55.543 Y41.494
X55.704 Y41.578
X55.871 Y41.652
X56.039 Y41.708
X56.206 Y41.753
X56.374 Y41.791
X56.541 Y41.814
X56.709 Y41.828
X56.811 Y41.833
G3 X57.11 Y42.19 I-0.016 J0.317
G1 X57.078 Y42.45
X57.047 Y42.696
G3 X56.417 Y42.617 I-0.315 J-0.039
X56.56 Y42.39 I0.315 J0.039
X58.217 Y41.837 I1.907 J2.957
G1 X58.421 Y41.829
X58.552 Y41.82
X58.719 Y41.801
X58.887 Y41.773
X59.054 Y41.739
X59.222 Y41.694
X59.325 Y41.662
X59.389 Y41.638
X59.557 Y41.573
X59.724 Y41.49
X59.892 Y41.388
X59.978 Y41.326
X60.1 Y41.239
X60.301 Y41.136
X60.564 Y41.028
X60.918 Y40.914
X61.004 Y40.894
X61.165 Y40.874
X61.327 Y40.89
X61.48 Y40.941
G3 X61.429 Y41.53 I-0.142 J0.284
G1 X61.404 Y41.537
X60.275 Y41.872
G3 X59.978 Y41.326 I-0.09 J-0.304
G1 X60.059 Y41.261
X60.172 Y41.159
X60.227 Y41.105
X60.325 Y40.991
X60.394 Y40.906
X60.455 Y40.823
X60.499 Y40.758
X60.526 Y40.725
X60.562 Y40.693
X60.593 Y40.672
X60.623 Y40.656
X60.676 Y40.633
X60.729 Y40.621
X60.771 Y40.618
X60.813 Y40.62
X60.855 Y40.628
X60.897 Y40.642
X60.926 Y40.656
X61.065 Y40.737
X61.222 Y40.823
X61.699 Y41.04
X61.735 Y41.05
X62.196 Y41.159
X62.217 Y41.16
X62.572 Y41.176
X62.74 Y41.178
X63.201 Y41.125
X63.211 Y41.123
X63.708 Y40.972
X63.985 Y40.823
X64.08 Y40.77
X64.178 Y40.707
X64.198 Y40.693
X64.593 Y40.32
X64.671 Y40.236
X64.724 Y40.153
X64.929 Y39.807
X64.941 Y39.775
X65.107 Y39.314
X65.141 Y39.147
X65.173 Y38.979
X65.201 Y38.811
X65.203 Y38.644
X65.202 Y38.308
X65.182 Y38.141
X65.124 Y37.791
X64.936 Y37.303
X64.918 Y37.265
X64.852 Y37.13
X64.742 Y36.847
X64.627 Y36.463
X64.509 Y35.905
X64.413 Y35.173
X64.364 Y34.437
X64.338 Y33.699
X64.325 Y32.962
X64.321 Y32.624
X64.347 Y32.423
X64.427 Y32.236
X64.555 Y32.077
X64.721 Y31.96
G3 X65.174 Y32.225 I0.136 J0.287
G1 X65.186 Y32.392
X65.503 Y37.074
G3 X64.918 Y37.265 I-0.317 J0.022
G1 X64.745 Y36.967
X64.644 Y36.8
X64.583 Y36.719
X64.514 Y36.632
X64.415 Y36.512
X64.193 Y36.297
X64.159 Y36.268
X64.049 Y36.166
X63.95 Y36.044
X63.842 Y35.886
X63.727 Y35.687
X63.611 Y35.442
X63.488 Y35.116
X63.364 Y34.687
X63.238 Y34.069
X63.181 Y33.604
X63.169 Y33.304
X63.18 Y33.026
X63.198 Y32.879
X63.263 Y32.653
X63.396 Y32.458
X63.584 Y32.315
X63.807 Y32.238
G3 X64.164 Y32.507 I0.043 J0.315
G1 X64.206 Y32.793
X64.665 Y35.943
X64.669 Y35.972
G3 X64.159 Y36.268 I-0.314 J0.046
G1 X64.08 Y36.201
X63.745 Y35.932
X63.577 Y35.809
X63.554 Y35.794
X63.41 Y35.711
X63.36 Y35.685
X63.23 Y35.61
X63.11 Y35.521
X62.997 Y35.418
X62.877 Y35.289
X62.762 Y35.143
X62.636 Y34.955
X62.522 Y34.751
X62.415 Y34.517
X62.321 Y34.258
X62.251 Y34.001
X62.207 Y33.77
X62.181 Y33.533
X62.176 Y33.342
X62.186 Y33.156
X62.212 Y32.966
X62.246 Y32.808
X62.249 Y32.797
X62.33 Y32.619
X62.455 Y32.469
X62.615 Y32.356
X62.799 Y32.289
X62.994 Y32.272
X63.242 Y32.285
X63.433 Y32.273
X63.745 Y32.249
X63.913 Y32.22
X64.248 Y32.151
X64.398 Y32.105
X64.415 Y32.099
X64.583 Y32.032
X64.721 Y31.96
G3 X65.149 Y32.373 I0.136 J0.287
G1 X65.142 Y32.387
X63.896 Y35.268
X63.785 Y35.523
G3 X63.36 Y35.685 I-0.291 J-0.126
G1 X63.242 Y35.625
X63.075 Y35.555
X62.74 Y35.449
X62.572 Y35.404
X62.53 Y35.393
X62.489 Y35.377
X62.447 Y35.352
X62.405 Y35.317
X62.381 Y35.291
X62.348 Y35.249
X62.324 Y35.207
X62.221 Y34.955
X62.07 Y34.578
X62.015 Y34.452
X61.902 Y34.237
X61.828 Y34.117
X61.735 Y33.978
X61.654 Y33.852
X61.586 Y33.718
X61.53 Y33.579
X61.488 Y33.435
X61.46 Y33.288
X61.445 Y33.138
Y32.988
X61.459 Y32.839
X61.486 Y32.692
X61.489 Y32.684
X61.583 Y32.484
X61.732 Y32.32
X61.923 Y32.208
X62.139 Y32.157
X62.36 Y32.173
G3 X62.59 Y32.55 I-0.08 J0.307
G1 X62.524 Y32.839
X62.311 Y33.789
X62.296 Y33.854
G3 X61.735 Y33.978 I-0.31 J-0.07
G1 X61.353 Y33.447
X61.147 Y33.143
X61.069 Y33.014
X61.025 Y32.799
X61.054 Y32.58
X61.151 Y32.383
X61.308 Y32.228
X61.506 Y32.132
X61.725 Y32.105
G3 X61.984 Y32.58 I-0.017 J0.317
G1 X61.915 Y32.7
X61.755 Y32.981
X61.679 Y33.114
G3 X61.147 Y33.143 I-0.276 J-0.158
G1 X61.012 Y32.944
X60.897 Y32.791
X60.885 Y32.776
X60.795 Y32.656
X60.775 Y32.479
X60.825 Y32.308
X60.938 Y32.169
X61.094 Y32.085
X61.272 Y32.068
G3 X61.541 Y32.219 I-0.058 J0.418
X60.885 Y32.776 I-0.334 J0.272
G1 X60.816 Y32.692
X60.782 Y32.65
X60.757 Y32.608
X60.729 Y32.557
X60.699 Y32.499
X60.689 Y32.47
X60.681 Y32.441
X60.676 Y32.399
X60.675 Y32.357
X60.681 Y32.315
X60.692 Y32.273
X60.708 Y32.235
X60.729 Y32.198
X60.747 Y32.175
X60.768 Y32.152
X60.82 Y32.105
X60.859 Y32.081
X60.897 Y32.064
X60.939 Y32.052
X60.981 Y32.046
X61.065 Y32.047
X61.567 Y32.098
X61.735 Y32.106
X61.902 Y32.108
X62.07
X62.74 Y32.257
X62.907 Y32.268
X62.994 Y32.272
G3 X63.143 Y32.854 I-0.026 J0.316
G1 X63.084 Y32.893 Z-3.984
X63.028 Y32.93 Z-3.961
X62.978 Y32.963 Z-3.923
X62.936 Y32.991 Z-3.873
X62.904 Y33.011 Z-3.813
X62.885 Y33.024 Z-3.746
X62.878 Y33.029 Z-3.675
G0 Z5.
X66.769 Y24.361
Z-3.357
G1 Z-3.675 F1016.
X66.764 Y24.355 Z-3.746
X66.749 Y24.337 Z-3.813
X66.725 Y24.308 Z-3.873
X66.692 Y24.27 Z-3.923
X66.653 Y24.224 Z-3.961
X66.61 Y24.173 Z-3.984
X66.564 Y24.119 Z-3.992
G3 X65.588 Y22.671 I6.192 J-5.231
G1 X65.529 Y22.549
X65.515 Y22.507
X65.508 Y22.465
X65.506 Y22.423
X65.509 Y22.382
X65.531 Y22.289
G3 X66.149 Y22.439 I0.309 J0.075
X65.531 Y22.289 I-0.309 J-0.075
X65.609 Y22.147 I0.309 J0.075
G1 X65.921 Y21.814
G3 X66.384 Y22.249 I0.231 J0.217
X65.872 Y22.181 I-0.231 J-0.217
X65.58 Y21.452 I3.218 J-1.713
G1 X65.52 Y21.208
X65.478 Y21.04
X65.405 Y20.873
X65.318 Y20.705
X65.253 Y20.592
X65.216 Y20.537
X65.145 Y20.445
X65.047 Y20.303
X64.948 Y20.133
X64.843 Y19.914
X64.811 Y19.829
X64.763 Y19.605
X64.786 Y19.377
X64.878 Y19.167
G3 X65.435 Y19.26 I0.257 J0.176
G1 X65.456 Y19.335
X65.686 Y20.163
G3 X65.145 Y20.445 I-0.3 J0.083
G1 X65.085 Y20.368
X64.918 Y20.201
X64.75 Y20.053
X64.679 Y20.003
X64.656 Y19.985
X64.633 Y19.963
X64.604 Y19.927
X64.583 Y19.892
X64.571 Y19.867
X64.557 Y19.825
X64.549 Y19.783
X64.547 Y19.741
X64.551 Y19.699
X64.562 Y19.649
X64.583 Y19.6
X64.603 Y19.565
X64.63 Y19.531
X64.752 Y19.364
X64.897 Y19.136
X65.045 Y18.693
X65.083 Y18.526
X65.142 Y18.19
X65.155 Y18.023
X65.163 Y17.624
X65.068 Y17.153
X65.063 Y17.142
X64.992 Y17.017
X64.864 Y16.758
X64.755 Y16.486
X64.64 Y16.118
X64.522 Y15.591
X64.419 Y14.861
X64.366 Y14.125
X64.338 Y13.387
X64.323 Y12.65
X64.316 Y11.912
X64.311 Y11.174
X64.308 Y9.698
X64.307 Y7.285
X64.334 Y7.087
X64.413 Y6.903
X64.538 Y6.747
X64.701 Y6.63
G3 X65.125 Y7.054 I0.139 J0.286
G1 X65.094 Y7.118 Z-3.984
X65.065 Y7.178 Z-3.961
X65.039 Y7.232 Z-3.923
X65.017 Y7.277 Z-3.873
X65.001 Y7.311 Z-3.813
X64.99 Y7.333 Z-3.746
X64.987 Y7.34 Z-3.675
G0 Z5.
X65.83 Y17.724
Z-3.357
G1 Z-3.675 F1016.
X65.823 Y17.72 Z-3.746
X65.802 Y17.708 Z-3.813
X65.77 Y17.689 Z-3.873
X65.726 Y17.664 Z-3.923
X65.674 Y17.634 Z-3.961
X65.616 Y17.601 Z-3.984
X65.555 Y17.565 Z-3.992
G3 X64.992 Y17.017 I0.79 J-1.371
G1 X64.804 Y16.681
X64.75 Y16.607
X64.659 Y16.514
X64.283 Y16.178
X64.248 Y16.152
X64.127 Y16.063
X64.026 Y15.95
X63.921 Y15.813
X63.808 Y15.636
X63.688 Y15.411
X63.568 Y15.135
X63.441 Y14.764
X63.313 Y14.263
X63.189 Y13.535
X63.121 Y12.801
X63.083 Y12.064
X63.062 Y11.326
X63.051 Y10.589
X63.044 Y9.851
X63.041 Y9.113
X63.039 Y8.375
X63.052 Y7.96
X63.088 Y7.638
X63.121 Y7.47
X63.184 Y7.283
X63.294 Y7.119
X63.444 Y6.99
X63.622 Y6.905
X63.816 Y6.871
X63.913 Y6.867
X64.08 Y6.848
X64.248 Y6.81
X64.322 Y6.79
X64.583 Y6.693
X64.701 Y6.63
G3 X65.125 Y7.054 I0.139 J0.286
G1 X65.094 Y7.118 Z-3.984
X65.065 Y7.178 Z-3.961
X65.039 Y7.232 Z-3.923
X65.017 Y7.277 Z-3.873
X65.001 Y7.311 Z-3.813
X64.99 Y7.333 Z-3.746
X64.987 Y7.34 Z-3.675
G0 Z5.
X65.326 Y16.344
Z-3.357
G1 Z-3.675 F1016.
X65.319 Z-3.746
X65.295 Z-3.813
X65.257 Z-3.873
X65.207 Z-3.923
X65.147 Z-3.961
X65.08 Y16.345 Z-3.984
X65.009 Z-3.992
G3 X64.248 Y16.152 I-0.004 J-1.583
G1 X64.08 Y16.053
X63.725 Y15.851
X63.706 Y15.843
X63.667 Y15.835
X63.522 Y15.796
X63.387 Y15.731
X63.26 Y15.65
X63.143 Y15.557
X63.024 Y15.445
X62.905 Y15.313
X62.772 Y15.141
X62.628 Y14.92
X62.498 Y14.678
X62.354 Y14.352
X62.215 Y13.953
X62.073 Y13.404
X61.945 Y12.677
X61.871 Y11.943
X61.827 Y11.206
X61.802 Y10.469
X61.787 Y9.731
X61.781 Y8.993
X61.8 Y8.415
X61.842 Y8.042
X61.896 Y7.768
X61.961 Y7.535
X62.034 Y7.338
X62.122 Y7.148
X62.163 Y7.076
X62.292 Y6.91
X62.462 Y6.787
X62.66 Y6.717
X62.87 Y6.706
X63.075 Y6.755
X63.178 Y6.79
X63.242 Y6.808
X63.41 Y6.844
X63.577 Y6.869
X63.745 Y6.874
X63.816 Y6.871
G3 X64.136 Y7.192 I0.002 J0.317
G1 X64.133 Y7.472
X64.043 Y15.292
X64.041 Y15.526
G3 X63.667 Y15.835 I-0.317 J-0.004
G1 X63.253 Y15.745
X63.242 Y15.746
X63.075 Y15.759
X62.925 Y15.764
X62.777 Y15.742
X62.633 Y15.7
X62.495 Y15.641
X62.363 Y15.569
X62.237 Y15.485
X62.099 Y15.376
X61.954 Y15.241
X61.807 Y15.082
X61.642 Y14.87
X61.492 Y14.641
X61.324 Y14.334
X61.162 Y13.974
X60.997 Y13.508
X60.842 Y12.928
X60.71 Y12.202
X60.628 Y11.469
X60.577 Y10.733
X60.546 Y9.996
X60.537 Y9.258
X60.567 Y8.633
X60.627 Y8.164
X60.711 Y7.768
X60.799 Y7.47
X60.894 Y7.223
X60.989 Y7.026
X61.101 Y6.835
X61.205 Y6.686
X61.324 Y6.542
X61.447 Y6.414
X61.476 Y6.39
X61.649 Y6.276
X61.846 Y6.215
X62.052 Y6.211
X62.252 Y6.264
X62.43 Y6.37
X62.572 Y6.485
X62.74 Y6.594
X62.788 Y6.622
X62.907 Y6.689
X63.075 Y6.755
G3 X63.265 Y7.043 I-0.128 J0.291
G1 X63.269 Y7.464
X63.352 Y15.12
X63.355 Y15.441
G3 X63.075 Y15.759 I-0.317 J0.003
G1 X62.792 Y15.783
X62.782 Y15.786
X62.572 Y15.871
X62.431 Y15.921
X62.282 Y15.943
X62.132 Y15.942
X61.984 Y15.922
X61.838 Y15.886
X61.697 Y15.836
X61.559 Y15.774
X61.403 Y15.688
X61.247 Y15.585
X61.076 Y15.451
X60.906 Y15.295
X60.721 Y15.094
X60.541 Y14.864
X60.345 Y14.57
X60.164 Y14.241
X59.965 Y13.802
X59.79 Y13.314
X59.613 Y12.656
X59.478 Y11.931
X59.389 Y11.199
X59.333 Y10.463
X59.309 Y9.725
X59.325 Y8.988
X59.384 Y8.402
X59.475 Y7.902
X59.585 Y7.489
X59.712 Y7.131
X59.857 Y6.807
X60. Y6.547
X60.145 Y6.326
X60.285 Y6.146
X60.42 Y5.999
X60.57 Y5.86
X60.62 Y5.821
X60.749 Y5.739
X60.893 Y5.685
X61.045 Y5.663
X61.065 Y5.662
X61.232 Y5.644
X61.4 Y5.632
X61.483 Y5.629
X61.567 Y5.633
X61.609 Y5.64
X61.651 Y5.654
X61.693 Y5.676
X61.735 Y5.705
X62.155 Y6.119
X62.237 Y6.2
X62.331 Y6.287
X62.405 Y6.35
X62.43 Y6.37
G3 X62.539 Y6.602 I-0.208 J0.24
G1 X62.552 Y7.123
X62.75 Y15.161
X62.76 Y15.574
G3 X62.572 Y15.871 I-0.317 J0.008
G1 X62.319 Y15.974
X62.302 Y15.985
X62.112 Y16.127
X61.987 Y16.211
X61.848 Y16.268
X61.702 Y16.302
X61.553 Y16.317
X61.403 Y16.315
X61.254 Y16.298
X61.103 Y16.266
X60.95 Y16.222
X60.778 Y16.156
X60.606 Y16.073
X60.414 Y15.962
X60.222 Y15.829
X60.019 Y15.662
X59.807 Y15.457
X59.595 Y15.217
X59.367 Y14.913
X59.159 Y14.583
X58.934 Y14.153
X58.72 Y13.65
X58.52 Y13.05
X58.344 Y12.334
X58.221 Y11.606
X58.139 Y10.873
X58.095 Y10.137
X58.092 Y9.399
X58.139 Y8.672
X58.227 Y8.064
X58.349 Y7.533
X58.5 Y7.056
X58.669 Y6.639
X58.845 Y6.291
X58.994 Y6.045
X59.137 Y5.875
X59.325 Y5.754
X59.539 Y5.695
X59.892 Y5.653
X60.059 Y5.658
X60.394 Y5.675
X60.562 Y5.678
X60.897 Y5.669
X61.045 Y5.663
G3 X61.364 Y5.952 I0.003 J0.317
G1 X61.391 Y6.262
X62.188 Y15.38
X62.229 Y15.852
G3 X62.112 Y16.127 I-0.316 J0.028
G1 X62.07 Y16.159
X61.896 Y16.346
X61.786 Y16.48
X61.685 Y16.591
X61.565 Y16.681
X61.433 Y16.751
X61.292 Y16.803
X61.146 Y16.837
X60.997 Y16.856
X60.847 Y16.861
X60.695 Y16.854
X60.522 Y16.832
X60.345 Y16.795
X60.151 Y16.737
X59.944 Y16.657
X59.734 Y16.556
X59.5 Y16.419
X59.271 Y16.259
X59.03 Y16.061
X58.772 Y15.81
X58.529 Y15.533
X58.269 Y15.185
X58.005 Y14.763
X57.769 Y14.308
X57.525 Y13.73
X57.298 Y13.041
X57.124 Y12.324
X56.999 Y11.597
X56.915 Y10.864
X56.871 Y10.128
X56.872 Y9.39
X56.921 Y8.654
X57.02 Y7.976
X57.162 Y7.354
X57.338 Y6.795
X57.503 Y6.39
X57.65 Y6.097
X57.657 Y6.085
X57.773 Y5.94
X57.921 Y5.828
X58.093 Y5.756
X58.277 Y5.729
X58.384 Y5.727
X58.887 Y5.723
X59.222 Y5.719
X59.389 Y5.713
X59.539 Y5.695
G3 X59.878 Y5.952 I0.026 J0.316
G1 X59.938 Y6.266
X61.748 Y15.718
X61.845 Y16.227
G3 X61.786 Y16.48 I-0.312 J0.06
G1 X61.758 Y16.514
X61.669 Y16.63
X61.657 Y16.647
X61.542 Y16.9
X61.473 Y17.033
X61.38 Y17.15
X61.268 Y17.25
X61.143 Y17.333
X61.009 Y17.401
X60.869 Y17.454
X60.724 Y17.493
X60.574 Y17.521
X60.412 Y17.537
X60.228 Y17.541
X60.04 Y17.529
X59.83 Y17.5
X59.607 Y17.45
X59.377 Y17.378
X59.121 Y17.276
X58.865 Y17.148
X58.598 Y16.988
X58.31 Y16.781
X58.025 Y16.539
X57.734 Y16.249
X57.434 Y15.899
X57.129 Y15.478
X56.852 Y15.022
X56.567 Y14.457
X56.299 Y13.795
X56.077 Y13.092
X55.906 Y12.374
X55.779 Y11.647
X55.694 Y10.914
X55.65 Y10.178
Y9.44
X55.696 Y8.704
X55.794 Y7.972
X55.941 Y7.272
X56.102 Y6.729
X56.177 Y6.534
X56.262 Y6.376
X56.385 Y6.245
X56.537 Y6.149
X56.709 Y6.096
X57.044 Y6.012
X57.211 Y5.95
X57.379 Y5.877
X57.463 Y5.832
X57.505 Y5.811
X57.546 Y5.797
X57.616 Y5.784
X57.714 Y5.772
X58.217 Y5.73
X58.277 Y5.729
G3 X58.577 Y5.962 I-0.005 J0.317
G1 X58.678 Y6.326
X61.401 Y16.139
X61.555 Y16.694
X61.566 Y16.763
X61.562 Y16.833
X61.542 Y16.9
X61.441 Y17.121
X61.438 Y17.142
X61.412 Y17.352
X61.386 Y17.5
X61.325 Y17.637
X61.24 Y17.761
X61.139 Y17.872
X61.026 Y17.969
X60.902 Y18.054
X60.771 Y18.127
X60.634 Y18.188
X60.483 Y18.24
X60.311 Y18.286
X60.131 Y18.318
X59.927 Y18.337
X59.704 Y18.34
X59.475 Y18.325
X59.221 Y18.288
X58.948 Y18.226
X58.672 Y18.138
X58.372 Y18.016
X58.052 Y17.855
X57.739 Y17.664
X57.41 Y17.425
X57.061 Y17.127
X56.71 Y16.774
X56.382 Y16.386
X56.046 Y15.917
X55.707 Y15.354
X55.387 Y14.71
X55.113 Y14.025
X54.89 Y13.322
X54.714 Y12.605
X54.581 Y11.879
X54.489 Y11.147
X54.437 Y10.411
X54.426 Y9.674
X54.457 Y8.936
X54.533 Y8.203
X54.656 Y7.475
X54.765 Y7.04
X54.859 Y6.761
X54.966 Y6.514
X54.996 Y6.456
X55.108 Y6.298
X55.257 Y6.175
X55.433 Y6.094
X55.623 Y6.062
X55.816 Y6.08
X55.871 Y6.092
X56.013 Y6.119
X56.039 Y6.123
X56.374 Y6.122
X56.541 Y6.121
X56.575 Y6.119
X56.709 Y6.096
G3 X57.048 Y6.293 I0.044 J0.314
G1 X57.182 Y6.629
X61.155 Y16.615
X61.391 Y17.207
X61.405 Y17.254
X61.412 Y17.303
Y17.352
X61.391 Y17.52
X61.384 Y17.687
X61.391 Y17.855
X61.39 Y18.005
X61.359 Y18.152
X61.303 Y18.291
X61.229 Y18.421
X61.139 Y18.541
X61.036 Y18.651
X60.924 Y18.75
X60.8 Y18.84
X60.666 Y18.923
X60.512 Y19.002
X60.337 Y19.074
X60.15 Y19.134
X59.937 Y19.184
X59.704 Y19.22
X59.461 Y19.237
X59.188 Y19.234
X58.893 Y19.207
X58.592 Y19.156
X58.267 Y19.072
X57.918 Y18.952
X57.558 Y18.795
X57.195 Y18.6
X56.808 Y18.351
X56.412 Y18.048
X56.008 Y17.685
X55.626 Y17.281
X55.238 Y16.798
X54.849 Y16.226
X54.485 Y15.584
X54.172 Y14.916
X53.908 Y14.227
X53.688 Y13.523
X53.511 Y12.807
X53.375 Y12.082
X53.279 Y11.35
X53.221 Y10.614
X53.201 Y9.877
X53.221 Y9.139
X53.281 Y8.404
X53.38 Y7.699
X53.494 Y7.192
X53.6 Y6.849
X53.701 Y6.599
X53.813 Y6.374
X53.921 Y6.193
X54.038 Y6.03
X54.056 Y6.01
X54.214 Y5.869
X54.405 Y5.78
X54.614 Y5.747
X54.824 Y5.776
X55.033 Y5.837
X55.536 Y6.014
X55.704 Y6.054
X55.816 Y6.08
G3 X56.023 Y6.253 I-0.081 J0.307
G1 X56.236 Y6.713
X61.079 Y17.136
X61.362 Y17.746
X61.381 Y17.799
X61.391 Y17.855
X61.401 Y18.095
X61.41 Y18.127
X61.472 Y18.324
X61.51 Y18.469
X61.516 Y18.619
X61.495 Y18.767
X61.453 Y18.911
X61.394 Y19.049
X61.319 Y19.18
X61.233 Y19.302
X61.135 Y19.416
X61.026 Y19.525
X60.893 Y19.638
X60.744 Y19.745
X60.578 Y19.845
X60.384 Y19.942
X60.175 Y20.026
X59.942 Y20.098
X59.681 Y20.157
X59.4 Y20.197
X59.105 Y20.215
X58.776 Y20.209
X58.419 Y20.173
X58.054 Y20.106
X57.673 Y20.005
X57.264 Y19.86
X56.831 Y19.666
X56.384 Y19.421
X55.948 Y19.134
X55.504 Y18.788
X55.051 Y18.372
X54.592 Y17.877
X54.139 Y17.303
X53.73 Y16.689
X53.369 Y16.045
X53.054 Y15.378
X52.784 Y14.692
X52.556 Y13.99
X52.367 Y13.277
X52.217 Y12.554
X52.103 Y11.825
X52.026 Y11.091
X51.985 Y10.355
X51.979 Y9.617
X52.01 Y8.88
X52.081 Y8.145
X52.189 Y7.51
X52.272 Y7.182
X52.291 Y7.119
X52.316 Y7.057
X52.346 Y6.998
X52.369 Y6.958
X52.475 Y6.79
X52.856 Y6.27
X52.961 Y6.119
X52.992 Y6.086
X53.023 Y6.058
X53.104 Y5.994
X53.145 Y5.97
X53.358 Y5.876
X53.553 Y5.784
X53.693 Y5.714
X53.861 Y5.627
X53.898 Y5.616
X53.93 Y5.611
X53.963 Y5.608
X54.028 Y5.612
X54.075 Y5.616
X54.196 Y5.631
X54.363 Y5.653
X54.531 Y5.692
X54.824 Y5.776
X54.88 Y5.8
X54.931 Y5.835
X54.974 Y5.879
X55.008 Y5.931
X55.257 Y6.408
X61.112 Y17.626
X61.455 Y18.283
X61.472 Y18.324
X61.556 Y18.589
X61.831 Y19.101
X61.902 Y19.174
X62.267 Y19.531
X62.405 Y19.661
X62.45 Y19.699
X62.511 Y19.747
X62.545 Y19.779
X62.567 Y19.809
X62.151 Y20.176
X61.789 Y20.447
X61.443 Y20.664
X61.093 Y20.847
X60.89 Y20.933
X60.76 Y20.974
X60.625 Y20.991
X60.489 Y20.983
G3 X60.438 Y20.373 I0.059 J-0.312
G1 X61.809 Y19.868
X62.222 Y19.716
G3 X62.545 Y19.779 I0.11 J0.298
G1 X62.572 Y19.812
X62.591 Y19.839
X62.605 Y19.867
X62.621 Y19.909
X62.631 Y19.951
X62.635 Y19.993
X62.633 Y20.034
X62.626 Y20.073
X62.615 Y20.112
X62.597 Y20.151
X62.572 Y20.19
X62.563 Y20.202
X62.405 Y20.373
X62.283 Y20.537
X62.237 Y20.607
X62.179 Y20.705
X62.092 Y20.873
X62.07 Y20.921
X62.054 Y20.951
X62.033 Y20.981
X62.007 Y21.011
X61.977 Y21.04
X61.94 Y21.068
X61.902 Y21.088
X61.86 Y21.104
X61.818 Y21.114
X61.777 Y21.117
X61.735 Y21.116
X61.567 Y21.104
X61.065 Y21.058
X60.897 Y21.038
X60.562 Y20.994
X60.394 Y20.968
X60.227 Y20.929
X60.059 Y20.888
X59.892 Y20.842
X59.724 Y20.793
X59.389 Y20.691
X58.792 Y20.537
X58.719 Y20.52
X58.552 Y20.484
X58.384 Y20.433
X58.198 Y20.37
X57.714 Y20.201
X57.546 Y20.145
X57.174 Y20.034
X57.044 Y19.997
X56.541 Y19.886
X56.039 Y19.767
X55.871 Y19.724
X55.369 Y19.582
X55.226 Y19.536
X54.985 Y19.434
X54.734 Y19.302
X54.45 Y19.122
X54.131 Y18.883
X53.791 Y18.581
X53.428 Y18.205
X53.031 Y17.719
X52.626 Y17.133
X52.256 Y16.495
X51.934 Y15.831
X51.657 Y15.147
X51.42 Y14.448
X51.221 Y13.738
X51.059 Y13.018
X50.931 Y12.291
X50.838 Y11.559
X50.778 Y10.824
X50.751 Y10.087
X50.753 Y9.906
X50.77 Y9.757
X50.816 Y9.614
X50.89 Y9.484
X51.018 Y9.305
X51.134 Y9.137
X51.18 Y9.072
X51.267 Y8.969
X51.348 Y8.865
X51.515 Y8.614
X51.609 Y8.466
X51.692 Y8.299
X51.765 Y8.131
X51.834 Y7.963
X52.087 Y7.461
X52.185 Y7.28
X52.346 Y6.998
G3 X52.926 Y7.093 I0.27 J0.167
G1 X52.934 Y7.128
X55.717 Y19.062
X55.749 Y19.201
G3 X55.369 Y19.582 I-0.309 J0.072
G1 X54.866 Y19.449
X54.698 Y19.411
X54.028 Y19.265
X53.861 Y19.231
X53.733 Y19.196
X53.526 Y19.131
X53.324 Y19.057
X53.145 Y18.975
X52.937 Y18.858
X52.692 Y18.693
X52.455 Y18.504
X52.165 Y18.232
X51.88 Y17.918
X51.549 Y17.489
X51.205 Y16.961
X50.858 Y16.318
X50.56 Y15.644
X50.306 Y14.95
X50.093 Y14.244
X49.915 Y13.528
X49.772 Y12.804
X49.661 Y12.075
X49.612 Y11.609
X49.615 Y11.422
X49.665 Y11.242
X49.759 Y11.081
X50.175 Y10.535
X50.218 Y10.478
X50.343 Y10.307
X50.459 Y10.143
X50.552 Y9.975
X50.641 Y9.808
X50.678 Y9.758
X50.813 Y9.589
X50.845 Y9.548
X50.89 Y9.484
G3 X51.449 Y9.594 I0.252 J0.193
G1 X51.47 Y9.671
X53.885 Y18.628
X53.916 Y18.742
G3 X53.526 Y19.131 I-0.307 J0.083
G1 X53.191 Y19.027
X53.023 Y18.979
X52.688 Y18.885
X52.595 Y18.861
X52.093 Y18.775
X51.947 Y18.742
X51.795 Y18.692
X51.643 Y18.628
X51.464 Y18.536
X51.26 Y18.409
X51.059 Y18.26
X50.82 Y18.051
X50.573 Y17.798
X50.303 Y17.472
X50.022 Y17.071
X49.712 Y16.544
X49.392 Y15.884
X49.125 Y15.196
X48.902 Y14.493
X48.718 Y13.779
X48.569 Y13.056
X48.529 Y12.786
X48.528 Y12.571
X48.589 Y12.364
X48.707 Y12.184
X48.733 Y12.155
X48.835 Y12.045
X49.075 Y11.819
X49.17 Y11.722
X49.337 Y11.54
X49.391 Y11.484
X49.558 Y11.317
X49.673 Y11.194
X49.759 Y11.081
G3 X50.309 Y11.192 I0.246 J0.201
G1 X50.337 Y11.285
X52.398 Y18.225
X52.441 Y18.37
G3 X52.093 Y18.775 I-0.304 J0.09
G1 X51.515 Y18.671
X51.18 Y18.561
X51.013 Y18.514
X50.845 Y18.47
X50.678 Y18.421
X50.343 Y18.319
X50.201 Y18.271
X50.051 Y18.199
X49.875 Y18.098
X49.681 Y17.963
X49.486 Y17.803
X49.255 Y17.58
X49.024 Y17.319
X48.766 Y16.975
X48.506 Y16.562
X48.219 Y16.016
X47.931 Y15.337
X47.696 Y14.637
X47.533 Y14.025
X47.501 Y13.855
X47.496 Y13.621
X47.564 Y13.398
X47.698 Y13.207
G3 X48.197 Y13.283 I0.22 J0.229
G1 X48.293 Y13.46
X50.672 Y17.813
X50.697 Y17.858
G3 X50.343 Y18.319 I-0.279 J0.152
G1 X49.84 Y18.177
X49.673 Y18.139
X49.337 Y18.066
X49.133 Y18.023
X48.96 Y17.978
X48.819 Y17.928
X48.665 Y17.859
X48.511 Y17.774
X48.338 Y17.66
X48.138 Y17.503
X47.947 Y17.327
X47.722 Y17.084
X47.492 Y16.791
X47.244 Y16.416
X46.994 Y15.964
X46.787 Y15.507
X46.729 Y15.31
X46.728 Y15.105
X46.783 Y14.907
G3 X47.318 Y14.846 I0.287 J0.136
G1 X47.406 Y14.958
X49.423 Y17.497
X49.435 Y17.512
G3 X49.133 Y18.023 I-0.249 J0.197
G1 X48.835 Y17.96
X48.667 Y17.923
X48.432 Y17.855
X48.165 Y17.776
X47.57 Y17.604
X47.428 Y17.555
X47.291 Y17.495
X47.136 Y17.411
X46.967 Y17.301
X46.796 Y17.17
X46.601 Y16.993
X46.437 Y16.818
X46.335 Y16.691
X46.221 Y16.49
X46.174 Y16.263
X46.2 Y16.033
X46.295 Y15.822
G3 X46.797 Y15.8 I0.259 J0.183
G1 X46.93 Y15.958
X47.89 Y17.091
G3 X47.57 Y17.604 I-0.242 J0.205
G1 X46.657 Y17.339
X46.489 Y17.272
X46.322 Y17.215
X46.268 Y17.198
X46.127 Y17.146
X45.984 Y17.024
X45.891 Y16.862
X45.858 Y16.677
X45.888 Y16.492
X45.979 Y16.328
G3 X46.517 Y16.425 I0.24 J0.207
G1 X46.561 Y16.544
X46.618 Y16.698
X46.649 Y16.782
G3 X46.268 Y17.198 I-0.298 J0.11
G1 X46.223 Y17.184
X46.154 Y17.165
X45.945 Y17.11
X45.903 Y17.093
X45.861 Y17.068
X45.819 Y17.033
X45.803 Y17.017
X45.769 Y16.975
X45.745 Y16.933
X45.729 Y16.891
X45.719 Y16.849
X45.715 Y16.807
X45.716 Y16.765
X45.723 Y16.723
X45.736 Y16.681
X45.775 Y16.604
X45.819 Y16.527
X45.987 Y16.318
X46.077 Y16.178
X46.281 Y15.843
X46.322 Y15.781
X46.385 Y15.675
X46.578 Y15.34
X46.657 Y15.197
X46.813 Y14.837
X46.992 Y14.373
X47.071 Y14.167
X47.16 Y13.926
X47.193 Y13.831
X47.225 Y13.747
X47.25 Y13.706
X47.281 Y13.664
X47.426 Y13.496
X47.495 Y13.421
X47.662 Y13.243
X47.742 Y13.161
X48.251 Y12.658
X48.5 Y12.41
X48.584 Y12.322
X48.707 Y12.184
G3 X49.253 Y12.433 I0.23 J0.219
G1 X49.247 Y12.503 Z-3.984
X49.241 Y12.57 Z-3.961
X49.235 Y12.63 Z-3.923
X49.23 Y12.68 Z-3.873
X49.227 Y12.717 Z-3.813
X49.224 Y12.741 Z-3.746
Y12.749 Z-3.675
G0 Z5.
X66.711 Y1.394
Z-3.357
G1 Z-3.675 F1016.
X66.706 Y1.389 Z-3.746
X66.689 Y1.372 Z-3.813
X66.662 Y1.346 Z-3.873
X66.626 Y1.311 Z-3.923
X66.583 Y1.269 Z-3.961
X66.535 Y1.222 Z-3.984
X66.484 Y1.173 Z-3.992
G3 X65.576 Y-0.319 I2.458 J-2.518
G1 X65.471 Y-0.713
X65.466 Y-0.723
X65.253 Y-1.099
X65.196 Y-1.178
X65.173 Y-1.202
X65.073 Y-1.314
X65.022 Y-1.398
X64.94 Y-1.586
X64.912 Y-1.789
X64.941 Y-1.991
X65.024 Y-2.178
X65.155 Y-2.335
G3 X65.677 Y-2.108 I0.205 J0.242
G1 X65.681 Y-2.029
X65.708 Y-1.477
X65.709 Y-1.447
G3 X65.173 Y-1.202 I-0.317 J0.015
G1 X65.085 Y-1.291
X64.951 Y-1.425
X64.918 Y-1.455
X64.834 Y-1.519
X64.792 Y-1.549
X64.771 Y-1.568
X64.749 Y-1.593
X64.719 Y-1.635
X64.698 Y-1.677
X64.683 Y-1.718
X64.674 Y-1.76
X64.671 Y-1.802
X64.674 Y-1.844
X64.682 Y-1.886
X64.696 Y-1.928
X64.718 Y-1.971
X64.75 Y-2.015
X64.776 Y-2.041
X64.801 Y-2.062
X64.852 Y-2.096
G3 X65.317 Y-1.716 I0.167 J0.27
G1 X65.293 Y-1.65 Z-3.984
X65.27 Y-1.587 Z-3.961
X65.249 Y-1.531 Z-3.923
X65.232 Y-1.483 Z-3.873
X65.219 Y-1.448 Z-3.813
X65.211 Y-1.426 Z-3.746
X65.208 Y-1.418 Z-3.675
G0 Z5.
X66.271 Y-34.591
Z-3.357
G1 Z-3.675 F1016.
X66.263 Y-34.593 Z-3.746
X66.24 Y-34.597 Z-3.813
X66.203 Y-34.605 Z-3.873
X66.154 Y-34.615 Z-3.923
X66.095 Y-34.627 Z-3.961
X66.029 Y-34.64 Z-3.984
X65.96 Y-34.654 Z-3.992
G3 X65.253 Y-34.997 I0.315 J-1.551
G1 X65.085 Y-35.149
X64.918 Y-35.279
X64.9 Y-35.291
X64.75 Y-35.385
X64.601 Y-35.458
X64.47 Y-35.531
X64.347 Y-35.617
X64.233 Y-35.715
X64.101 Y-35.848
X63.942 Y-36.037
X63.76 Y-36.291
X63.38 Y-36.923
X63.01 Y-37.561
X62.458 Y-38.051
X61.8 Y-38.384
X61.095 Y-38.601
X60.37 Y-38.739
X59.637 Y-38.828
X58.902 Y-38.885
X58.165 Y-38.924
X57.428 Y-38.951
X56.69 Y-38.971
X55.953 Y-38.987
X55.215 Y-39.001
X54.477 Y-39.013
X53.002 Y-39.033
X50.788 Y-39.059
X49.313 Y-39.073
X48.575 Y-39.079
X47.837 Y-39.082
X46.362 Y-39.086
X43.41 Y-39.089
X15.373
X1.355 Y-39.088
X-0.121 Y-39.086
X-2.334 Y-39.077
X-6.023 Y-39.059
X-10.45 Y-39.034
X-14.139 Y-39.01
X-17.09 Y-38.988
X-19.304 Y-38.97
X-21.517 Y-38.949
X-22.992 Y-38.932
X-24.468 Y-38.913
X-25.206 Y-38.902
X-25.943 Y-38.89
X-26.681 Y-38.874
X-27.419 Y-38.854
X-28.156 Y-38.831
X-28.893 Y-38.805
X-29.631 Y-38.777
X-30.368 Y-38.743
X-31.105 Y-38.715
X-31.843 Y-38.701
X-32.581 Y-38.697
X-33.318 Y-38.698
X-34.794 Y-38.701
X-37.745 Y-38.703
X-60.617
X-60.977 Y-38.622
X-61.301 Y-38.444
X-61.568 Y-38.191
X-61.981 Y-37.579
X-62.204 Y-36.875
X-62.323 Y-36.147
X-62.387 Y-35.412
X-62.42 Y-34.675
X-62.438 Y-33.938
X-62.447 Y-33.2
X-62.444 Y-32.462
X-62.406 Y-31.725
X-62.348 Y-30.99
X-62.236 Y-29.518
X-62.178 Y-28.783
X-62.142 Y-28.046
X-62.133 Y-27.308
X-62.139 Y-26.57
X-62.148 Y-25.832
X-62.155 Y-25.095
X-62.161 Y-24.357
X-62.164 Y-23.619
X-62.168 Y-22.143
X-62.17 Y-19.192
Y-14.765
Y-14.027
X-62.183 Y-13.442
X-62.221 Y-13.07
X-62.269 Y-12.807
X-62.335 Y-12.559
X-62.403 Y-12.37
X-62.446 Y-12.274
X-62.552 Y-12.105
X-62.699 Y-11.97
X-62.878 Y-11.879
X-63.074 Y-11.839
X-63.273 Y-11.853
X-63.41 Y-11.882
X-63.577 Y-11.906
X-63.745 Y-11.91
X-63.913 Y-11.903
X-64.08 Y-11.886
G3 X-64.316 Y-12.437 I-0.022 J-0.317
G1 X-64.264 Y-12.485 Z-3.984
X-64.214 Y-12.53 Z-3.961
X-64.17 Y-12.57 Z-3.923
X-64.133 Y-12.604 Z-3.873
X-64.105 Y-12.63 Z-3.813
X-64.087 Y-12.645 Z-3.746
X-64.081 Y-12.651 Z-3.675
G0 Z5.
X-66.205 Y2.3
Z-3.357
G1 Z-3.675 F1016.
X-66.198 Y2.302 Z-3.746
X-66.175 Y2.308 Z-3.813
X-66.139 Y2.318 Z-3.873
X-66.09 Y2.331 Z-3.923
X-66.032 Y2.346 Z-3.961
X-65.967 Y2.364 Z-3.984
X-65.899 Y2.382 Z-3.992
G3 X-65.214 Y2.766 I-0.408 J1.529
G1 X-65.085 Y2.898
X-65.046 Y2.934
X-64.918 Y3.043
X-64.836 Y3.102
X-64.75 Y3.156
X-64.583 Y3.239
X-64.452 Y3.312
X-64.33 Y3.4
X-64.219 Y3.5
X-64.108 Y3.618
X-63.997 Y3.757
X-63.874 Y3.937
X-63.745 Y4.165
X-63.62 Y4.434
X-63.486 Y4.796
X-63.355 Y5.261
X-63.221 Y5.942
X-63.137 Y6.675
X-63.09 Y7.411
X-63.064 Y8.149
X-63.049 Y8.886
X-63.04 Y9.624
X-63.036 Y10.362
X-63.033 Y11.1
X-63.031 Y12.575
X-63.03 Y19.216
X-63.029 Y31.759
X-63.049 Y32.13
X-63.088 Y32.418
X-63.107 Y32.504
X-63.173 Y32.687
X-63.286 Y32.845
X-63.437 Y32.968
X-63.615 Y33.046
X-63.808 Y33.074
X-64.289 Y33.17
X-64.31 Y33.178
X-64.415 Y33.221
X-64.545 Y33.279
X-64.664 Y33.349
G3 X-65.107 Y32.945 I-0.152 J-0.279
G1 X-65.079 Y32.88 Z-3.984
X-65.053 Y32.818 Z-3.961
X-65.029 Y32.763 Z-3.923
X-65.009 Y32.717 Z-3.873
X-64.995 Y32.682 Z-3.813
X-64.985 Y32.66 Z-3.746
X-64.982 Y32.653 Z-3.675
G0 Z5.
X-65.673 Y3.129
Z-3.357
G1 Z-3.675 F1016.
X-65.665 Y3.128 Z-3.746
X-65.642 Y3.126 Z-3.813
X-65.604 Y3.123 Z-3.873
X-65.554 Y3.119 Z-3.923
X-65.494 Y3.115 Z-3.961
X-65.427 Y3.109 Z-3.984
X-65.356 Y3.104 Z-3.992
G3 X-64.583 Y3.239 I0.123 J1.578
G1 X-64.415 Y3.322
X-64.331 Y3.354
X-64.248 Y3.372
X-63.913 Y3.427
X-63.766 Y3.459
X-63.626 Y3.513
X-63.493 Y3.583
X-63.368 Y3.666
X-63.248 Y3.762
X-63.111 Y3.889
X-62.978 Y4.035
X-62.837 Y4.217
X-62.679 Y4.46
X-62.537 Y4.72
X-62.382 Y5.068
X-62.234 Y5.49
X-62.15 Y5.81
X-62.131 Y5.906
X-62.126 Y6.005
X-62.133 Y6.103
G3 X-62.711 Y6.221 I-0.313 J-0.056
G1 X-62.727 Y6.197
X-64.185 Y3.968
X-64.219 Y3.916
G3 X-63.913 Y3.427 I0.266 J-0.174
G1 X-63.827 Y3.441
X-63.814 Y3.443
X-63.41 Y3.408
X-63.318 Y3.396
X-63.276 Y3.39
X-63.242 Y3.386
X-63.122 Y3.377
G3 X-63.117 Y3.784 I-0.015 J0.204
G1 X-63.188 Y3.792
G3 X-63.242 Y3.386 I-0.021 J-0.204
G1 X-63.159 Y3.375
X-63.117 Y3.377
X-63.075 Y3.384
X-63.047 Y3.392
X-63.018 Y3.404
X-62.99 Y3.418
X-62.962 Y3.437
X-62.934 Y3.459
X-62.907 Y3.487
X-62.882 Y3.516
X-62.861 Y3.546
X-62.823 Y3.605
X-62.74 Y3.751
X-62.729 Y3.772
X-62.652 Y3.94
X-62.572 Y4.107
X-62.477 Y4.275
X-62.405 Y4.392
X-62.259 Y4.61
X-62.158 Y4.778
X-62.055 Y4.946
X-61.948 Y5.113
X-61.929 Y5.153
X-61.916 Y5.193
X-61.907 Y5.233
X-61.902 Y5.273
Y5.306
X-61.906 Y5.341
X-61.914 Y5.377
X-61.941 Y5.449
X-62.108 Y5.936
X-62.111 Y5.952
X-62.18 Y6.434
X-62.181 Y6.444
X-62.163 Y6.937
X-62.159 Y6.958
X-62.12 Y7.125
X-61.988 Y7.851
X-61.885 Y8.582
X-61.829 Y9.317
X-61.798 Y10.055
X-61.781 Y10.792
X-61.771 Y11.53
X-61.766 Y12.268
X-61.763 Y13.006
X-61.761 Y14.481
X-61.76 Y20.384
X-61.759 Y30.713
X-61.772 Y31.445
X-61.811 Y31.849
X-61.86 Y32.121
X-61.927 Y32.375
X-61.996 Y32.57
X-62.083 Y32.766
X-62.122 Y32.839
X-62.241 Y32.999
X-62.397 Y33.123
X-62.581 Y33.2
X-62.779 Y33.225
X-62.977 Y33.196
X-63.325 Y33.097
X-63.797 Y33.074
X-63.808
G0 Z5.
X-62.726 Y6.213
Z-3.357
G1 Z-3.675 F1016.
X-62.721 Y6.218 Z-3.746
X-62.704 Y6.235 Z-3.813
X-62.678 Y6.263 Z-3.873
X-62.643 Y6.299 Z-3.923
X-62.602 Y6.342 Z-3.961
X-62.555 Y6.391 Z-3.984
X-62.506 Y6.442 Z-3.992
G3 X-62.12 Y7.125 I-1.141 J1.096
G1 X-62.049 Y7.43
X-62.044 Y7.445
X-61.887 Y7.796
X-61.84 Y7.88
X-61.784 Y7.963
X-61.666 Y8.131
X-61.567 Y8.243
X-61.512 Y8.299
X-61.412 Y8.41
X-61.313 Y8.544
X-61.206 Y8.717
X-61.096 Y8.931
X-60.98 Y9.211
X-60.859 Y9.582
X-60.735 Y10.106
X-60.622 Y10.835
X-60.562 Y11.57
X-60.529 Y12.307
X-60.511 Y13.045
X-60.501 Y13.783
X-60.496 Y14.52
X-60.493 Y15.258
X-60.491 Y16.734
X-60.49 Y22.636
X-60.489 Y29.277
X-60.49 Y30.014
X-60.498 Y30.752
X-60.54 Y31.381
X-60.611 Y31.864
X-60.694 Y32.224
X-60.789 Y32.525
X-60.879 Y32.745
X-60.985 Y32.956
X-61.089 Y33.125
X-61.199 Y33.277
X-61.321 Y33.42
X-61.367 Y33.465
X-61.545 Y33.596
X-61.753 Y33.668
X-61.973 Y33.676
X-62.186 Y33.619
X-62.372 Y33.502
G0 Z5.
X-62.507 Y7.84
Z-3.357
G1 Z-3.675 F1016.
X-62.5 Y7.842 Z-3.746
X-62.477 Y7.848 Z-3.813
X-62.44 Y7.858 Z-3.873
X-62.392 Y7.87 Z-3.923
X-62.333 Y7.885 Z-3.961
X-62.268 Y7.902 Z-3.984
X-62.2 Y7.92 Z-3.992
G3 X-61.512 Y8.299 I-0.396 J1.532
G1 X-61.4 Y8.412
X-61.328 Y8.466
X-60.873 Y8.802
X-60.729 Y8.912
X-60.648 Y8.969
X-60.526 Y9.056
X-60.415 Y9.158
X-60.302 Y9.282
X-60.176 Y9.444
X-60.054 Y9.63
X-59.928 Y9.86
X-59.793 Y10.162
X-59.662 Y10.533
X-59.526 Y11.045
X-59.394 Y11.771
X-59.319 Y12.505
X-59.276 Y13.242
X-59.252 Y13.979
X-59.238 Y14.717
X-59.23 Y15.454
X-59.226 Y16.192
X-59.223 Y16.93
X-59.221 Y18.406
X-59.22 Y24.308
Y28.735
X-59.221 Y29.473
X-59.232 Y30.211
X-59.269 Y30.948
X-59.343 Y31.579
X-59.443 Y32.08
X-59.562 Y32.497
X-59.695 Y32.853
X-59.841 Y33.164
X-59.976 Y33.4
X-60.121 Y33.614
X-60.248 Y33.771
X-60.396 Y33.926
X-60.535 Y34.051
X-60.666 Y34.151
X-60.82 Y34.25
X-60.907 Y34.296
X-61.119 Y34.371
X-61.344 Y34.378
X-61.56 Y34.318
X-61.749 Y34.196
X-61.892 Y34.023
G3 X-61.491 Y33.577 I0.278 J-0.153
G1 X-61.425 Y33.604 Z-3.984
X-61.364 Y33.631 Z-3.961
X-61.308 Y33.654 Z-3.923
X-61.262 Y33.673 Z-3.873
X-61.227 Y33.688 Z-3.813
X-61.205 Y33.697 Z-3.746
X-61.198 Y33.7 Z-3.675
G0 Z5.
X-61.727 Y8.778
Z-3.357
G1 Z-3.675 F1016.
X-61.719 Z-3.746
X-61.696 Z-3.813
X-61.658 Z-3.873
X-61.608 Z-3.923
X-61.548 Z-3.961
X-61.48 Y8.777 Z-3.984
X-61.41 Z-3.992
G3 X-60.648 Y8.969 I0.006 J1.583
G1 X-60.364 Y9.137
X-60.227 Y9.201
X-60.059 Y9.272
X-59.969 Y9.305
X-59.892 Y9.33
X-59.85 Y9.351
X-59.808 Y9.377
X-59.702 Y9.472
X-59.615 Y9.546
X-59.582 Y9.583
X-59.544 Y9.64
X-59.218 Y10.143
X-59.156 Y10.227
X-59.135 Y10.269
X-59.059 Y10.478
X-58.983 Y10.646
X-58.895 Y10.814
X-58.789 Y10.981
X-58.67 Y11.194
X-58.544 Y11.467
X-58.41 Y11.833
X-58.276 Y12.314
X-58.14 Y13.021
X-58.059 Y13.754
X-58.013 Y14.49
X-57.986 Y15.228
X-57.971 Y15.965
X-57.962 Y16.703
X-57.957 Y17.441
X-57.954 Y18.179
X-57.951 Y19.654
X-57.95 Y24.081
X-57.949 Y27.77
X-57.95 Y28.508
X-57.955 Y29.246
X-57.971 Y29.983
X-58.013 Y30.72
X-58.094 Y31.453
X-58.208 Y32.059
X-58.356 Y32.598
X-58.519 Y33.051
X-58.691 Y33.428
X-58.88 Y33.766
X-59.073 Y34.056
X-59.273 Y34.309
X-59.464 Y34.515
X-59.66 Y34.694
X-59.837 Y34.832
X-59.997 Y34.937
X-60.179 Y35.037
X-60.338 Y35.108
X-60.491 Y35.162
X-60.663 Y35.208
X-60.757 Y35.225
X-60.98 Y35.231
X-61.195 Y35.17
X-61.382 Y35.049
X-61.524 Y34.877
X-61.609 Y34.671
X-61.621 Y34.62
X-61.672 Y34.452
X-61.743 Y34.285
X-61.836 Y34.117
X-61.892 Y34.023
G3 X-61.491 Y33.577 I0.278 J-0.153
G1 X-61.425 Y33.604 Z-3.984
X-61.364 Y33.631 Z-3.961
X-61.308 Y33.654 Z-3.923
X-61.262 Y33.673 Z-3.873
X-61.227 Y33.688 Z-3.813
X-61.205 Y33.697 Z-3.746
X-61.198 Y33.7 Z-3.675
G0 Z5.
X-59.661 Y10.317
Z-3.357
G1 Z-3.675 F1016.
X-59.654 Y10.32 Z-3.746
X-59.633 Y10.331 Z-3.813
X-59.599 Y10.348 Z-3.873
X-59.554 Y10.371 Z-3.923
X-59.501 Y10.399 Z-3.961
X-59.441 Y10.429 Z-3.984
X-59.378 Y10.461 Z-3.992
G3 X-58.789 Y10.981 I-0.72 J1.409
G1 X-58.552 Y11.36
X-58.335 Y11.652
X-58.217 Y11.809
X-58.046 Y11.987
X-57.955 Y12.062
X-57.829 Y12.177
X-57.726 Y12.287
X-57.614 Y12.428
X-57.501 Y12.597
X-57.383 Y12.808
X-57.256 Y13.086
X-57.13 Y13.433
X-56.998 Y13.914
X-56.864 Y14.616
X-56.785 Y15.349
X-56.74 Y16.086
X-56.714 Y16.823
X-56.699 Y17.561
X-56.691 Y18.299
X-56.686 Y19.037
X-56.683 Y19.774
X-56.681 Y21.25
X-56.679 Y26.415
X-56.68 Y27.89
X-56.684 Y28.628
X-56.697 Y29.366
X-56.725 Y30.103
X-56.779 Y30.839
X-56.873 Y31.571
X-57.013 Y32.264
X-57.189 Y32.876
X-57.394 Y33.42
X-57.612 Y33.883
X-57.844 Y34.287
X-58.09 Y34.647
X-58.342 Y34.957
X-58.589 Y35.216
X-58.84 Y35.44
X-59.092 Y35.631
X-59.343 Y35.791
X-59.563 Y35.908
X-59.793 Y36.007
X-59.981 Y36.071
X-60.173 Y36.119
X-60.361 Y36.151
X-60.522 Y36.165
X-60.693 Y36.166
X-60.86 Y36.153
X-60.915 Y36.145
X-61.121 Y36.08
X-61.301 Y35.959
X-61.437 Y35.791
X-61.519 Y35.591
X-61.54 Y35.375
X-61.536 Y35.291
X-61.538 Y35.123
X-61.549 Y34.955
X-61.581 Y34.788
X-61.609 Y34.671
G3 X-61.094 Y34.363 I0.311 J-0.064
G1 X-61.04 Y34.409 Z-3.984
X-60.988 Y34.452 Z-3.961
X-60.942 Y34.491 Z-3.923
X-60.904 Y34.523 Z-3.873
X-60.875 Y34.548 Z-3.813
X-60.857 Y34.563 Z-3.746
X-60.851 Y34.568 Z-3.675
G0 Z5.
X-58.992 Y11.705
Z-3.357
G1 Z-3.675 F1016.
X-58.984 Y11.706 Z-3.746
X-58.961 Y11.71 Z-3.813
X-58.923 Y11.716 Z-3.873
X-58.874 Y11.723 Z-3.923
X-58.814 Y11.732 Z-3.961
X-58.748 Y11.743 Z-3.984
X-58.678 Y11.753 Z-3.992
G3 X-57.955 Y12.062 I-0.24 J1.564
G1 X-57.714 Y12.259
X-57.633 Y12.322
X-57.546 Y12.379
X-57.355 Y12.49
X-57.064 Y12.658
X-56.906 Y12.76
X-56.787 Y12.851
X-56.677 Y12.953
X-56.554 Y13.086
X-56.418 Y13.259
X-56.293 Y13.447
X-56.158 Y13.692
X-56.017 Y14.004
X-55.878 Y14.392
X-55.736 Y14.916
X-55.602 Y15.642
X-55.523 Y16.375
X-55.476 Y17.112
X-55.449 Y17.849
X-55.433 Y18.587
X-55.423 Y19.324
X-55.417 Y20.062
X-55.414 Y20.8
X-55.411 Y22.276
X-55.41 Y25.965
Y26.703
X-55.411 Y27.44
X-55.415 Y28.178
X-55.427 Y28.916
X-55.451 Y29.653
X-55.496 Y30.39
X-55.569 Y31.124
X-55.68 Y31.853
X-55.839 Y32.574
X-56.043 Y33.249
X-56.282 Y33.859
X-56.55 Y34.407
X-56.838 Y34.894
X-57.131 Y35.309
X-57.436 Y35.674
X-57.753 Y35.998
X-58.072 Y36.275
X-58.389 Y36.509
X-58.692 Y36.696
X-58.992 Y36.85
X-59.285 Y36.972
X-59.574 Y37.065
X-59.837 Y37.128
X-60.074 Y37.164
X-60.302 Y37.181
X-60.488 Y37.179
X-60.687 Y37.162
X-60.863 Y37.132
X-61.015 Y37.093
X-61.18 Y37.036
X-61.325 Y36.974
X-61.348 Y36.961
X-61.521 Y36.834
X-61.65 Y36.663
X-61.724 Y36.462
X-61.738 Y36.248
X-61.69 Y36.039
X-61.66 Y35.961
X-61.61 Y35.794
X-61.571 Y35.626
X-61.544 Y35.458
X-61.54 Y35.375
G3 X-60.959 Y35.228 I0.316 J0.027
G1 X-60.92 Y35.287 Z-3.984
X-60.883 Y35.343 Z-3.961
X-60.85 Y35.393 Z-3.923
X-60.822 Y35.435 Z-3.873
X-60.801 Y35.467 Z-3.813
X-60.788 Y35.486 Z-3.746
X-60.784 Y35.493 Z-3.675
G0 Z5.
X-58.145 Y12.477
Z-3.357
G1 Z-3.675 F1016.
X-58.137 Z-3.746
X-58.114 Z-3.813
X-58.076 Y12.476 Z-3.873
X-58.025 Z-3.923
X-57.965 Y12.475 Z-3.961
X-57.898 Y12.474 Z-3.984
X-57.828 Y12.473 Z-3.992
G3 X-57.064 Y12.658 I0.021 J1.582
G1 X-57.044 Y12.669
X-56.876 Y12.753
X-56.709 Y12.831
X-56.541 Y12.888
X-56.374 Y12.922
X-56.323 Y12.931
X-56.177 Y12.963
X-56.034 Y13.009
X-55.897 Y13.072
X-55.768 Y13.148
X-55.646 Y13.235
X-55.532 Y13.332
X-55.424 Y13.437
X-55.323 Y13.548
X-55.229 Y13.664
X-55.141 Y13.786
X-55.058 Y13.911
X-54.982 Y14.04
X-54.909 Y14.171
X-54.842 Y14.305
X-54.78 Y14.442
X-54.722 Y14.58
X-54.668 Y14.72
X-54.618 Y14.862
X-54.572 Y15.004
X-54.529 Y15.148
X-54.489 Y15.293
X-54.453 Y15.438
X-54.419 Y15.584
X-54.387 Y15.731
X-54.358 Y15.878
X-54.331 Y16.026
X-54.307 Y16.174
X-54.284 Y16.322
X-54.263 Y16.47
X-54.243 Y16.619
X-54.225 Y16.768
X-54.209 Y16.917
X-54.194 Y17.066
X-54.18 Y17.216
X-54.166 Y17.372
X-54.153 Y17.547
X-54.139 Y17.744
X-54.126 Y17.949
X-54.112 Y18.184
X-54.099 Y18.461
X-54.086 Y18.773
X-54.073 Y19.158
X-54.06 Y19.637
X-54.047 Y20.294
X-54.038 Y21.032
X-54.032 Y21.77
X-54.029 Y22.508
X-54.027 Y23.983
X-54.026 Y26.197
X-54.027 Y26.934
X-54.031 Y27.672
X-54.036 Y28.041
X-54.043 Y28.384
X-54.051 Y28.714
X-54.061 Y29.016
X-54.069 Y29.21
X-54.079 Y29.431
X-54.093 Y29.688
X-54.103 Y29.845
X-54.114 Y29.995
X-54.126 Y30.149
X-54.14 Y30.32
X-54.158 Y30.513
X-54.173 Y30.662
X-54.189 Y30.811
X-54.207 Y30.96
X-54.226 Y31.109
X-54.247 Y31.257
X-54.268 Y31.406
X-54.291 Y31.554
X-54.316 Y31.702
X-54.343 Y31.85
X-54.371 Y31.997
X-54.401 Y32.144
X-54.432 Y32.291
X-54.465 Y32.437
X-54.501 Y32.583
X-54.538 Y32.728
X-54.577 Y32.873
X-54.617 Y33.017
X-54.66 Y33.161
X-54.705 Y33.304
X-54.752 Y33.447
X-54.801 Y33.588
X-54.852 Y33.73
X-54.905 Y33.87
X-54.96 Y34.009
X-55.018 Y34.148
X-55.077 Y34.286
X-55.139 Y34.422
X-55.203 Y34.558
X-55.269 Y34.692
X-55.338 Y34.826
X-55.408 Y34.958
X-55.481 Y35.089
X-55.557 Y35.219
X-55.635 Y35.347
X-55.715 Y35.474
X-55.798 Y35.599
X-55.883 Y35.722
X-55.97 Y35.845
X-56.059 Y35.965
X-56.152 Y36.083
X-56.246 Y36.2
X-56.343 Y36.314
X-56.442 Y36.427
X-56.544 Y36.537
X-56.648 Y36.645
X-56.754 Y36.751
X-56.863 Y36.854
X-56.974 Y36.955
X-57.087 Y37.054
X-57.202 Y37.149
X-57.32 Y37.242
X-57.44 Y37.332
X-57.563 Y37.419
X-57.687 Y37.503
X-57.814 Y37.583
X-57.942 Y37.66
X-58.073 Y37.734
X-58.206 Y37.804
X-58.34 Y37.871
X-58.476 Y37.933
X-58.615 Y37.992
X-58.754 Y38.046
X-58.896 Y38.096
X-59.039 Y38.142
X-59.183 Y38.182
X-59.329 Y38.218
X-59.475 Y38.249
X-59.623 Y38.275
X-59.772 Y38.296
X-59.921 Y38.311
X-60.071 Y38.32
X-60.221 Y38.323
X-60.371 Y38.32
X-60.52 Y38.312
X-60.67 Y38.297
X-60.818 Y38.274
X-60.965 Y38.244
X-61.11 Y38.207
X-61.253 Y38.162
X-61.393 Y38.107
X-61.529 Y38.044
X-61.661 Y37.973
X-61.788 Y37.893
X-61.983 Y37.749
X-62.049 Y37.687
X-62.187 Y37.509
X-62.262 Y37.296
X-62.266 Y37.071
X-62.2 Y36.856
X-62.07 Y36.673
X-62.036 Y36.632
X-61.902 Y36.45
X-61.811 Y36.297
X-61.735 Y36.154
X-61.69 Y36.039
G3 X-61.092 Y36.082 I0.292 J0.125
G1 X-61.073 Y36.15 Z-3.984
X-61.056 Y36.215 Z-3.961
X-61.04 Y36.273 Z-3.923
X-61.027 Y36.322 Z-3.873
X-61.017 Y36.358 Z-3.813
X-61.011 Y36.381 Z-3.746
X-61.009 Y36.389 Z-3.675
G0 Z5.
X-66.11 Y36.082
Z-3.357
G1 Z-3.675 F1016.
X-66.103 Y36.085 Z-3.746
X-66.08 Y36.093 Z-3.813
X-66.045 Y36.106 Z-3.873
X-65.998 Y36.123 Z-3.923
X-65.941 Y36.143 Z-3.961
X-65.878 Y36.166 Z-3.984
X-65.811 Y36.19 Z-3.992
G3 X-65.162 Y36.632 I-0.538 J1.488
G1 X-65.085 Y36.726
X-64.918 Y36.89
X-64.824 Y36.967
X-64.75 Y37.023
X-64.568 Y37.135
X-64.415 Y37.211
X-64.248 Y37.281
X-64.08 Y37.33
X-63.913 Y37.363
X-63.745 Y37.386
X-63.577 Y37.388
X-63.41 Y37.381
X-63.242 Y37.356
X-63.075 Y37.32
X-62.907 Y37.263
X-62.74 Y37.19
X-62.629 Y37.135
X-62.572 Y37.102
X-62.376 Y36.967
X-62.307 Y36.913
X-62.07 Y36.673
G0 Z5.
X-57.399 Y13.137
Z-3.357
G1 Z-3.675 F1016.
X-57.392 Y13.135 Z-3.746
X-57.37 Y13.126 Z-3.813
X-57.335 Y13.112 Z-3.873
X-57.288 Y13.094 Z-3.923
X-57.232 Y13.073 Z-3.961
X-57.169 Y13.048 Z-3.984
X-57.103 Y13.023 Z-3.992
G3 X-56.323 Y12.931 I0.57 J1.476
G1 X-56.039 Y12.979
X-55.871 Y12.991
X-55.828 Y12.993
X-55.704 Y12.994
X-55.662
X-55.62 Y12.999
X-55.578 Y13.009
X-55.536 Y13.026
X-55.496 Y13.05
X-55.455 Y13.08
X-55.369 Y13.167
X-55.211 Y13.328
X-55.083 Y13.496
X-54.698 Y13.958
X-54.662 Y13.999
X-54.485 Y14.167
X-54.452 Y14.209
X-54.426 Y14.25
X-54.384 Y14.334
X-54.363 Y14.37
X-54.275 Y14.502
X-54.196 Y14.618
X-54.151 Y14.67
X-54.084 Y14.733
X-53.98 Y14.841
X-53.877 Y14.95
X-53.782 Y15.066
X-53.694 Y15.188
X-53.612 Y15.314
X-53.538 Y15.444
X-53.468 Y15.577
X-53.404 Y15.713
X-53.345 Y15.85
X-53.291 Y15.99
X-53.241 Y16.132
X-53.194 Y16.274
X-53.151 Y16.418
X-53.112 Y16.563
X-53.075 Y16.708
X-53.041 Y16.854
X-53.01 Y17.001
X-52.981 Y17.148
X-52.954 Y17.296
X-52.93 Y17.444
X-52.907 Y17.592
X-52.886 Y17.74
X-52.867 Y17.889
X-52.849 Y18.038
X-52.832 Y18.187
X-52.817 Y18.336
X-52.803 Y18.489
X-52.788 Y18.659
X-52.774 Y18.836
X-52.76 Y19.027
X-52.746 Y19.245
X-52.732 Y19.495
X-52.718 Y19.763
X-52.704 Y20.086
X-52.691 Y20.465
X-52.678 Y20.947
X-52.664 Y21.579
X-52.655 Y22.316
X-52.649 Y23.054
X-52.646 Y23.792
X-52.643 Y25.268
Y26.006
X-52.644 Y26.743
X-52.649 Y27.363
X-52.656 Y27.826
X-52.665 Y28.205
X-52.675 Y28.526
X-52.685 Y28.794
X-52.696 Y29.048
X-52.708 Y29.286
X-52.721 Y29.497
X-52.734 Y29.692
X-52.747 Y29.878
X-52.762 Y30.058
X-52.778 Y30.232
X-52.793 Y30.392
X-52.809 Y30.543
X-52.825 Y30.692
X-52.843 Y30.841
X-52.862 Y30.989
X-52.882 Y31.138
X-52.903 Y31.287
X-52.925 Y31.435
X-52.949 Y31.583
X-52.974 Y31.731
X-53.001 Y31.878
X-53.029 Y32.026
X-53.058 Y32.173
X-53.089 Y32.32
X-53.121 Y32.466
X-53.155 Y32.612
X-53.191 Y32.758
X-53.228 Y32.903
X-53.266 Y33.048
X-53.307 Y33.193
X-53.349 Y33.337
X-53.393 Y33.48
X-53.438 Y33.623
X-53.485 Y33.766
X-53.534 Y33.907
X-53.585 Y34.048
X-53.638 Y34.189
X-53.693 Y34.329
X-53.749 Y34.468
X-53.807 Y34.606
X-53.867 Y34.743
X-53.929 Y34.88
X-53.993 Y35.015
X-54.059 Y35.15
X-54.127 Y35.284
X-54.197 Y35.417
X-54.269 Y35.548
X-54.343 Y35.679
X-54.419 Y35.808
X-54.497 Y35.936
X-54.577 Y36.063
X-54.659 Y36.189
X-54.743 Y36.313
X-54.829 Y36.436
X-54.917 Y36.558
X-55.007 Y36.678
X-55.099 Y36.796
X-55.193 Y36.913
X-55.289 Y37.028
X-55.387 Y37.141
X-55.487 Y37.253
X-55.589 Y37.363
X-55.693 Y37.471
X-55.8 Y37.577
X-55.908 Y37.681
X-56.018 Y37.783
X-56.125 Y37.933
X-56.192 Y38.105
X-56.215 Y38.288
X-56.191 Y38.471
X-56.123 Y38.642
X-56.015 Y38.792
X-55.873 Y38.91
X-55.707 Y38.989
X-54.983 Y39.132
X-54.245 Y39.156
X-53.508 Y39.169
X-52.77 Y39.175
X-52.032 Y39.179
X-50.556 Y39.182
X-46.13 Y39.183
X-44.835
X-44.685 Y39.184
X-44.535 Y39.187
X-44.386 Y39.192
X-44.236 Y39.2
X-44.086 Y39.212
X-43.937 Y39.229
X-43.778 Y39.253
X-43.594 Y39.314
X-43.432 Y39.42
X-43.304 Y39.565
X-43.217 Y39.738
X-43.178 Y39.927
X-43.174 Y39.985
X-43.15 Y40.153
X-43.106 Y40.32
X-43.05 Y40.488
X-42.977 Y40.656
X-42.886 Y40.823
X-42.842 Y40.886
G0 Z5.
X-36.691 Y42.125
Z-3.357
G1 Z-3.675 F1016.
X-36.688 Y42.118 Z-3.746
X-36.68 Y42.096 Z-3.813
X-36.666 Y42.061 Z-3.873
X-36.647 Y42.014 Z-3.923
X-36.625 Y41.958 Z-3.961
X-36.6 Y41.896 Z-3.984
X-36.574 Y41.83 Z-3.992
G3 X-36.113 Y41.194 I1.471 J0.583
G1 X-35.655 Y40.841
X-35.639 Y40.823
X-35.534 Y40.656
X-35.448 Y40.533
X-35.348 Y40.42
X-35.239 Y40.318
X-35.121 Y40.225
X-34.993 Y40.141
X-34.861 Y40.069
X-34.763 Y40.026
X-34.57 Y39.97
X-34.369 Y39.968
X-34.174 Y40.018
X-33.999 Y40.118
X-33.857 Y40.26
X-33.757 Y40.435
X-33.735 Y40.488
X-33.664 Y40.656
X-33.569 Y40.823
X-33.519 Y40.907
X-33.46 Y40.987
G3 X-33.792 Y41.476 I-0.262 J0.179
G1 X-33.816 Y41.47
X-35.143 Y41.167
X-35.33 Y41.124
G3 X-35.534 Y40.656 I0.071 J-0.31
G1 X-35.356 Y40.373
X-35.281 Y40.074
X-35.237 Y39.931
X-35.169 Y39.797
X-35.075 Y39.679
X-34.884 Y39.553
X-34.664 Y39.49
X-34.435 Y39.499
X-34.22 Y39.576
X-34.039 Y39.715
X-33.909 Y39.903
X-33.842 Y40.122
G3 X-34.163 Y40.473 I-0.316 J0.033
G1 X-34.411 Y40.469
X-34.751 Y40.462
X-34.977 Y40.458
G3 X-35.281 Y40.074 I0.006 J-0.317
G1 X-35.24 Y39.912
Y39.901
X-35.25 Y39.684
X-35.249 Y39.534
X-35.203 Y39.391
X-35.124 Y39.264
X-34.954 Y39.132
X-34.754 Y39.056
X-34.54 Y39.041
X-34.331 Y39.09
X-34.146 Y39.198
X-34. Y39.355
X-33.907 Y39.548
X-33.874 Y39.76
G3 X-34.231 Y40.066 I-0.317 J-0.009
G1 X-34.485 Y40.034
X-34.623 Y40.017
X-34.973 Y39.973
G3 X-35.25 Y39.684 I0.039 J-0.315
G1 X-35.261 Y39.444
X-35.288 Y39.367
X-35.332 Y39.224
X-35.33 Y39.074
X-35.288 Y38.93
X-35.214 Y38.799
X-35.118 Y38.684
X-35.001 Y38.59
X-34.872 Y38.513
X-34.733 Y38.458
X-34.587 Y38.422
X-34.42 Y38.343
X-34.279 Y38.226
X-34.062 Y37.927
X-33.792 Y37.24
X-33.64 Y36.518
X-33.611 Y36.371
X-33.581 Y36.224
X-33.55 Y36.077
X-33.517 Y35.931
X-33.482 Y35.785
X-33.445 Y35.64
X-33.406 Y35.495
X-33.364 Y35.351
X-33.32 Y35.208
X-33.272 Y35.065
X-33.222 Y34.924
X-33.17 Y34.784
X-33.114 Y34.644
X-33.055 Y34.506
X-32.993 Y34.37
X-32.928 Y34.234
X-32.86 Y34.101
X-32.789 Y33.968
X-32.716 Y33.838
X-32.639 Y33.709
X-32.559 Y33.582
X-32.476 Y33.457
X-32.391 Y33.333
X-32.303 Y33.212
X-32.212 Y33.093
X-32.118 Y32.976
X-32.022 Y32.86
X-31.923 Y32.748
X-31.822 Y32.637
X-31.719 Y32.528
X-31.613 Y32.422
X-31.505 Y32.318
X-31.395 Y32.216
X-31.283 Y32.116
X-31.168 Y32.019
X-31.052 Y31.925
X-30.934 Y31.832
X-30.814 Y31.742
X-30.692 Y31.655
X-30.568 Y31.57
X-30.443 Y31.487
X-30.316 Y31.407
X-30.188 Y31.329
X-30.058 Y31.254
X-29.927 Y31.182
X-29.794 Y31.111
X-29.661 Y31.044
X-29.526 Y30.978
X-29.389 Y30.916
X-29.252 Y30.856
X-29.113 Y30.798
X-28.974 Y30.742
X-28.834 Y30.69
X-28.692 Y30.64
X-28.55 Y30.592
X-28.407 Y30.547
X-28.263 Y30.504
X-28.118 Y30.464
X-27.973 Y30.427
X-27.827 Y30.392
X-27.681 Y30.36
X-27.534 Y30.329
X-27.386 Y30.302
X-27.238 Y30.277
X-27.09 Y30.255
X-26.942 Y30.235
X-26.793 Y30.217
X-26.643 Y30.203
X-26.494 Y30.191
X-26.344 Y30.181
X-26.194 Y30.173
X-26.044 Y30.169
X-25.894 Y30.167
X-25.744
X-25.594 Y30.17
X-25.444 Y30.175
X-25.295 Y30.184
X-25.145 Y30.194
X-24.996 Y30.208
X-24.846 Y30.223
X-24.698 Y30.241
X-24.549 Y30.262
X-24.401 Y30.286
X-24.253 Y30.312
X-24.106 Y30.34
X-23.959 Y30.371
X-23.813 Y30.405
X-23.667 Y30.442
X-23.523 Y30.48
X-23.378 Y30.521
X-23.235 Y30.566
X-23.092 Y30.612
X-22.951 Y30.661
X-22.81 Y30.713
X-22.67 Y30.767
X-22.531 Y30.825
X-22.394 Y30.884
X-22.257 Y30.946
X-22.122 Y31.011
X-21.988 Y31.078
X-21.855 Y31.148
X-21.724 Y31.221
X-21.594 Y31.296
X-21.466 Y31.374
X-21.339 Y31.454
X-21.214 Y31.537
X-21.091 Y31.622
X-20.969 Y31.71
X-20.849 Y31.8
X-20.731 Y31.893
X-20.616 Y31.988
X-20.502 Y32.086
X-20.39 Y32.186
X-20.281 Y32.289
X-20.174 Y32.394
X-20.069 Y32.501
X-19.967 Y32.611
X-19.867 Y32.723
X-19.77 Y32.837
X-19.675 Y32.954
X-19.584 Y33.073
X-19.495 Y33.194
X-19.41 Y33.317
X-19.327 Y33.442
X-19.248 Y33.57
X-19.172 Y33.699
X-19.1 Y33.83
X-19.031 Y33.964
X-18.965 Y34.099
X-18.904 Y34.235
X-18.846 Y34.374
X-18.792 Y34.514
X-18.743 Y34.655
X-18.697 Y34.798
X-18.656 Y34.943
X-18.62 Y35.088
X-18.589 Y35.235
X-18.562 Y35.383
X-18.541 Y35.531
X-18.524 Y35.68
X-18.513 Y35.83
X-18.508 Y35.98
X-18.509 Y36.13
X-18.515 Y36.28
X-18.527 Y36.429
X-18.545 Y36.578
X-18.57 Y36.726
X-18.603 Y36.872
X-18.642 Y37.017
X-18.689 Y37.159
X-18.745 Y37.299
X-18.809 Y37.434
X-18.881 Y37.566
X-18.962 Y37.692
X-19.052 Y37.812
X-19.111 Y37.88
X-19.279 Y38.024
X-19.484 Y38.111
X-19.705 Y38.131
X-19.922 Y38.084
X-20.114 Y37.973
X-20.187 Y37.926
X-20.381 Y37.806
X-20.522 Y37.722
X-20.709 Y37.638
X-20.825 Y37.594
G3 X-20.786 Y36.995 I0.124 J-0.292
G1 X-20.717 Y36.976 Z-3.984
X-20.653 Y36.959 Z-3.961
X-20.595 Y36.943 Z-3.923
X-20.546 Y36.929 Z-3.873
X-20.51 Y36.919 Z-3.813
X-20.487 Y36.913 Z-3.746
X-20.479 Y36.911 Z-3.675
G0 Z5.
X-20.551 Y42.341
Z-3.357
G1 Z-3.675 F1016.
X-20.549 Y42.333 Z-3.746
X-20.541 Y42.311 Z-3.813
X-20.529 Y42.275 Z-3.873
X-20.513 Y42.227 Z-3.923
X-20.494 Y42.17 Z-3.961
X-20.472 Y42.107 Z-3.984
X-20.449 Y42.04 Z-3.992
G3 X-20.02 Y41.382 I1.498 J0.509
G1 X-19.954 Y41.326
X-19.778 Y41.159
X-19.685 Y41.051
X-19.638 Y40.991
X-19.517 Y40.823
X-19.428 Y40.656
X-19.35 Y40.476
X-19.299 Y40.32
X-19.254 Y40.153
X-19.231 Y39.985
X-19.219 Y39.817
X-19.218 Y39.65
X-19.234 Y39.482
X-19.265 Y39.314
X-19.307 Y39.147
X-19.367 Y38.979
X-19.447 Y38.811
X-19.517 Y38.676
X-19.64 Y38.476
X-19.685 Y38.413
X-19.766 Y38.308
X-19.852 Y38.212
X-19.924 Y38.141
X-20.02 Y38.049
X-20.114 Y37.973
G3 X-19.893 Y37.415 I0.207 J-0.241
G1 X-19.823 Y37.418 Z-3.984
X-19.756 Y37.421 Z-3.961
X-19.695 Y37.424 Z-3.923
X-19.645 Y37.426 Z-3.873
X-19.607 Y37.428 Z-3.813
X-19.584 Y37.429 Z-3.746
X-19.576 Z-3.675
G0 Z5.
X-30.122 Y37.528
Z-3.357
G1 Z-3.675 F1016.
X-30.129 Y37.53 Z-3.746
X-30.152 Y37.537 Z-3.813
X-30.188 Y37.548 Z-3.873
X-30.236 Y37.563 Z-3.923
X-30.294 Y37.58 Z-3.961
X-30.358 Y37.599 Z-3.984
X-30.426 Y37.62 Z-3.992
G3 X-31.21 Y37.652 I-0.456 J-1.515
G1 X-31.269 Y37.638
X-31.412 Y37.619
X-31.579 Y37.604
X-31.747 Y37.602
X-31.914 Y37.615
X-32.082 Y37.639
X-32.249 Y37.675
X-32.417 Y37.731
X-32.585 Y37.797
X-32.604 Y37.806
X-32.752 Y37.879
X-32.912 Y37.973
X-32.92 Y37.979
X-33.087 Y38.113
X-33.12 Y38.141
X-33.255 Y38.272
X-33.422 Y38.462
X-33.433 Y38.476
X-33.548 Y38.644
X-33.59 Y38.708
X-33.646 Y38.811
X-33.725 Y38.979
X-33.784 Y39.147
X-33.827 Y39.314
X-33.858 Y39.482
X-33.874 Y39.65
Y39.76
G3 X-34.359 Y40.02 I-0.317 J-0.009
G1 X-34.46 Y39.957
X-34.666 Y39.829
X-35.161 Y39.519
X-35.214 Y39.478
X-35.257 Y39.427
X-35.288 Y39.367
X-35.427 Y38.979
X-35.433 Y38.967
X-35.492 Y38.829
X-35.504 Y38.68
X-35.482 Y38.531
X-35.289 Y37.819
X-35.102 Y37.105
X-34.931 Y36.388
X-34.749 Y35.673
X-34.536 Y34.967
X-34.276 Y34.276
X-33.981 Y33.65
X-33.649 Y33.07
X-33.274 Y32.523
X-32.855 Y32.005
X-32.39 Y31.517
X-31.878 Y31.06
X-31.321 Y30.637
X-30.717 Y30.251
X-30.066 Y29.906
X-29.389 Y29.613
X-28.691 Y29.374
X-27.976 Y29.189
X-27.25 Y29.058
X-26.517 Y28.981
X-25.779 Y28.958
X-25.042 Y28.99
X-24.309 Y29.077
X-23.585 Y29.218
X-22.874 Y29.415
X-22.18 Y29.666
X-21.524 Y29.965
X-20.91 Y30.307
X-20.341 Y30.686
X-19.824 Y31.095
X-19.356 Y31.53
X-18.942 Y31.983
X-18.578 Y32.45
X-18.267 Y32.924
X-18.008 Y33.398
X-17.798 Y33.868
X-17.633 Y34.334
X-17.514 Y34.783
X-17.435 Y35.223
X-17.393 Y35.642
X-17.386 Y36.036
X-17.409 Y36.405
X-17.458 Y36.747
X-17.53 Y37.064
X-17.64 Y37.416
X-17.685 Y37.595
X-17.684 Y37.78
X-17.637 Y37.958
X-17.548 Y38.12
X-17.295 Y38.388
X-16.686 Y38.804
X-15.985 Y39.036
X-15.258 Y39.16
X-14.523 Y39.225
X-13.786 Y39.258
X-13.048 Y39.274
X-12.311 Y39.283
X-11.573 Y39.287
X-10.097 Y39.291
X-7.146 Y39.296
X-5.67
X-3.457 Y39.294
X0.232 Y39.297
X2.446
X29.745
X31.958 Y39.294
X33.434
X36.385 Y39.297
X40.812
X41.55
X41.914 Y39.322
X42.073 Y39.346
X42.258 Y39.398
X42.424 Y39.496
X42.56 Y39.633
X42.656 Y39.799
X42.707 Y39.985
X42.731 Y40.153
X42.775 Y40.32
X42.804 Y40.416
X42.906 Y40.656
X42.971 Y40.782
X42.996 Y40.823
X43.037 Y40.882
G3 X42.669 Y41.356 I-0.266 J0.173
G1 X42.602 Y41.333 Z-3.984
X42.538 Y41.312 Z-3.961
X42.481 Y41.292 Z-3.923
X42.434 Y41.276 Z-3.873
X42.398 Y41.264 Z-3.813
X42.376 Y41.256 Z-3.746
X42.368 Y41.254 Z-3.675
G0 Z5.
X49.558 Y42.234
Z-3.357
G1 Z-3.675 F1016.
X49.561 Y42.227 Z-3.746
X49.57 Y42.205 Z-3.813
X49.586 Y42.171 Z-3.873
X49.606 Y42.125 Z-3.923
X49.631 Y42.07 Z-3.961
X49.658 Y42.009 Z-3.984
X49.687 Y41.944 Z-3.992
G3 X50.175 Y41.329 I1.445 J0.645
G1 X50.343 Y41.197
X50.388 Y41.159
X50.51 Y41.041
X50.678 Y40.85
X50.696 Y40.823
X50.749 Y40.731
X50.83 Y40.605
X50.925 Y40.488
X51.03 Y40.382
X51.165 Y40.267
X51.315 Y40.158
X51.51 Y40.04
X51.762 Y39.913
X52.066 Y39.789
X52.479 Y39.659
X52.957 Y39.55
X53.326 Y39.496
X53.597 Y39.478
X53.7 Y39.48
X53.906 Y39.513
X54.095 Y39.601
X54.251 Y39.739
X54.363 Y39.915
X54.546 Y40.32
X54.617 Y40.488
X54.698 Y40.642
X54.804 Y40.823
X54.863 Y40.912
G3 X54.576 Y41.397 I-0.269 J0.168
G1 X54.484 Y41.392
X51.163 Y41.204
X51.012 Y41.196
G3 X50.749 Y40.731 I0.018 J-0.317
G1 X50.792 Y40.656
X50.925 Y40.394
X50.929 Y40.383
X50.999 Y40.077
X51.039 Y39.933
X51.096 Y39.794
X51.169 Y39.663
X51.255 Y39.54
X51.353 Y39.423
X51.477 Y39.297
X51.635 Y39.16
X51.809 Y39.032
X52.022 Y38.9
X52.258 Y38.78
X52.493 Y38.682
X52.713 Y38.611
X52.931 Y38.56
X53.113 Y38.532
X53.196 Y38.526
X53.419 Y38.544
X53.627 Y38.628
X53.801 Y38.771
X53.923 Y38.959
X54.085 Y39.314
X54.319 Y39.817
X54.363 Y39.915
G3 X54.081 Y40.353 I-0.294 J0.121
G1 X53.907 Y40.36
X51.537 Y40.446
X51.322 Y40.454
G3 X50.999 Y40.077 I-0.012 J-0.317
G1 X51.036 Y39.912
X51.017 Y39.448
X51.018 Y39.298
X51.039 Y39.149
X51.081 Y39.005
X51.138 Y38.866
X51.208 Y38.734
X51.292 Y38.603
X51.392 Y38.474
X51.509 Y38.344
X51.649 Y38.213
X51.803 Y38.09
X51.968 Y37.979
X52.124 Y37.891
X52.302 Y37.809
X52.466 Y37.748
X52.614 Y37.707
X52.78 Y37.675
X52.822 Y37.67
X53.015 Y37.674
X53.201 Y37.727
X53.366 Y37.827
X53.5 Y37.967
X53.594 Y38.136
X53.785 Y38.644
X53.861 Y38.821
X53.923 Y38.959
G3 X53.677 Y39.394 I-0.294 J0.121
G1 X53.469 Y39.425
X51.642 Y39.698
X51.38 Y39.737
G3 X51.017 Y39.448 I-0.047 J-0.314
G1 X51.016 Y39.43
X51.013 Y39.413
X50.988 Y39.314
X50.942 Y39.147
X50.877 Y38.979
X50.866 Y38.937
X50.86 Y38.895
X50.861 Y38.853
X50.866 Y38.811
X50.918 Y38.476
X50.945 Y38.308
X50.98 Y38.163
X51.03 Y38.021
X51.093 Y37.885
X51.169 Y37.756
X51.259 Y37.628
X51.362 Y37.504
X51.478 Y37.385
X51.61 Y37.27
X51.738 Y37.175
X51.883 Y37.085
X52.024 Y37.012
X52.163 Y36.954
X52.313 Y36.906
X52.394 Y36.887
X52.605 Y36.868
X52.813 Y36.91
X53.001 Y37.009
X53.152 Y37.157
X53.256 Y37.342
G3 X53.105 Y37.726 I-0.3 J0.103
G1 X52.808 Y37.884
X51.491 Y38.585
X51.409 Y38.628
G3 X50.945 Y38.308 I-0.149 J-0.28
G1 X50.976 Y38.141
X51.132 Y37.47
X51.196 Y37.19
X51.236 Y37.045
X51.295 Y36.907
X51.37 Y36.778
X51.459 Y36.657
X51.562 Y36.547
X51.674 Y36.448
X51.797 Y36.361
X51.928 Y36.289
X52.065 Y36.229
X52.106 Y36.216
X52.337 Y36.181
X52.567 Y36.22
X52.774 Y36.329
X52.936 Y36.496
X53.039 Y36.706
G3 X52.844 Y37.085 I-0.307 J0.082
G1 X52.546 Y37.197
X51.724 Y37.507
X51.619 Y37.547
G3 X51.196 Y37.19 I-0.112 J-0.297
G1 X51.208 Y37.135
X51.243 Y36.967
X51.304 Y36.632
X51.331 Y36.464
X51.34 Y36.401
X51.369 Y36.254
X51.425 Y36.115
X51.505 Y35.988
X51.602 Y35.873
X51.715 Y35.774
X51.735 Y35.761
X51.935 Y35.669
X52.153 Y35.64
X52.37 Y35.677
X52.567 Y35.775
X52.726 Y35.927
X52.834 Y36.12
G3 X52.608 Y36.53 I-0.301 J0.102
G1 X52.357 Y36.591
X51.902 Y36.702
X51.731 Y36.744
G3 X51.34 Y36.401 I-0.075 J-0.308
G1 X51.404 Y35.961
X51.43 Y35.766
X51.457 Y35.618
X51.583 Y35.44
X51.761 Y35.313
X51.97 Y35.251
X52.188 Y35.261
X52.391 Y35.342
X52.557 Y35.484
X52.666 Y35.673
G3 X52.685 Y35.941 I-0.51 J0.171
X51.43 Y35.766 I-0.624 J-0.114
G1 X51.471 Y35.458
X51.493 Y35.325
X51.525 Y35.178
X51.635 Y35.039
X51.784 Y34.943
X51.955 Y34.9
X52.132 Y34.914
X52.294 Y34.985
X52.426 Y35.103
X52.512 Y35.258
X52.53 Y35.334
X52.534 Y35.412
X52.526 Y35.489
G3 X51.493 Y35.325 I-0.514 J-0.096
G1 X51.558 Y34.955
X51.595 Y34.81
X51.714 Y34.686
X51.872 Y34.62
X52.043 Y34.622
X52.2 Y34.691
X52.316 Y34.817
G3 X52.361 Y35.077 I-0.353 J0.195
X51.558 Y34.955 I-0.401 J-0.065
G1 X51.592 Y34.788
X51.615 Y34.704
X51.63 Y34.662
X51.651 Y34.62
X51.665 Y34.597
X51.683 Y34.574
X51.704 Y34.552
X51.725 Y34.533
X51.767 Y34.504
X51.809 Y34.483
X51.85 Y34.47
X51.892 Y34.463
X51.934 Y34.461
X51.976 Y34.465
X52.018 Y34.474
X52.06 Y34.49
X52.102 Y34.514
X52.144 Y34.547
X52.167 Y34.571
X52.185 Y34.595
X52.201 Y34.62
X52.315 Y34.816
X52.398 Y34.955
X52.463 Y35.123
X52.524 Y35.291
X52.585 Y35.458
X52.964 Y36.464
X53.067 Y36.8
X53.118 Y36.967
X53.176 Y37.135
X53.305 Y37.47
X53.358 Y37.604
X53.53 Y37.973
X53.594 Y38.136
G3 X53.125 Y38.51 I-0.299 J0.106
G1 X53.065 Y38.472 Z-3.984
X53.008 Y38.436 Z-3.961
X52.957 Y38.404 Z-3.923
X52.915 Y38.377 Z-3.873
X52.883 Y38.357 Z-3.813
X52.863 Y38.344 Z-3.746
X52.856 Y38.34 Z-3.675
G0 Z5.
X65.692 Y-35.348
Z-3.357
G1 Z-3.675 F1016.
X65.684 Y-35.347 Z-3.746
X65.66 Y-35.346 Z-3.813
X65.623 Y-35.343 Z-3.873
X65.572 Y-35.339 Z-3.923
X65.512 Y-35.334 Z-3.961
X65.446 Y-35.329 Z-3.984
X65.375 Y-35.323 Z-3.992
G3 X64.601 Y-35.458 I-0.123 J-1.578
G1 X64.583 Y-35.468
X64.415 Y-35.531
X64.248 Y-35.582
X64.08 Y-35.618
X64.017 Y-35.626
X63.96 Y-35.631
X63.811 Y-35.653
X63.667 Y-35.692
X63.527 Y-35.747
X63.375 Y-35.822
X63.145 Y-35.96
X62.545 Y-36.389
X61.921 Y-36.783
X61.246 Y-37.082
X60.54 Y-37.294
X59.816 Y-37.439
X59.085 Y-37.537
X58.35 Y-37.603
X57.613 Y-37.648
X56.876 Y-37.679
X56.139 Y-37.703
X55.401 Y-37.721
X54.664 Y-37.735
X53.926 Y-37.748
X53.188 Y-37.759
X51.713 Y-37.777
X50.237 Y-37.794
X49.499 Y-37.8
X48.762 Y-37.806
X48.024 Y-37.81
X46.548 Y-37.815
X44.335 Y-37.818
X35.481 Y-37.819
X24.747
X24.693 Y-37.821
X24.64 Y-37.827
X24.587 Y-37.836
X24.208 Y-37.921
X24.041 Y-37.941
X23.873 Y-37.952
X23.705 Y-37.96
X23.37 Y-37.961
X23.203
X23.035 Y-37.959
X22.7 Y-37.951
X22.533 Y-37.938
X21.797 Y-37.878
X21.06 Y-37.85
X20.322 Y-37.835
X19.585 Y-37.827
X18.847 Y-37.823
X18.109 Y-37.821
X15.896 Y-37.819
X1.877 Y-37.818
X0.401 Y-37.816
X-1.812 Y-37.809
X-4.763 Y-37.795
X-9.19 Y-37.771
X-12.879 Y-37.749
X-16.568 Y-37.722
X-19.519 Y-37.697
X-21.733 Y-37.676
X-23.208 Y-37.659
X-23.946 Y-37.649
X-24.684 Y-37.639
X-25.421 Y-37.626
X-26.159 Y-37.612
X-26.897 Y-37.594
X-27.634 Y-37.573
X-28.371 Y-37.549
X-29.109 Y-37.522
X-29.846 Y-37.493
X-30.583 Y-37.468
X-31.321 Y-37.45
X-32.059 Y-37.439
X-32.797 Y-37.434
X-33.534 Y-37.432
X-35.01
X-40.913 Y-37.433
X-58.989
X-59.355 Y-37.391
X-59.694 Y-37.245
X-59.986 Y-37.02
X-60.473 Y-36.465
X-60.775 Y-35.792
X-60.954 Y-35.076
X-60.994 Y-34.79
X-61.008 Y-34.717
X-61.029 Y-34.645
X-61.058 Y-34.576
X-61.065 Y-34.562
X-61.108 Y-34.452
X-61.163 Y-34.285
X-61.203 Y-34.117
X-61.232 Y-33.974
X-61.257 Y-33.782
X-61.263 Y-33.614
X-61.272 Y-33.279
X-61.274 Y-33.111
Y-32.776
X-61.275 Y-32.608
X-61.283 Y-32.273
X-61.288 Y-32.105
X-61.283 Y-31.602
X-61.262 Y-31.435
X-61.216 Y-31.099
X-61.184 Y-30.932
X-61.178 Y-30.89
X-61.177 Y-30.848
X-61.176 Y-29.758
X-61.175 Y-29.423
X-61.169 Y-29.255
X-61.146 Y-28.92
X-61.131 Y-28.752
X-61.079 Y-28.417
X-61.053 Y-28.249
X-61.017 Y-28.082
X-60.997 Y-27.998
X-60.991 Y-27.956
X-60.99 Y-27.914
Y-27.076
X-61.009 Y-26.573
X-61.013 Y-26.405
X-61.018 Y-26.07
X-61.027 Y-25.902
X-61.106 Y-25.399
X-61.126 Y-25.232
X-61.162 Y-24.896
X-61.17 Y-24.729
X-61.175 Y-24.393
X-61.176 Y-24.226
Y-20.873
X-61.173 Y-20.37
X-61.166 Y-19.867
X-61.168 Y-19.699
X-61.177 Y-19.196
X-61.183 Y-18.693
X-61.186 Y-18.023
Y-15.843
X-61.184 Y-15.34
X-61.169 Y-14.837
X-61.158 Y-14.334
X-61.148 Y-13.999
X-61.138 Y-13.664
X-61.145 Y-13.24
X-61.172 Y-12.962
X-61.22 Y-12.7
X-61.274 Y-12.496
X-61.344 Y-12.297
X-61.421 Y-12.123
X-61.503 Y-11.974
X-61.603 Y-11.821
X-61.622 Y-11.796
X-61.773 Y-11.649
X-61.958 Y-11.549
X-62.163 Y-11.503
X-62.373 Y-11.515
X-62.572 Y-11.583
G3 X-62.698 Y-12.012 I0.154 J-0.278
G1 X-62.56 Y-12.267
X-61.734 Y-13.793
G3 X-61.138 Y-13.664 I0.279 J0.151
G1 X-61.121 Y-13.161
X-61.118 Y-12.993
X-61.122 Y-12.951
X-61.13 Y-12.909
X-61.158 Y-12.825
X-61.206 Y-12.658
X-61.248 Y-12.49
X-61.281 Y-12.322
X-61.302 Y-12.155
X-61.321 Y-11.987
X-61.325 Y-11.769
X-61.335 Y-11.619
X-61.414 Y-11.456
X-61.541 Y-11.327
X-61.703 Y-11.246
X-61.882 Y-11.22
X-62.059 Y-11.253
X-62.217 Y-11.342
X-62.273 Y-11.397
X-62.32 Y-11.458
X-62.358 Y-11.526
G3 X-61.378 Y-11.995 I0.49 J-0.235
X-61.325 Y-11.769 I-0.49 J0.235
G1 X-61.331 Y-11.484
X-61.328 Y-11.35
Y-11.317
Y-11.27
X-61.33 Y-11.227
X-61.335 Y-11.191
G3 X-61.569 Y-11.043 I-0.212 J-0.077
X-61.527 Y-11.482 I0.021 J-0.22
X-61.328 Y-11.27 I-0.021 J0.22
G1 Y-11.233
X-61.335 Y-11.191
X-61.349 Y-11.149
X-61.37 Y-11.107
X-61.4 Y-11.064
X-61.447 Y-11.016
X-61.47 Y-10.997
X-61.494 Y-10.981
X-61.53 Y-10.962
X-61.567 Y-10.949
X-61.609 Y-10.939
X-61.651 Y-10.935
X-61.693 Y-10.937
X-61.735 Y-10.945
X-61.778 Y-10.959
X-61.822 Y-10.981
X-61.862 Y-11.01
X-61.902 Y-11.05
X-61.992 Y-11.149
X-62.07 Y-11.224
X-62.237 Y-11.358
X-62.405 Y-11.48
X-62.572 Y-11.583
X-62.74 Y-11.668
X-62.907 Y-11.741
X-63.075 Y-11.802
X-63.138 Y-11.819
X-63.242 Y-11.847
X-63.273 Y-11.853
G3 X-63.329 Y-12.451 I0.076 J-0.308
G1 X-63.264 Y-12.48 Z-3.984
X-63.203 Y-12.508 Z-3.961
X-63.149 Y-12.533 Z-3.923
X-63.103 Y-12.553 Z-3.873
X-63.068 Y-12.569 Z-3.813
X-63.047 Y-12.579 Z-3.746
X-63.04 Y-12.582 Z-3.675
G0 Z5.
X-55.095 Y14.31
Z-3.357
G1 Z-3.675 F1016.
X-55.087 Y14.312 Z-3.746
X-55.064 Y14.317 Z-3.813
X-55.027 Y14.325 Z-3.873
X-54.978 Y14.336 Z-3.923
X-54.919 Y14.349 Z-3.961
X-54.854 Y14.363 Z-3.984
X-54.785 Y14.379 Z-3.992
G3 X-54.084 Y14.733 I-0.342 J1.545
G1 X-54.028 Y14.785
X-53.969 Y14.837
X-53.861 Y14.929
X-53.744 Y15.005
X-53.693 Y15.033
X-53.609 Y15.084
X-53.509 Y15.173
X-53.358 Y15.303
X-53.322 Y15.34
X-53.023 Y15.688
X-52.856 Y15.861
X-52.712 Y16.011
X-52.521 Y16.269
X-52.396 Y16.438
X-52.263 Y16.651
X-52.125 Y16.919
X-51.981 Y17.264
X-51.832 Y17.722
X-51.679 Y18.359
X-51.565 Y19.088
X-51.494 Y19.823
X-51.449 Y20.559
X-51.419 Y21.296
X-51.401 Y22.034
X-51.389 Y22.772
X-51.382 Y23.509
X-51.378 Y24.247
X-51.375 Y24.985
Y25.723
X-51.377 Y26.461
X-51.383 Y27.198
X-51.397 Y27.936
X-51.421 Y28.673
X-51.459 Y29.41
X-51.516 Y30.146
X-51.594 Y30.88
X-51.697 Y31.61
X-51.83 Y32.336
X-51.995 Y33.055
X-52.195 Y33.765
X-52.433 Y34.464
X-52.71 Y35.147
X-53.029 Y35.813
X-53.119 Y35.974
X-53.211 Y36.133
X-53.262 Y36.311
X-53.266 Y36.495
X-53.225 Y36.675
X-53.141 Y36.839
X-52.897 Y37.116
X-52.252 Y37.474
X-51.542 Y37.676
X-50.813 Y37.786
X-50.077 Y37.846
X-49.34 Y37.878
X-48.603 Y37.894
X-47.865 Y37.903
X-47.127 Y37.908
X-46.389 Y37.91
X-45.652 Y37.912
X-44.914 Y37.923
X-44.482 Y37.957
X-44.196 Y38.002
X-43.934 Y38.066
X-43.732 Y38.133
X-43.531 Y38.218
X-43.446 Y38.262
X-43.278 Y38.382
X-43.151 Y38.545
X-43.075 Y38.738
X-43.056 Y38.944
X-43.097 Y39.147
X-43.139 Y39.311
G3 X-43.738 Y39.34 I-0.305 J-0.089
G1 X-43.764 Y39.275 Z-3.984
X-43.79 Y39.213 Z-3.961
X-43.812 Y39.157 Z-3.923
X-43.831 Y39.11 Z-3.873
X-43.845 Y39.075 Z-3.813
X-43.854 Y39.053 Z-3.746
X-43.857 Y39.046 Z-3.675
G0 Z5.
X-53.486 Y15.751
Z-3.357
G1 Z-3.675 F1016.
X-53.478 Y15.753 Z-3.746
X-53.456 Y15.76 Z-3.813
X-53.42 Y15.772 Z-3.873
X-53.372 Y15.788 Z-3.923
X-53.315 Y15.806 Z-3.961
X-53.251 Y15.827 Z-3.984
X-53.184 Y15.849 Z-3.992
G3 X-52.521 Y16.269 I-0.489 J1.505
G1 X-52.453 Y16.346
X-52.315 Y16.514
X-52.178 Y16.681
X-52.039 Y16.849
X-52.018 Y16.871
X-51.873 Y17.017
X-51.515 Y17.306
X-51.399 Y17.4
X-51.29 Y17.511
X-51.169 Y17.657
X-51.043 Y17.834
X-50.916 Y18.048
X-50.778 Y18.333
X-50.641 Y18.681
X-50.497 Y19.16
X-50.351 Y19.835
X-50.253 Y20.566
X-50.194 Y21.301
X-50.158 Y22.038
X-50.136 Y22.776
X-50.122 Y23.513
X-50.114 Y24.251
X-50.11 Y24.989
X-50.109 Y25.727
X-50.111 Y26.465
X-50.12 Y27.202
X-50.136 Y27.94
X-50.162 Y28.677
X-50.203 Y29.414
X-50.261 Y30.15
X-50.34 Y30.883
X-50.441 Y31.614
X-50.57 Y32.341
X-50.727 Y33.061
X-50.916 Y33.775
X-51.138 Y34.478
X-51.202 Y34.651
X-51.221 Y34.835
X-51.195 Y35.017
X-51.124 Y35.188
X-50.908 Y35.487
X-50.356 Y35.976
X-49.678 Y36.269
X-48.96 Y36.436
X-48.228 Y36.53
X-47.492 Y36.582
X-46.755 Y36.61
X-46.017 Y36.628
X-45.28 Y36.655
X-44.695 Y36.712
X-44.248 Y36.792
X-43.925 Y36.877
X-43.655 Y36.972
X-43.449 Y37.063
X-43.248 Y37.172
X-43.093 Y37.274
X-42.943 Y37.39
X-42.811 Y37.511
X-42.796 Y37.527
X-42.678 Y37.696
X-42.612 Y37.891
X-42.603 Y38.097
X-42.652 Y38.298
X-42.755 Y38.476
X-42.862 Y38.644
X-42.959 Y38.811
X-42.971 Y38.836
X-43.038 Y38.979
X-43.097 Y39.147
G3 X-43.696 Y39.122 I-0.295 J-0.116
G1 X-43.717 Y39.054 Z-3.984
X-43.736 Y38.99 Z-3.961
X-43.753 Y38.932 Z-3.923
X-43.768 Y38.884 Z-3.873
X-43.779 Y38.848 Z-3.813
X-43.786 Y38.826 Z-3.746
X-43.788 Y38.818 Z-3.675
G0 Z5.
X-52.572 Y17.015
Z-3.357
G1 Z-3.675 F1016.
X-52.564 Y17.016 Z-3.746
X-52.541 Y17.018 Z-3.813
X-52.503 Y17.022 Z-3.873
X-52.453 Y17.026 Z-3.923
X-52.393 Y17.032 Z-3.961
X-52.326 Y17.038 Z-3.984
X-52.256 Y17.044 Z-3.992
G3 X-51.515 Y17.306 I-0.141 J1.576
G1 X-51.451 Y17.352
