(1001)
(T1  D=3.175 CR=0. - ZMIN=0.51 - FLAT END MILL)
(T2  D=1.587 CR=0.794 - ZMIN=0. - BALL END MILL)
G0 G90 G94 G17
G21
G53 G0 Z0.

(ADAPTIVE1)
M5
M9
T1 M6
S16500 M3
G4 P4.
G55
G0 X-4.105 Y-2.854
Z20.2
Z10.2
Z1.145
G1 Z0.827 F1016.
X-4.098 Y-2.851 Z0.757
X-4.076 Y-2.842 Z0.69
X-4.041 Y-2.828 Z0.63
X-3.995 Y-2.809 Z0.579
X-3.939 Y-2.787 Z0.541
X-3.876 Y-2.762 Z0.518
X-3.811 Y-2.735 Z0.51
G3 X-2.27 Y-1.914 I-3.021 J7.522
G1 X-2.153 Y-1.828
X-2.062 Y-1.699
X-1.964 Y-1.533
X-1.859 Y-1.319
X-1.75 Y-1.039
X-1.635 Y-0.658
X-1.516 Y-0.107
X-1.444 Y0.435
X-1.443 Y0.446
X-1.437 Y0.52
X-1.431 Y0.687
X-1.423 Y1.023
X-1.504 Y1.526
X-1.519 Y1.693
X-1.526 Y2.029
X-1.527 Y2.196
X-1.524 Y2.531
X-1.52 Y2.699
X-1.474 Y3.202
X-1.452 Y3.37
X-1.391 Y3.834
X-1.354 Y4.57
X-1.334 Y5.308
X-1.324 Y6.046
X-1.319 Y6.784
X-1.316 Y7.521
X-1.313 Y8.997
X-1.311 Y17.113
X-1.308 Y27.815
X-1.331 Y27.999
X-1.399 Y28.171
X-1.507 Y28.32
X-1.534 Y28.35
X-1.674 Y28.517
X-1.781 Y28.685
X-1.838 Y28.78
X-1.872 Y28.853
X-1.948 Y29.02
X-2.004 Y29.188
X-2.039 Y29.356
X-2.068 Y29.523
X-2.082 Y29.859
X-2.088 Y30.026
X-2.087 Y62.215
X-2.083 Y68.754
X-2.082 Y69.592
X-2.087 Y70.765
X-2.088 Y72.274
X-2.087 Y79.148
X-2.086 Y79.483
X-2.078 Y79.651
X-2.062 Y79.819
X-2.026 Y79.986
X-2.005 Y80.079
X-1.918 Y80.322
X-1.834 Y80.489
X-1.733 Y80.657
X-1.67 Y80.75
X-1.608 Y80.824
X-1.503 Y80.948
X-1.458 Y80.992
X-1.335 Y81.099
X-1.262 Y81.16
X-1.168 Y81.226
X-1. Y81.329
X-0.833 Y81.411
X-0.665 Y81.474
X-0.605 Y81.495
X-0.498 Y81.524
X-0.33 Y81.56
X-0.163 Y81.577
X0.005 Y81.586
X0.843 Y81.588
X3.523 Y81.587
X4.528 Y81.585
X5.198 Y81.586
X5.701 Y81.588
X30.998 Y81.587
X35.689
X36.191 Y81.586
X36.861 Y81.588
X48.589 Y81.587
X50.599 Y81.584
X51.772 Y81.58
X55.792 Y81.584
X57.133 Y81.587
X58.808
X60.818 Y81.583
X61.823
X62.326 Y81.587
X94.827
X95.329 Y81.586
X95.832 Y81.582
X97.507
X98.68 Y81.587
X99.853 Y81.588
X105.884 Y81.587
X107.559 Y81.585
X108.062 Y81.587
X113.758
X114.93 Y81.584
X116.103 Y81.58
X117.946 Y81.578
X118.616 Y81.579
X119.286 Y81.586
X119.956 Y81.588
X123.809 Y81.587
X124.815 Y81.586
X125.82 Y81.588
X127.16 Y81.587
X127.495 Y81.586
X127.663 Y81.577
X127.83 Y81.56
X127.998 Y81.524
X128.105 Y81.495
X128.165 Y81.474
X128.333 Y81.411
X128.504 Y81.327
X128.668 Y81.226
X128.762 Y81.16
X128.835 Y81.099
X128.958 Y80.992
X129.003 Y80.948
X129.108 Y80.824
X129.17 Y80.75
X129.233 Y80.657
X129.334 Y80.489
X129.418 Y80.322
X129.505 Y80.079
X129.526 Y79.986
X129.562 Y79.819
X129.578 Y79.651
X129.586 Y79.483
X129.587 Y78.813
Y76.298
X129.584 Y75.124
X129.582 Y74.621
X129.587 Y73.113
Y69.927
Y50.983
X129.584 Y49.306
X129.586 Y47.127
X129.587 Y46.288
Y39.415
Y39.247
X129.577 Y39.079
X129.548 Y38.744
X129.52 Y38.409
X129.517 Y38.241
X129.516 Y37.235
X129.518 Y36.9
X129.521 Y36.732
X129.547 Y36.565
X129.572 Y36.397
X129.582 Y36.229
X129.587 Y36.062
Y5.549
X129.586 Y5.382
X129.583 Y5.214
X129.575 Y5.046
X129.564 Y4.879
X129.548 Y4.711
X129.521 Y4.543
X129.505 Y4.45
X129.489 Y4.376
X129.447 Y4.208
X129.398 Y4.04
X129.369 Y3.957
X129.357 Y3.915
X129.351 Y3.873
X129.348 Y3.705
X129.347 Y2.867
X129.346 Y2.699
X129.323 Y2.196
X129.302 Y2.029
X129.255 Y1.693
X129.223 Y1.526
X129.149 Y1.19
X129.14 Y1.162
X129.073 Y0.912
X129.006 Y0.549
X128.981 Y0.366
X128.957 Y0.301
X128.93 Y0.215
X128.914 Y0.125
X128.909 Y0.035
G3 X129.537 Y-0.017 I0.317 J0.014
G1 X129.749 Y0.989
G3 X129.14 Y1.162 I-0.311 J0.065
G1 X129.095 Y1.023
X128.962 Y0.687
X128.933 Y0.604
X128.91 Y0.52
X128.907 Y0.352
X128.91 Y-0.036
X128.909 Y-0.046
X128.776 Y-0.507
X128.464 Y-0.962
X128.453 Y-0.975
X127.998 Y-1.302
X127.983 Y-1.31
X127.558 Y-1.449
X127.537 Y-1.452
X126.992 Y-1.484
X126.49 Y-1.54
X126.322 Y-1.561
X125.987 Y-1.605
X125.82 Y-1.623
X125.317 Y-1.654
X124.815 Y-1.675
X124.144 Y-1.696
X123.474 Y-1.714
X122.637 Y-1.733
X121.464 Y-1.756
X119.956 Y-1.781
X118.281 Y-1.805
X116.271 Y-1.831
X113.758 Y-1.858
X111.915 Y-1.876
X111.412 Y-1.879
X63.834 Y-1.878
X62.996 Y-1.875
X57.468 Y-1.848
X52.777 Y-1.821
X48.924 Y-1.796
X45.573 Y-1.77
X42.893 Y-1.746
X40.882 Y-1.725
X39.207 Y-1.704
X37.867 Y-1.685
X36.861 Y-1.666
X36.191 Y-1.651
X35.689 Y-1.637
X35.354 Y-1.625
X34.013 Y-1.57
X32.338 Y-1.5
X32.171 Y-1.49
X31.836 Y-1.469
X31.668 Y-1.451
X31.501 Y-1.436
X31.165 Y-1.416
X31.124 Y-1.415
X31.082 Y-1.42
X30.998 Y-1.439
X30.83 Y-1.461
X30.663 Y-1.48
X30.495 Y-1.491
X29.825 Y-1.492
X28.988 Y-1.493
X0.508
X0.448 Y-1.492
X0.005 Y-1.475
X-0.163 Y-1.453
X-0.376 Y-1.383
X-0.487 Y-1.346
X-0.498 Y-1.342
X-0.99 Y-1.01
X-1. Y-1.001
X-1.086 Y-0.874
X-1.168 Y-0.753
G3 X-1.383 Y-0.617 I-0.263 J-0.178
G2 X-1.651 Y-0.33 I0.048 J0.314
G1 X-1.659 Y-0.23
X-1.888 Y2.433
X-1.887 Y2.497
X-1.873 Y2.56
X-1.847 Y2.618
X-1.809 Y2.67
G3 X-1.452 Y3.37 I-1.187 J1.047
G1 X-1.42 Y3.537
X-1.378 Y3.705
X-1.326 Y3.873
X-1.193 Y4.292
X-1.186 Y4.334
X-1.184 Y4.376
X-1.201 Y4.543
X-1.238 Y4.879
X-1.246 Y5.046
X-1.247 Y5.717
Y8.735
X-1.241 Y8.902
X-1.211 Y9.332
X-1.109 Y9.74
X-1.069 Y9.908
X-0.963 Y10.453
X-0.96 Y10.495
Y11.249
X-0.959 Y11.585
X-0.945 Y11.752
X-0.917 Y12.088
X-0.889 Y12.255
X-0.833 Y12.501
X-0.792 Y12.674
X-0.788 Y12.716
X-0.789 Y12.758
X-0.869 Y13.261
X-0.894 Y13.429
X-0.941 Y13.764
X-0.956 Y13.932
X-0.96 Y14.435
Y27.679
X-0.964 Y27.763
X-0.973 Y27.805
X-0.987 Y27.847
X-1. Y27.874
X-1.03 Y27.919
X-1.049 Y27.942
X-1.072 Y27.964
X-1.168 Y28.03
X-1.335 Y28.158
X-1.363 Y28.182
X-1.507 Y28.32
G3 X-1.933 Y28.341 I-0.225 J-0.224
G1 X-1.965 Y28.298 Z0.515
X-1.997 Y28.255 Z0.529
X-2.026 Y28.215 Z0.552
X-2.035 Y28.168 Z0.586
X-2.043 Y28.128 Z0.629
X-2.049 Y28.096 Z0.679
X-2.048 Y28.076 Z0.726
X-2.047 Y28.063 Z0.776
Y28.059 Z0.827
G0 Z10.2
X130.253 Y8.5
Z1.839
G1 Z1.521 F1016.
X130.249 Y8.493 Z1.451
X130.237 Y8.473 Z1.384
X130.217 Y8.44 Z1.323
X130.191 Y8.397 Z1.273
X130.16 Y8.346 Z1.235
X130.126 Y8.288 Z1.212
X130.089 Y8.228 Z1.204
G3 X129.587 Y6.555 I3.014 J-1.816
G1 X129.584 Y6.052
X129.565 Y5.885
X129.535 Y5.717
X129.505 Y5.585
X129.494 Y5.549
X129.434 Y5.382
X129.357 Y5.214
X129.338 Y5.177
X129.266 Y5.046
X129.17 Y4.903
X129.01 Y4.711
X129.003 Y4.704
X128.898 Y4.597
X128.805 Y4.461
X128.705 Y4.285
X128.597 Y4.053
X128.463 Y3.692
X128.262 Y2.982
X128.091 Y2.264
X127.937 Y1.726
X127.865 Y1.364
X127.704 Y1.032
X127.226 Y0.47
X126.588 Y0.099
X125.886 Y-0.128
X125.161 Y-0.264
X124.428 Y-0.347
X123.692 Y-0.399
X122.955 Y-0.434
X122.218 Y-0.459
X121.48 Y-0.479
X120.743 Y-0.494
X120.005 Y-0.508
X119.267 Y-0.52
X117.792 Y-0.541
X115.578 Y-0.568
X113.365 Y-0.591
X112.627 Y-0.598
X111.89 Y-0.603
X111.152 Y-0.606
X109.676 Y-0.608
X100.085 Y-0.609
X81.639
X64.669
X63.932 Y-0.607
X61.718 Y-0.599
X57.291 Y-0.577
X52.864 Y-0.552
X49.175 Y-0.527
X46.224 Y-0.505
X44.011 Y-0.486
X41.798 Y-0.465
X40.322 Y-0.448
X38.847 Y-0.428
X38.109 Y-0.417
X37.371 Y-0.404
X36.633 Y-0.388
X35.896 Y-0.367
X35.159 Y-0.341
X34.421 Y-0.313
X33.684 Y-0.283
X32.947 Y-0.251
X32.211 Y-0.206
X31.473 Y-0.204
X30.735 Y-0.212
X29.997 Y-0.217
X29.259 Y-0.22
X27.784 Y-0.223
X20.406
X1.96
X1.591
X1.412 Y-0.181
X1.081 Y-0.017
X0.536 Y0.481
X0.18 Y1.127
X-0.015 Y1.838
X-0.066 Y2.574
X-0.003 Y3.309
X0.02 Y4.047
X0.022 Y5.522
X0.023 Y7.736
X0.056 Y8.473
X0.147 Y9.205
X0.225 Y9.939
X0.266 Y10.675
X0.334 Y11.41
X0.378 Y11.897
X0.384 Y12.635
X0.35 Y13.372
X0.331 Y14.11
X0.321 Y14.848
X0.316 Y15.585
X0.313 Y16.323
X0.311 Y17.799
X0.31 Y19.274
Y26.653
X0.294 Y27.006
X0.272 Y27.187
X0.207 Y27.414
X0.076 Y27.611
X-0.109 Y27.759
X-0.33 Y27.843
X-0.498 Y27.878
X-0.665 Y27.927
X-0.833 Y27.992
X-0.882 Y28.014
X-1. Y28.071
X-1.171 Y28.182
X-1.335 Y28.306
X-1.503 Y28.459
X-1.56 Y28.517
X-1.687 Y28.685
X-1.798 Y28.853
X-1.89 Y29.02
X-1.953 Y29.188
G3 X-2.552 Y29.151 I-0.293 J-0.122
G1 X-2.571 Y29.083 Z1.212
X-2.589 Y29.019 Z1.235
X-2.605 Y28.961 Z1.273
X-2.619 Y28.912 Z1.323
X-2.629 Y28.876 Z1.384
X-2.635 Y28.853 Z1.451
X-2.637 Y28.846 Z1.521
G0 Z10.2
X-2.755 Y37.499
Z1.839
G1 Z1.521 F1016.
X-2.751 Y37.505 Z1.451
X-2.738 Y37.526 Z1.384
X-2.719 Y37.558 Z1.323
X-2.693 Y37.601 Z1.273
X-2.662 Y37.653 Z1.235
X-2.627 Y37.71 Z1.212
X-2.591 Y37.77 Z1.204
G3 X-2.087 Y39.443 I-3.012 J1.818
G1 X-2.086 Y39.582
X-2.084 Y39.75
X-2.074 Y39.918
X-2.068 Y40.085
X-2.071 Y40.588
X-2.079 Y40.756
X-2.084 Y40.924
X-2.083 Y41.091
X-2.07 Y41.259
X-2.05 Y41.427
X-2.02 Y41.594
X-2.005 Y41.663
X-1.977 Y41.762
X-1.926 Y41.929
X-1.861 Y42.097
X-1.814 Y42.209
X-1.806 Y42.237
X-1.801 Y42.265
X-1.798 Y42.307
X-1.8 Y42.349
X-1.818 Y42.432
X-1.838 Y42.532
X-1.848 Y42.6
X-1.862 Y42.768
X-1.867 Y42.935
Y44.444
X-1.862 Y44.612
X-1.847 Y44.947
X-1.838 Y45.046
X-1.767 Y45.45
X-1.726 Y45.618
X-1.601 Y46.037
X-1.503 Y46.225
X-1.401 Y46.419
X-1.294 Y46.672
X-1.181 Y47.01
X-1.063 Y47.486
X-0.945 Y48.214
X-0.884 Y48.949
X-0.852 Y49.686
X-0.836 Y50.424
X-0.828 Y51.092
X-0.854 Y51.296
X-0.935 Y51.485
X-1.065 Y51.645
X-1.335 Y51.895
X-1.422 Y51.989
X-1.503 Y52.102
X-1.67 Y52.393
X-1.717 Y52.491
X-1.787 Y52.659
X-1.842 Y52.827
X-1.869 Y52.911
X-1.934 Y53.403
X-1.935 Y53.414
X-1.906 Y53.833
X-1.89 Y54.
X-1.833 Y54.44
X-1.652 Y54.925
X-1.643 Y54.941
X-1.547 Y55.092
X-1.444 Y55.274
X-1.339 Y55.501
X-1.228 Y55.8
X-1.112 Y56.209
X-0.993 Y56.815
X-0.909 Y57.548
X-0.865 Y58.285
X-0.842 Y59.022
X-0.83 Y59.76
X-0.824 Y60.498
X-0.821 Y61.236
X-0.818 Y62.711
X-0.813 Y68.614
X-0.817 Y71.236
X-0.847 Y71.447
X-0.937 Y71.641
X-1.079 Y71.801
X-1.242 Y71.939
X-1.335 Y72.021
X-1.407 Y72.107
X-1.503 Y72.226
X-1.652 Y72.475
X-1.812 Y72.966
X-1.85 Y73.448
X-1.857 Y73.615
X-1.868 Y73.951
X-1.877 Y74.118
X-1.912 Y74.286
X-1.938 Y74.454
X-1.957 Y74.621
X-1.962 Y74.789
X-1.957 Y74.957
X-1.945 Y75.124
X-1.924 Y75.292
X-1.898 Y75.46
X-1.882 Y75.627
X-1.868 Y79.148
X-1.866 Y79.483
X-1.85 Y79.651
X-1.782 Y80.049
X-1.574 Y80.489
X-1.545 Y80.547
X-1.514 Y80.591
X-1.503 Y80.606
X-1.1 Y81.006
X-1.086 Y81.019
X-1.057 Y81.038
X-1. Y81.07
X-0.55 Y81.28
X-0.539 Y81.284
X-0.163 Y81.348
X0.005 Y81.366
X0.843 Y81.367
X1.513
X1.848 Y81.365
X2.015 Y81.363
X2.183 Y81.359
X2.685 Y81.327
X3.209 Y81.284
X3.701 Y81.149
X3.733 Y81.133
X3.991 Y80.992
X4.124 Y80.92
X4.364 Y80.814
X4.684 Y80.702
X5.128 Y80.585
X5.804 Y80.465
X6.538 Y80.394
X7.275 Y80.358
X8.013 Y80.339
X8.751 Y80.329
X9.488 Y80.323
X10.035 Y80.321
X10.246 Y80.351
X10.44 Y80.44
X10.6 Y80.58
X10.727 Y80.727
X10.742 Y80.741
X11.066 Y80.992
X11.188 Y81.058
X11.199 Y81.063
X11.565 Y81.177
X11.732 Y81.225
X12.235 Y81.301
X12.737 Y81.355
X12.905 Y81.352
X13.24 Y81.341
X13.252 Y81.339
X13.826 Y81.165
X13.868 Y81.161
X13.91 Y81.163
X13.952 Y81.17
X13.994 Y81.181
X14.077 Y81.208
X14.245 Y81.255
X14.413 Y81.295
X14.58 Y81.321
X14.915 Y81.359
X15.083 Y81.367
X15.585
X15.92 Y81.364
X16.088 Y81.361
X16.59 Y81.326
X16.758 Y81.288
X17.083 Y81.211
X17.093 Y81.208
X17.499 Y80.992
X17.655 Y80.909
X17.903 Y80.802
X18.233 Y80.689
X18.696 Y80.572
X18.894 Y80.539
X19.083 Y80.531
X19.267 Y80.572
X19.435 Y80.657
X19.576 Y80.783
X19.612 Y80.824
X19.773 Y80.971
X19.8 Y80.992
X19.941 Y81.078
X20.119 Y81.184
X20.593 Y81.333
X20.611 Y81.337
X21.114 Y81.366
X21.449 Y81.367
X21.616 Y81.368
X21.658 Y81.374
X21.7 Y81.385
X21.784 Y81.418
X22.007 Y81.495
X22.119 Y81.525
X22.286 Y81.56
X22.454 Y81.578
G3 X22.386 Y82.209 I-0.034 J0.316
X22.454 Y81.578 I0.034 J-0.316
X22.605 Y81.636 I-0.034 J0.316
G1 X22.92 Y81.862
G3 X22.549 Y82.377 I-0.185 J0.258
X22.554 Y81.858 I0.185 J-0.258
X23.292 Y81.587 I0.898 J1.303
G1 X23.459 Y81.576
X23.627 Y81.555
X23.794 Y81.523
X23.892 Y81.495
X23.962 Y81.472
X24.129 Y81.411
X24.213 Y81.376
X24.255 Y81.362
X24.297 Y81.354
X24.339 Y81.351
X24.967 Y81.385
X25.469 Y81.409
X25.637 Y81.416
X26.14 Y81.432
X26.642 Y81.444
X26.81 Y81.44
X27.197 Y81.425
X27.312 Y81.4
X27.48 Y81.36
X27.595 Y81.327
X27.647 Y81.319
X27.815 Y81.325
X28.15 Y81.3
X28.317 Y81.286
X28.82 Y81.192
X28.988 Y81.137
X29.323 Y81.025
X29.397 Y80.992
X29.448 Y80.963
X29.612 Y80.88
X29.667 Y80.858
X29.867 Y80.808
X30.074 Y80.815
X30.271 Y80.878
X30.442 Y80.994
G3 X30.227 Y81.54 I-0.221 J0.228
G1 X30.19
X29.621 Y81.551
G3 X29.448 Y80.963 I-0.006 J-0.317
G1 X29.49 Y80.939
X29.658 Y80.834
X29.825 Y80.707
X29.867 Y80.687
X29.909 Y80.675
X29.951 Y80.668
X29.993 Y80.666
X30.035 Y80.669
X30.077 Y80.677
X30.118 Y80.691
X30.16 Y80.712
X30.19 Y80.733
X30.219 Y80.758
X30.278 Y80.824
X30.44 Y80.992
X30.495 Y81.042
X30.663 Y81.17
X30.83 Y81.282
X30.998 Y81.375
X31.165 Y81.443
X31.312 Y81.495
X31.333 Y81.501
X31.501 Y81.541
X31.668 Y81.569
X31.836 Y81.578
X32.171 Y81.585
X32.338 Y81.579
X32.506 Y81.564
X32.673 Y81.531
X32.813 Y81.495
X33.008 Y81.428
X33.176 Y81.35
X33.223 Y81.327
X33.343 Y81.253
X33.481 Y81.16
X33.511 Y81.136
X33.631 Y81.047
X33.7 Y81.008
X33.884 Y80.933
X34.082 Y80.91
X34.278 Y80.941
X34.46 Y81.023
G3 X34.331 Y81.6 I-0.178 J0.263
G1 X34.306 Y81.604
X33.77 Y81.688
G3 X33.511 Y81.136 I-0.049 J-0.314
G1 X33.678 Y80.998
X33.846 Y80.837
X33.866 Y80.824
X33.903 Y80.806
X33.94 Y80.794
X33.977 Y80.786
X34.013 Y80.783
X34.055 Y80.784
X34.097 Y80.791
X34.139 Y80.802
X34.181 Y80.818
X34.193 Y80.824
X34.383 Y80.97
X34.411 Y80.992
X34.6 Y81.109
X34.621 Y81.122
X35.102 Y81.296
X35.113 Y81.298
X35.586 Y81.335
X35.619 Y81.332
X36.066 Y81.273
X36.076 Y81.271
X36.526 Y81.082
X36.61 Y81.043
X36.652 Y81.029
X36.694 Y81.022
X36.736 Y81.02
X36.778 Y81.022
X36.82 Y81.028
X36.861 Y81.041
X37.029 Y81.129
X37.093 Y81.16
X37.197 Y81.2
X37.343 Y81.252
X37.364 Y81.256
X37.835 Y81.324
X38.202 Y81.286
X38.369 Y81.266
X38.537 Y81.23
X38.704 Y81.182
X38.776 Y81.16
X38.824 Y81.152
X38.872 Y81.151
X38.901 Y81.154
X38.931 Y81.16
X39.039 Y81.199
X39.552 Y81.342
X40.045 Y81.366
X40.212 Y81.367
X40.463
X40.505 Y81.369
X40.547 Y81.375
X40.715 Y81.44
X40.884 Y81.495
X41.05 Y81.534
X41.217 Y81.567
X41.72 Y81.587
X42.222 Y81.588
X42.39 Y81.582
X42.725 Y81.565
X42.893 Y81.542
X43.06 Y81.505
X43.228 Y81.448
X43.395 Y81.376
X43.496 Y81.327
X43.563 Y81.289
X43.762 Y81.16
X43.784 Y81.141
X43.905 Y81.052
X44.076 Y80.953
X44.298 Y80.848
X44.589 Y80.738
X44.662 Y80.717
X44.839 Y80.688
X45.018 Y80.703
X45.188 Y80.76
X45.34 Y80.857
G3 X45.206 Y81.403 I-0.211 J0.238
G1 X45.113 Y81.426
X44.071 Y81.688
G3 X43.784 Y81.141 I-0.077 J-0.308
G1 X43.898 Y81.048
X43.957 Y80.992
X44.065 Y80.88
X44.117 Y80.824
X44.243 Y80.657
X44.301 Y80.565
X44.386 Y80.441
X44.507 Y80.36
X44.647 Y80.324
X44.792 Y80.336
X44.925 Y80.396
X45.03 Y80.497
G3 X45.119 Y80.742 I-0.425 J0.293
X44.244 Y80.824 I-0.437 J0.041
X44.301 Y80.565 I0.437 J-0.041
G1 X44.347 Y80.489
X44.4 Y80.388
X44.422 Y80.355
X44.451 Y80.322
X44.48 Y80.295
X44.509 Y80.275
X44.539 Y80.259
X44.568 Y80.246
X44.61 Y80.234
X44.652 Y80.228
X44.694
X44.735 Y80.233
X44.777 Y80.242
X44.819 Y80.258
X44.861 Y80.281
X44.903 Y80.314
X44.911 Y80.322
X44.946 Y80.363
X45.024 Y80.489
X45.07 Y80.551
X45.3 Y80.824
X45.503 Y80.992
X45.573 Y81.035
X45.756 Y81.143
X45.772 Y81.15
X46.254 Y81.306
X46.264 Y81.308
X46.746 Y81.364
X46.913 Y81.36
X47.248 Y81.348
X47.421 Y81.327
X47.772 Y81.281
X47.782 Y81.278
X48.27 Y81.074
X48.287 Y81.063
X48.467 Y80.958
X48.686 Y80.852
X48.975 Y80.742
X49.368 Y80.625
X49.945 Y80.504
X50.677 Y80.411
X51.413 Y80.363
X52.15 Y80.338
X52.888 Y80.326
X53.626 Y80.32
X54.364 Y80.317
X55.101 Y80.316
X58.053 Y80.317
X61.004 Y80.313
X61.938 Y80.315
X62.162 Y80.35
X62.364 Y80.451
X62.527 Y80.608
X62.593 Y80.694
X62.918 Y80.992
X62.996 Y81.047
X63.059 Y81.087
X63.551 Y81.288
X63.562 Y81.29
X64.001 Y81.354
X64.169 Y81.357
X64.536 Y81.347
X64.552 Y81.345
X64.839 Y81.281
X64.881 Y81.278
X64.923
X64.965 Y81.284
X65.174 Y81.335
X65.342 Y81.361
X65.698 Y81.41
X65.708 Y81.411
X66.194 Y81.358
X66.347 Y81.312
X66.514 Y81.252
X66.682 Y81.183
X67.017 Y80.994
X67.246 Y80.879
X67.515 Y80.77
X67.62 Y80.737
X67.85 Y80.703
X68.08 Y80.742
X68.286 Y80.85
G3 X68.145 Y81.41 I-0.199 J0.247
G1 X68.085 Y81.421
X67.241 Y81.577
G3 X67.017 Y80.994 I-0.058 J-0.312
G1 X67.02 Y80.992
X67.184 Y80.866
X67.4 Y80.657
X67.519 Y80.524
X67.546 Y80.505
X67.572 Y80.489
X67.601 Y80.476
X67.629 Y80.465
X67.658 Y80.458
X67.687 Y80.453
X67.729 Y80.452
X67.771 Y80.455
X67.813 Y80.465
X67.854 Y80.481
X67.872 Y80.489
X67.909 Y80.512
X67.947 Y80.539
X68.022 Y80.621
X68.057 Y80.657
X68.19 Y80.778
X68.476 Y80.992
X68.525 Y81.018
X68.692 Y81.102
X68.86 Y81.174
X69.027 Y81.231
X69.195 Y81.276
X69.614 Y81.353
X69.624 Y81.354
X70.095 Y81.32
X70.552 Y81.16
X70.702 Y81.1
X70.744 Y81.093
X70.786 Y81.09
X70.828 Y81.092
X70.87 Y81.1
X71.038 Y81.17
X71.205 Y81.225
X71.373 Y81.267
X71.708 Y81.304
X71.875 Y81.321
X72.21 Y81.329
X72.378 Y81.333
X72.545 Y81.308
X72.713 Y81.273
X72.88 Y81.225
X72.922 Y81.222
X72.964 Y81.223
X73.534 Y81.354
X73.55 Y81.357
X74.053 Y81.366
X75.728 Y81.367
X76.398 Y81.347
X77.069 Y81.324
X77.404 Y81.311
X77.917 Y81.283
X78.39 Y81.155
X78.409 Y81.148
X78.697 Y80.992
X78.835 Y80.918
X79.077 Y80.811
X79.4 Y80.699
X79.848 Y80.582
X80.532 Y80.462
X81.267 Y80.393
X82.004 Y80.357
X82.742 Y80.338
X83.479 Y80.328
X84.217 Y80.323
X84.955 Y80.32
X86.431 Y80.318
X89.27
X89.483 Y80.349
X89.678 Y80.44
X89.838 Y80.583
X89.887 Y80.642
X89.902 Y80.657
X90.325 Y80.992
X90.361 Y81.014
X90.398 Y81.032
X90.639 Y81.144
X90.806 Y81.203
X90.974 Y81.251
X91.382 Y81.347
X91.864 Y81.351
X91.874
X92.314 Y81.26
X92.481 Y81.21
X92.816 Y81.092
X92.984 Y81.015
X93.027 Y80.992
X93.173 Y80.914
X93.418 Y80.806
X93.747 Y80.693
X94.215 Y80.573
X94.919 Y80.451
X95.654 Y80.385
X96.391 Y80.35
X97.129 Y80.333
X97.866 Y80.325
X98.815 Y80.321
X99.032 Y80.353
X99.23 Y80.446
X99.392 Y80.594
X99.818 Y81.003
X99.829 Y81.013
X99.853 Y81.029
X100.02 Y81.105
X100.355 Y81.256
X100.376 Y81.261
X100.858 Y81.35
X101.36 Y81.367
X101.695
X102.366
X102.533 Y81.363
X102.988 Y81.327
X103.036 Y81.318
X103.496 Y81.205
X103.873 Y81.006
X104.232 Y80.839
X104.531 Y80.728
X104.941 Y80.612
X105.551 Y80.491
X106.106 Y80.427
X106.299 Y80.43
X106.484 Y80.483
X106.65 Y80.582
X106.784 Y80.72
X106.862 Y80.824
X107.056 Y81.031
X107.224 Y81.162
X107.391 Y81.279
X107.559 Y81.366
X107.727 Y81.437
X107.894 Y81.497
X108.062 Y81.539
X108.229 Y81.566
X108.397 Y81.583
X108.564 Y81.586
X108.732
X108.899 Y81.582
X109.067 Y81.564
X109.234 Y81.534
X109.402 Y81.493
X109.527 Y81.454
X109.569 Y81.447
X109.611 Y81.445
X109.653 Y81.448
X109.737 Y81.467
X109.844 Y81.495
X109.904 Y81.506
X110.239 Y81.546
X110.407 Y81.561
X110.575 Y81.573
X110.742 Y81.582
X110.834 Y81.585
G3 X111.136 Y81.96 I-0.011 J0.317
G1 X111.092 Y82.195
X111.051 Y82.414
G3 X110.427 Y82.298 I-0.312 J-0.058
X110.576 Y82.084 I0.312 J0.058
X112.25 Y81.587 I1.808 J3.019
G1 X112.417 Y81.586
X112.585 Y81.581
X112.752 Y81.57
X112.92 Y81.55
X113.087 Y81.526
X113.255 Y81.492
X113.423 Y81.45
X113.59 Y81.397
X113.778 Y81.327
X113.925 Y81.257
X114.093 Y81.163
X114.187 Y81.097
X114.358 Y80.991
X114.558 Y80.887
X114.817 Y80.779
X115.164 Y80.665
X115.655 Y80.547
X116.384 Y80.432
X117.119 Y80.373
X117.768 Y80.346
X117.945 Y80.36
X118.114 Y80.416
X118.265 Y80.511
X118.389 Y80.638
X118.403 Y80.657
X118.448 Y80.714
X118.541 Y80.824
X118.718 Y80.992
X118.783 Y81.048
X118.951 Y81.163
X119.119 Y81.266
X119.286 Y81.347
X119.454 Y81.415
X119.621 Y81.471
X119.708 Y81.495
X119.789 Y81.516
X119.956 Y81.546
X120.124 Y81.57
G3 X120.038 Y82.198 I-0.056 J0.313
G1 X114.369 Y81.67
X114.348 Y81.668
G3 X114.187 Y81.097 I0.029 J-0.316
G1 X114.26 Y81.047
X114.33 Y80.992
X114.505 Y80.824
X114.595 Y80.709
X114.634 Y80.657
X114.75 Y80.489
X114.763 Y80.465
X114.839 Y80.336
X114.937 Y80.222
X115.05 Y80.112
X115.189 Y79.997
X115.349 Y79.886
X115.558 Y79.764
X115.821 Y79.638
X116.148 Y79.512
X116.523 Y79.401
X116.839 Y79.334
X117.088 Y79.303
X117.237 Y79.296
X117.455 Y79.318
X117.657 Y79.404
X117.826 Y79.545
X117.945 Y79.729
X118.062 Y79.986
X118.113 Y80.113
X118.129 Y80.154
X118.197 Y80.322
X118.289 Y80.489
X118.339 Y80.573
X118.389 Y80.638
G3 X118.107 Y81.138 I-0.259 J0.183
G1 X118.038 Y81.133
X115.192 Y80.932
X115.026 Y80.92
G3 X114.763 Y80.465 I0.022 J-0.317
G1 X114.838 Y80.322
X114.905 Y80.154
X114.93 Y80.084
X114.956 Y79.986
X114.993 Y79.819
X115.026 Y79.672
X115.085 Y79.534
X115.16 Y79.404
X115.247 Y79.283
X115.351 Y79.162
X115.474 Y79.039
X115.62 Y78.916
X115.79 Y78.794
X115.972 Y78.684
X116.149 Y78.597
X116.344 Y78.519
X116.519 Y78.465
X116.678 Y78.429
X116.752 Y78.419
X116.946 Y78.417
X117.133 Y78.466
X117.301 Y78.561
X117.439 Y78.696
X117.537 Y78.863
X117.587 Y78.98
X117.778 Y79.375
X117.833 Y79.483
X117.945 Y79.729
G3 X117.651 Y80.168 I-0.293 J0.121
G1 X117.49 Y80.167
X115.57 Y80.163
X115.309
G3 X114.993 Y79.819 I0.001 J-0.318
G1 X115.013 Y79.651
X115.014 Y79.483
X115.005 Y79.316
X114.996 Y79.223
X114.99 Y79.074
X115.01 Y78.925
X115.05 Y78.781
X115.108 Y78.642
X115.179 Y78.51
X115.261 Y78.385
X115.356 Y78.265
X115.466 Y78.148
X115.585 Y78.039
X115.706 Y77.946
X115.845 Y77.855
X115.977 Y77.783
X116.114 Y77.723
X116.26 Y77.673
X116.405 Y77.635
X116.411 Y77.634
X116.605 Y77.628
X116.793 Y77.672
X116.964 Y77.764
X117.105 Y77.896
X117.207 Y78.061
G3 X117.081 Y78.451 I-0.294 J0.12
G1 X116.792 Y78.631
X115.607 Y79.372
X115.479 Y79.451
G3 X114.996 Y79.223 I-0.168 J-0.269
G1 X114.989 Y79.148
X114.947 Y78.98
X114.93 Y78.92
X114.896 Y78.813
X114.86 Y78.72
X114.831 Y78.645
X114.822 Y78.603
X114.816 Y78.561
X114.817 Y78.519
X114.822 Y78.477
X114.854 Y78.31
X114.888 Y78.142
X114.925 Y77.997
X114.975 Y77.856
X115.041 Y77.721
X115.119 Y77.593
X115.209 Y77.472
X115.308 Y77.36
X115.417 Y77.257
X115.535 Y77.164
X115.66 Y77.081
X115.792 Y77.01
X115.93 Y76.952
X116.005 Y76.928
X116.226 Y76.892
X116.448 Y76.924
X116.65 Y77.021
X116.814 Y77.174
X116.924 Y77.369
G3 X116.768 Y77.755 I-0.3 J0.103
G1 X116.473 Y77.905
X115.421 Y78.439
X115.345 Y78.477
G3 X114.888 Y78.142 I-0.144 J-0.283
G1 X114.956 Y77.807
X114.992 Y77.639
X115.024 Y77.471
X115.085 Y77.136
X115.119 Y76.99
X115.179 Y76.853
X115.258 Y76.725
X115.353 Y76.609
X115.462 Y76.506
X115.583 Y76.417
X115.713 Y76.343
X115.723 Y76.339
X115.916 Y76.286
X116.117 Y76.288
X116.31 Y76.343
X116.481 Y76.448
X116.618 Y76.595
X116.71 Y76.774
G3 X116.501 Y77.173 I-0.303 J0.095
G1 X116.229 Y77.257
X115.633 Y77.441
X115.493 Y77.484
G3 X115.085 Y77.136 I-0.094 J-0.303
G1 X115.145 Y76.801
X115.2 Y76.466
X115.208 Y76.415
X115.239 Y76.268
X115.303 Y76.133
X115.458 Y75.982
X115.651 Y75.884
X115.864 Y75.849
X116.078 Y75.88
X116.273 Y75.973
X116.431 Y76.121
X116.537 Y76.309
G3 X116.256 Y76.728 I-0.301 J0.102
G1 X116.054 Y76.74
X115.77 Y76.757
X115.542 Y76.771
G3 X115.208 Y76.415 I-0.019 J-0.317
G1 X115.284 Y75.935
X115.315 Y75.788
X115.385 Y75.655
X115.546 Y75.532
X115.739 Y75.469
X115.941 Y75.476
X116.129 Y75.551
X116.281 Y75.685
X116.379 Y75.863
X116.396 Y75.94
X116.401 Y76.018
X116.393 Y76.096
G3 X115.284 Y75.935 I-0.553 J-0.094
G1 X115.333 Y75.627
X115.356 Y75.494
X115.389 Y75.347
X115.515 Y75.223
X115.677 Y75.153
X115.853 Y75.145
X116.021 Y75.202
X116.157 Y75.314
X116.244 Y75.468
X116.257 Y75.533
X116.259 Y75.6
X116.249 Y75.666
G3 X115.356 Y75.494 I-0.442 J-0.11
G1 X115.391 Y75.292
X115.419 Y75.158
X115.426 Y75.124
X115.433 Y75.091
X115.443 Y75.056
X115.471 Y74.984
X115.511 Y74.918
X115.563 Y74.861
X115.594 Y74.848
X115.628
X115.659 Y74.861
X115.684 Y74.883
X115.699 Y74.914
X115.701 Y74.947
X115.691 Y74.979
X115.602 Y75.149
X115.579 Y75.177
X115.547 Y75.194
X115.51 Y75.197
X115.476 Y75.185
X115.449 Y75.16
X115.434 Y75.127
X115.433 Y75.091
X115.449 Y75.024
X115.462 Y74.99
X115.479 Y74.957
X115.5 Y74.926
X115.525 Y74.896
X115.563 Y74.861
X115.6 Y74.835
X115.642 Y74.815
X115.684 Y74.801
X115.726 Y74.794
X115.768 Y74.792
X115.81 Y74.796
X115.852 Y74.805
X115.894 Y74.821
X115.935 Y74.845
X115.967 Y74.869
X115.999 Y74.901
X116.021 Y74.929
X116.039 Y74.957
X116.103 Y75.075
X116.128 Y75.124
X116.184 Y75.292
X116.47 Y76.13
X116.66 Y76.633
X116.838 Y77.136
X116.9 Y77.304
X117.028 Y77.639
X117.092 Y77.807
X117.276 Y78.213
X117.322 Y78.31
X117.39 Y78.477
X117.516 Y78.813
X117.537 Y78.863
G3 X117.078 Y79.25 I-0.296 J0.114
G1 X117.018 Y79.214 Z1.212
X116.96 Y79.179 Z1.235
X116.908 Y79.148 Z1.273
X116.865 Y79.123 Z1.323
X116.833 Y79.104 Z1.384
X116.812 Y79.092 Z1.451
X116.806 Y79.087 Z1.521
G0 Z10.2
X120.058 Y82.275
Z1.839
G1 Z1.521 F1016.
X120.064 Y82.271 Z1.451
X120.084 Y82.258 Z1.384
X120.116 Y82.238 Z1.323
X120.159 Y82.212 Z1.273
X120.21 Y82.18 Z1.235
X120.268 Y82.145 Z1.212
X120.328 Y82.108 Z1.204
G3 X121.994 Y81.587 I1.85 J2.993
G1 X122.469 Y81.577
X122.637 Y81.565
X122.804 Y81.545
X122.972 Y81.514
X123.053 Y81.495
X123.139 Y81.468
X123.307 Y81.414
X123.51 Y81.327
X123.642 Y81.257
X123.804 Y81.16
X123.809 Y81.156
X124.007 Y81.026
X124.189 Y80.926
X124.347 Y80.855
X124.522 Y80.802
X124.705 Y80.793
X124.885 Y80.829
X125.05 Y80.908
G3 X124.953 Y81.476 I-0.181 J0.261
G1 X124.89 Y81.493
X124.09 Y81.712
G3 X123.809 Y81.156 I-0.084 J-0.306
G1 X123.977 Y81.033
X124.028 Y80.992
X124.194 Y80.824
X124.312 Y80.706
X124.346 Y80.678
X124.381 Y80.657
X124.43 Y80.636
X124.479 Y80.623
X124.521 Y80.619
X124.563 Y80.621
X124.605 Y80.628
X124.647 Y80.641
X124.68 Y80.657
X124.815 Y80.734
X124.958 Y80.846
X124.982 Y80.865
X125.15 Y80.972
X125.189 Y80.992
X125.443 Y81.108
X125.453 Y81.112
X125.82 Y81.19
X125.987 Y81.223
X126.458 Y81.271
X126.469 Y81.27
X126.94 Y81.216
X126.951 Y81.214
X127.327 Y81.076
X127.495 Y81.014
X127.549 Y80.992
X127.663 Y80.94
X127.956 Y80.789
X127.97 Y80.78
X128.333 Y80.488
X128.458 Y80.384
X128.471 Y80.373
X128.793 Y79.986
X128.807 Y79.968
X128.882 Y79.819
X128.963 Y79.651
X129.023 Y79.483
X129.194 Y78.98
X129.236 Y78.813
X129.321 Y78.446
Y78.435
X129.308 Y77.974
X129.306 Y77.964
X129.161 Y77.482
X129.003 Y77.18
X128.833 Y76.813
X128.721 Y76.508
X128.603 Y76.087
X128.486 Y75.485
X128.404 Y74.752
X128.362 Y74.015
X128.341 Y73.278
X128.33 Y72.54
X128.328 Y72.353
X128.349 Y72.173
X128.413 Y72.003
X128.516 Y71.854
X128.653 Y71.734
X128.668 Y71.724
X128.835 Y71.589
X129.003 Y71.423
X129.127 Y71.268
X129.17 Y71.209
X129.24 Y71.101
X129.338 Y70.918
X129.407 Y70.765
X129.47 Y70.598
X129.505 Y70.478
X129.552 Y70.262
X129.575 Y70.095
X129.587 Y69.592
G3 X129.694 Y69.361 I0.317 J0.007
G1 X129.735 Y69.317
X129.767 Y69.266
X129.789 Y69.211
X129.8 Y69.151
X129.825 Y68.87
X130.137 Y65.393
X130.136 Y65.326
X130.121 Y65.261
X130.092 Y65.2
G3 X129.587 Y63.529 I3.01 J-1.822
G1 X129.586 Y63.389
X129.581 Y63.221
X129.566 Y63.053
X129.542 Y62.886
X129.505 Y62.714
X129.459 Y62.551
X129.406 Y62.383
X129.403 Y62.341
Y62.299
X129.416 Y62.215
X129.448 Y62.048
X129.476 Y61.88
X129.499 Y61.712
X129.509 Y61.545
X129.505 Y61.369
X129.493 Y61.209
X129.467 Y61.042
X129.436 Y60.874
X129.403 Y60.706
X129.384 Y60.623
X129.378 Y60.539
X129.374 Y60.036
Y59.533
X129.403 Y58.527
X129.428 Y57.521
X129.432 Y57.353
Y57.186
X129.428 Y56.85
X129.425 Y56.683
X129.403 Y55.844
X129.379 Y55.006
X129.361 Y54.503
X129.336 Y54.
X129.28 Y53.665
X129.251 Y53.497
X129.092 Y53.162
X129.011 Y52.994
X129.003 Y52.984
X128.912 Y52.865
X128.804 Y52.618
X128.691 Y52.288
X128.574 Y51.826
X128.451 Y51.112
X128.386 Y50.377
X128.352 Y49.64
X128.334 Y48.902
X128.325 Y48.165
X128.321 Y47.427
X128.32 Y47.008
X128.356 Y46.78
X128.46 Y46.574
X128.622 Y46.41
X128.786 Y46.288
X128.835 Y46.241
X129.003 Y46.076
X129.056 Y46.015
X129.105 Y45.953
X129.219 Y45.785
X129.316 Y45.618
X129.338 Y45.574
X129.399 Y45.45
X129.462 Y45.282
X129.505 Y45.139
X129.547 Y44.947
X129.571 Y44.78
G3 X130.163 Y44.686 I0.313 J0.056
G1 X130.197 Y44.748 Z1.212
X130.228 Y44.807 Z1.235
X130.257 Y44.86 Z1.273
X130.28 Y44.904 Z1.323
X130.298 Y44.938 Z1.384
X130.309 Y44.959 Z1.451
X130.313 Y44.966 Z1.521
G0 Z10.2
X129.995 Y53.449
Z1.839
G1 Z1.521 F1016.
X129.987 Y53.447 Z1.451
X129.965 Y53.441 Z1.384
X129.928 Y53.431 Z1.323
X129.88 Y53.418 Z1.273
X129.821 Y53.402 Z1.235
X129.756 Y53.385 Z1.212
X129.688 Y53.367 Z1.204
G3 X129.003 Y52.984 I0.406 J-1.53
G1 X128.584 Y52.556
X128.542 Y52.518
X128.5 Y52.494
X128.369 Y52.422
X128.251 Y52.33
X128.142 Y52.226
X128.042 Y52.114
X127.933 Y51.969
X127.813 Y51.78
X127.694 Y51.554
X127.57 Y51.264
X127.443 Y50.884
X127.312 Y50.36
X127.192 Y49.632
X127.127 Y48.897
X127.091 Y48.16
X127.092 Y47.715
X127.116 Y47.421
X127.126 Y47.358
X127.181 Y47.175
X127.282 Y47.012
X127.42 Y46.88
X127.588 Y46.788
X127.774 Y46.742
G3 X128.112 Y47.008 I0.025 J0.317
G1 X128.162 Y47.316
X128.928 Y52.054
X128.944 Y52.154
G3 X128.5 Y52.494 I-0.313 J0.051
G1 X128.037 Y52.266
X128.017 Y52.259
X127.738 Y52.188
X127.595 Y52.144
X127.46 Y52.079
X127.333 Y51.998
X127.215 Y51.906
X127.089 Y51.79
X126.955 Y51.644
X126.826 Y51.48
X126.682 Y51.262
X126.534 Y50.994
X126.393 Y50.682
X126.246 Y50.268
X126.101 Y49.729
X125.984 Y49.098
X125.929 Y48.558
X125.921 Y48.19
X125.937 Y47.914
X125.972 Y47.662
X126.018 Y47.455
X126.078 Y47.261
X126.151 Y47.079
X126.273 Y46.903
X126.439 Y46.77
X126.637 Y46.689
X126.85 Y46.668
X127.06 Y46.709
G3 X127.257 Y46.95 I-0.115 J0.296
G1 X127.337 Y47.403
X128.089 Y51.661
X128.117 Y51.823
G3 X127.738 Y52.188 I-0.313 J0.055
G1 X127.495 Y52.127
X127.453 Y52.112
X127.411 Y52.09
X127.327 Y52.029
X127.268 Y51.989
X126.911 Y51.793
X126.894 Y51.784
X126.565 Y51.68
X126.425 Y51.628
X126.291 Y51.56
X126.165 Y51.478
X126.046 Y51.386
X125.915 Y51.267
X125.769 Y51.11
X125.632 Y50.937
X125.481 Y50.711
X125.33 Y50.441
X125.184 Y50.122
X125.055 Y49.766
X124.949 Y49.382
X124.876 Y48.999
X124.836 Y48.624
X124.826 Y48.273
X124.844 Y47.943
X124.878 Y47.688
X124.933 Y47.437
X124.992 Y47.24
X125.065 Y47.055
X125.15 Y46.881
X125.234 Y46.74
X125.335 Y46.597
X125.376 Y46.548
X125.54 Y46.402
X125.74 Y46.311
X125.957 Y46.282
X126.174 Y46.319
X126.37 Y46.417
G3 X126.495 Y46.638 I-0.192 J0.253
G1 X126.547 Y47.16
X126.949 Y51.174
X126.966 Y51.343
G3 X126.565 Y51.68 I-0.316 J0.032
G1 X126.479 Y51.653
X126.322 Y51.609
X125.883 Y51.511
X125.872 Y51.51
X125.862
X125.712 Y51.508
X125.564 Y51.48
X125.422 Y51.433
X125.285 Y51.371
X125.155 Y51.296
X125.026 Y51.207
X124.881 Y51.088
X124.817 Y51.026
X124.719 Y50.912
X124.647 Y50.78
X124.603 Y50.636
G3 X125.091 Y50.32 I0.313 J-0.051
G1 X125.134 Y50.348
X126.014 Y50.928
G3 X125.862 Y51.51 I-0.175 J0.265
G1 X125.39 Y51.527
X125.317 Y51.543
X125.225 Y51.569
X125.184 Y51.58
X125.15 Y51.589
X125.109 Y51.6
X125.081 Y51.607
X125.053 Y51.612
X125.024 Y51.615
G3 X124.745 Y51.365 I0.03 J-0.313
X125.342 Y51.243 I0.298 J-0.061
X125.15 Y51.589 I-0.298 J0.061
G1 X125.108 Y51.603
X125.066 Y51.612
X125.024 Y51.615
X124.982 Y51.613
X124.94 Y51.604
X124.898 Y51.59
X124.856 Y51.569
X124.815 Y51.538
X124.787 Y51.512
X124.766 Y51.486
X124.737 Y51.444
X124.715 Y51.402
X124.701 Y51.36
X124.692 Y51.318
X124.668 Y51.15
X124.627 Y50.815
X124.606 Y50.647
X124.506 Y50.144
X124.479 Y50.032
X124.347 Y49.641
X124.34 Y49.627
X124.312 Y49.582
X124.177 Y49.337
X124.087 Y49.137
X124.011 Y48.925
X123.949 Y48.694
X123.903 Y48.441
X123.876 Y48.181
X123.87 Y47.917
X123.886 Y47.651
X123.922 Y47.391
X123.979 Y47.136
X124.047 Y46.916
X124.132 Y46.705
X124.223 Y46.521
X124.313 Y46.371
X124.424 Y46.216
X124.533 Y46.087
X124.64 Y45.979
X124.767 Y45.87
X124.816 Y45.835
X124.959 Y45.753
X125.117 Y45.706
X125.281 Y45.694
X125.485 Y45.704
X125.526 Y45.714
X125.568 Y45.73
X125.61 Y45.753
X125.652 Y45.786
X125.823 Y45.953
X126. Y46.121
X126.155 Y46.259
X126.322 Y46.383
X126.37 Y46.417
G3 X126.453 Y46.83 I-0.192 J0.253
G1 X126.289 Y47.11
X124.922 Y49.443
X124.85 Y49.566
G3 X124.312 Y49.582 I-0.274 J-0.16
G1 X124.038 Y49.138
X124.01 Y49.105
X123.977 Y49.071
X123.58 Y48.685
X123.478 Y48.575
X123.389 Y48.454
X123.314 Y48.324
X123.251 Y48.188
X123.197 Y48.038
X123.15 Y47.869
X123.116 Y47.693
X123.095 Y47.498
X123.089 Y47.29
X123.1 Y47.077
X123.129 Y46.861
X123.176 Y46.643
X123.241 Y46.426
X123.324 Y46.214
X123.423 Y46.01
X123.431 Y45.997
X123.557 Y45.839
X123.721 Y45.72
X123.911 Y45.65
X124.113 Y45.635
X124.647 Y45.665
X124.815 Y45.675
X125.281 Y45.694
G3 X125.529 Y46.174 I-0.024 J0.317
G1 X125.458 Y46.293
X124.181 Y48.421
X124.065 Y48.613
G3 X123.58 Y48.685 I-0.272 J-0.163
G1 X123.529 Y48.635
X123.515 Y48.625
X123.055 Y48.385
X122.926 Y48.309
X122.809 Y48.216
X122.705 Y48.108
X122.614 Y47.989
X122.536 Y47.861
X122.469 Y47.726
X122.411 Y47.578
X122.362 Y47.416
X122.324 Y47.243
X122.299 Y47.05
X122.288 Y46.844
X122.293 Y46.647
X122.313 Y46.466
X122.348 Y46.28
X122.368 Y46.21
X122.457 Y46.008
X122.603 Y45.841
X122.791 Y45.725
X123.005 Y45.67
X123.139 Y45.656
X123.642 Y45.611
X123.83 Y45.618
X124.113 Y45.635
G3 X124.376 Y46.072 I-0.03 J0.316
G1 X124.303 Y46.249
X123.589 Y47.971
X123.486 Y48.22
G3 X123.055 Y48.385 I-0.293 J-0.122
G1 X123.014 Y48.364
X123.003 Y48.36
X122.542 Y48.256
X122.396 Y48.223
X122.259 Y48.162
X122.132 Y48.081
X122.017 Y47.985
X121.913 Y47.877
X121.82 Y47.759
X121.738 Y47.634
X121.664 Y47.495
X121.598 Y47.346
X121.542 Y47.184
X121.502 Y47.03
X121.474 Y46.865
X121.459 Y46.7
X121.457 Y46.55
X121.467 Y46.4
X121.475 Y46.349
X121.534 Y46.154
X121.643 Y45.982
X121.795 Y45.846
X121.979 Y45.758
X122.179 Y45.722
X122.469 Y45.711
X122.637 Y45.702
X122.804 Y45.691
X123.005 Y45.67
G3 X123.336 Y46.059 I0.022 J0.317
G1 X123.292 Y46.246
X122.955 Y47.689
X122.88 Y48.012
G3 X122.542 Y48.256 I-0.309 J-0.072
G1 X122.532 Y48.254
X122.062 Y48.282
X121.912 Y48.291
X121.764 Y48.267
X121.622 Y48.22
X121.487 Y48.154
X121.36 Y48.074
X121.243 Y47.98
X121.136 Y47.875
X121.038 Y47.761
X120.959 Y47.65
X120.932 Y47.608
G3 X121.388 Y47.194 I0.28 J-0.149
G1 X122.125 Y47.682
X122.164 Y47.708
G3 X122.062 Y48.282 I-0.175 J0.265
G1 X122.044 Y48.286
X121.967 Y48.306
X121.799 Y48.354
X121.631 Y48.417
X121.59 Y48.43
X121.548 Y48.436
X121.506
X121.464 Y48.432
X121.422 Y48.421
X121.38 Y48.403
X121.338 Y48.378
X121.296 Y48.343
X121.259 Y48.3
X121.232 Y48.258
X121.214 Y48.216
X121.191 Y48.133
X121.139 Y47.965
X120.848 Y47.462
X120.773 Y47.332
X120.72 Y47.192
X120.675 Y47.033
X120.645 Y46.885
X120.628 Y46.736
X120.623 Y46.583
X120.624 Y46.569
X120.664 Y46.364
X120.76 Y46.178
X120.904 Y46.026
X121.084 Y45.921
X121.129 Y45.902
X121.296 Y45.825
X121.373 Y45.785
X121.464 Y45.746
X121.506 Y45.735
X121.548 Y45.729
X121.967
X122.179 Y45.722
G3 X122.416 Y46.252 I0.001 J0.317
G1 X122.381 Y46.291
X121.49 Y47.274
X121.319 Y47.463
G3 X120.848 Y47.462 I-0.235 J-0.213
G1 X120.794 Y47.401
X120.68 Y47.274
X120.662 Y47.26
X120.474 Y47.127
X120.356 Y47.034
X120.252 Y46.857
X120.214 Y46.656
X120.246 Y46.454
X120.344 Y46.274
X120.497 Y46.138
X120.687 Y46.061
G3 X121.054 Y46.435 I0.055 J0.313
G1 X121.022 Y46.602
X120.991 Y46.761
X120.96 Y46.922
G3 X120.474 Y47.127 I-0.312 J-0.061
G1 X120.291 Y46.998
X120.252 Y46.976
X120.232 Y46.967
X120.212 Y46.959
X120.185 Y46.952
X120.043 Y46.905
X119.949 Y46.769
X119.911 Y46.607
X119.934 Y46.443
X120.015 Y46.299
X120.144 Y46.194
X120.302 Y46.143
X120.687 Y46.061
G3 X120.988 Y46.311 I0.045 J0.252
X120.185 Y46.952 I-0.653 J0.005
G1 X119.906 Y46.876
X119.763 Y46.829
X119.672 Y46.702
X119.638 Y46.551
X119.665 Y46.397
X119.749 Y46.266
X119.877 Y46.178
X120.029 Y46.146
X120.291 Y46.145
X120.302 Y46.143
G3 X120.525 Y46.326 I0.018 J0.205
X119.906 Y46.876 I-0.504 J0.057
G1 X119.736 Y46.83
X119.705
X119.63 Y46.829
X119.487 Y46.782
X119.38 Y46.678
X119.34 Y46.518
X119.373 Y46.358
X119.472 Y46.227
X119.617 Y46.15
X119.781 Y46.144
G3 X120. Y46.589 I-0.069 J0.31
G1 X119.972 Y46.648
G3 X119.705 Y46.83 I-0.287 J-0.135
G1 X119.426 Y46.838
X119.276 Y46.835
X119.144 Y46.763
X119.047 Y46.649
X119.016 Y46.478
X119.059 Y46.309
X119.168 Y46.174
X119.324 Y46.097
X119.497 Y46.092
X119.781 Y46.144
X119.824 Y46.16
X119.861 Y46.186
X119.89 Y46.222
X119.909 Y46.263
X119.915 Y46.308
G3 X119.426 Y46.838 I-0.523 J0.008
G1 X119.276 Y46.843
X119.244 Y46.853
X119.156 Y46.882
X119.084 Y46.902
X118.935 Y46.882
X118.806 Y46.806
X118.72 Y46.663
X118.69 Y46.498
X118.721 Y46.333
X118.808 Y46.19
X118.94 Y46.087
X119.1 Y46.037
X119.268 Y46.048
G3 X119.454 Y46.513 I-0.088 J0.305
G1 X119.319 Y46.745
X119.287 Y46.789
X119.249 Y46.828
X119.205 Y46.859
X119.156 Y46.882
X118.888 Y46.972
X118.744 Y47.013
X118.598 Y46.977
X118.47 Y46.899
X118.36 Y46.729
X118.319 Y46.531
X118.352 Y46.332
X118.454 Y46.157
X118.612 Y46.031
X118.805 Y45.97
X119.007 Y45.983
X119.268 Y46.048
G3 X119.414 Y46.254 I-0.056 J0.195
X118.888 Y46.972 I-0.812 J-0.043
G1 X118.82 Y46.995
X118.802 Y47.006
X118.707 Y47.078
X118.584 Y47.164
X118.435 Y47.183
X118.288 Y47.156
X118.153 Y47.09
X118.036 Y46.997
X117.926 Y46.809
X117.881 Y46.597
X117.905 Y46.382
X117.997 Y46.185
X118.146 Y46.027
X118.337 Y45.925
X118.551 Y45.888
X118.766 Y45.921
G3 X118.965 Y46.296 I-0.108 J0.298
G1 X118.953 Y46.344
X118.813 Y46.911
X118.79 Y46.974
X118.754 Y47.03
X118.707 Y47.078
X118.428 Y47.294
X118.304 Y47.38
X118.159 Y47.419
X118.01 Y47.413
X117.864 Y47.375
X117.731 Y47.307
X117.61 Y47.217
X117.508 Y47.108
X117.423 Y46.984
X117.358 Y46.849
X117.312 Y46.706
X117.286 Y46.558
X117.284 Y46.505
X117.312 Y46.279
X117.408 Y46.071
X117.562 Y45.903
X117.76 Y45.79
X117.983 Y45.742
X118.21 Y45.764
X118.448 Y45.825
X118.616 Y45.873
X118.766 Y45.921
G3 X118.939 Y46.366 I-0.108 J0.298
G1 X118.826 Y46.583
X118.811 Y46.612
X118.507 Y47.196
X118.472 Y47.249
X118.428 Y47.294
X118.333 Y47.367
X118.321 Y47.378
X118.252 Y47.462
X118.235 Y47.49
X118.15 Y47.614
X118.025 Y47.695
X117.882 Y47.741
X117.732 Y47.756
X117.583 Y47.743
X117.437 Y47.708
X117.298 Y47.651
X117.168 Y47.577
X117.048 Y47.487
X116.939 Y47.384
X116.833 Y47.213
X116.779 Y47.019
X116.78 Y46.818
X116.837 Y46.625
X116.903 Y46.456
X117.061 Y46.039
X117.081 Y45.998
X117.111 Y45.953
X117.129 Y45.93
X117.152 Y45.907
X117.193 Y45.875
X117.276 Y45.834
X117.378 Y45.785
X117.443 Y45.751
X117.569 Y45.684
X117.611 Y45.668
X117.653 Y45.657
X117.695 Y45.651
X117.736 Y45.65
X117.778 Y45.656
X117.946 Y45.695
X118.21 Y45.764
G3 X118.435 Y46.109 I-0.09 J0.304
G1 X118.392 Y46.444
X118.358 Y46.717
X118.274 Y47.373
X118.26 Y47.433
X118.235 Y47.49
X118.016 Y47.847
X117.931 Y47.97
X117.817 Y48.067
X117.684 Y48.137
X117.541 Y48.181
X117.392 Y48.203
X117.242 Y48.204
X117.093 Y48.185
X117.079 Y48.181
X116.887 Y48.099
X116.725 Y47.966
X116.606 Y47.793
X116.541 Y47.593
X116.535 Y47.384
X116.587 Y47.181
X116.61 Y47.127
X116.837 Y46.625
G3 X117.385 Y46.589 I0.284 J0.141
G1 X117.453 Y46.69
X117.762 Y47.152
X118.004 Y47.513
G3 X118.016 Y47.847 I-0.264 J0.177
G1 X117.943 Y47.965
X117.87 Y48.133
X117.84 Y48.225
X117.787 Y48.365
X117.694 Y48.483
X117.579 Y48.579
X117.447 Y48.651
X117.306 Y48.701
X117.158 Y48.727
X117.008 Y48.732
X116.968 Y48.728
X116.767 Y48.677
X116.588 Y48.572
X116.445 Y48.422
X116.349 Y48.238
X116.308 Y48.035
X116.325 Y47.828
X116.399 Y47.634
X116.401 Y47.63
X116.587 Y47.181
G3 X117.124 Y47.115 I0.289 J0.132
G1 X117.21 Y47.223
X117.481 Y47.562
X117.783 Y47.939
G3 X117.84 Y48.225 I-0.248 J0.198
G1 X117.816 Y48.3
X117.77 Y48.468
X117.756 Y48.51
X117.734 Y48.552
X117.536 Y48.854
X117.448 Y48.975
X117.336 Y49.075
X117.207 Y49.152
X117.066 Y49.203
X116.919 Y49.232
X116.769 Y49.237
X116.62 Y49.222
X116.474 Y49.185
X116.467 Y49.182
X116.273 Y49.07
X116.122 Y48.905
X116.028 Y48.702
X115.998 Y48.48
X116.035 Y48.26
X116.137 Y48.06
X116.206 Y47.965
X116.309 Y47.797
X116.399 Y47.634
G3 X116.936 Y47.621 I0.273 J0.163
G1 X117.016 Y47.742
X117.293 Y48.159
X117.529 Y48.513
G3 X117.536 Y48.854 I-0.264 J0.176
G1 X117.443 Y48.995
X117.353 Y49.138
X117.276 Y49.283
X117.267 Y49.306
X117.207 Y49.444
X117.103 Y49.552
X116.98 Y49.638
X116.844 Y49.7
X116.699 Y49.739
X116.55 Y49.756
X116.4 Y49.75
X116.252 Y49.725
X116.109 Y49.679
X116.092 Y49.671
X115.916 Y49.558
X115.779 Y49.4
X115.692 Y49.209
X115.662 Y49.002
X115.69 Y48.795
X115.775 Y48.604
X115.966 Y48.3
X116.083 Y48.133
X116.103 Y48.108
X116.137 Y48.06
G3 X116.659 Y48.09 I0.251 J0.194
G1 X116.748 Y48.235
X116.973 Y48.605
X117.237 Y49.039
G3 X117.267 Y49.306 I-0.271 J0.165
G1 X117.164 Y49.579
X117.16 Y49.599
X117.145 Y49.692
X117.114 Y49.839
X117.038 Y49.968
X116.936 Y50.079
X116.817 Y50.169
X116.684 Y50.24
X116.543 Y50.29
X116.396 Y50.32
X116.246 Y50.33
X116.097 Y50.321
X115.949 Y50.294
X115.806 Y50.249
X115.669 Y50.186
X115.541 Y50.11
X115.523 Y50.096
X115.375 Y49.943
X115.277 Y49.754
X115.237 Y49.546
X115.257 Y49.334
X115.337 Y49.137
X115.469 Y48.971
G3 X115.792 Y48.913 I0.209 J0.239
G1 X116.203 Y49.071
X116.604 Y49.226
X116.944 Y49.356
G3 X117.145 Y49.692 I-0.114 J0.296
G1 X117.084 Y50.071
X117.085 Y50.081
X117.088 Y50.231
X117.049 Y50.376
X116.977 Y50.508
X116.883 Y50.625
X116.772 Y50.725
X116.647 Y50.808
X116.513 Y50.875
X116.371 Y50.925
X116.225 Y50.96
X116.076 Y50.979
X115.926 Y50.982
X115.777 Y50.969
X115.629 Y50.942
X115.485 Y50.9
X115.347 Y50.843
X115.214 Y50.773
X115.09 Y50.689
X114.975 Y50.593
X114.87 Y50.486
X114.833 Y50.44
X114.729 Y50.263
X114.677 Y50.064
X114.681 Y49.857
X114.743 Y49.661
X114.856 Y49.489
X115.013 Y49.354
X115.14 Y49.273
X115.182 Y49.241
X115.469 Y48.971
G3 X115.881 Y48.965 I0.209 J0.239
G1 X116.14 Y49.181
X116.555 Y49.526
X116.972 Y49.872
X117.015 Y49.916
X117.049 Y49.966
X117.072 Y50.022
X117.085 Y50.081
X117.121 Y50.553
X117.124 Y50.563
X117.164 Y50.708
X117.14 Y50.856
X117.087 Y50.997
X117.013 Y51.127
X116.921 Y51.245
X116.815 Y51.351
X116.697 Y51.444
X116.57 Y51.524
X116.435 Y51.59
X116.295 Y51.644
X116.151 Y51.684
X116.003 Y51.712
X115.854 Y51.727
X115.699 Y51.73
X115.547 Y51.721
X115.391 Y51.698
X115.23 Y51.662
X115.08 Y51.615
X114.94 Y51.559
X114.794 Y51.486
X114.665 Y51.408
X114.544 Y51.32
X114.428 Y51.22
X114.323 Y51.113
X114.226 Y50.995
X114.131 Y50.796
X114.099 Y50.579
X114.132 Y50.361
X114.227 Y50.163
X114.428 Y49.867
X114.466 Y49.809
X114.521 Y49.732
X114.609 Y49.641
X114.686 Y49.564
X114.763 Y49.508
X114.821 Y49.474
X114.93 Y49.407
X115.013 Y49.354
G3 X115.345 Y49.359 I0.162 J0.273
G1 X115.713 Y49.593
X116.507 Y50.096
X116.997 Y50.406
X117.05 Y50.449
X117.093 Y50.502
X117.124 Y50.563
X117.264 Y50.983
X117.304 Y51.127
X117.313 Y51.277
X117.294 Y51.426
X117.251 Y51.569
X117.188 Y51.706
X117.11 Y51.833
X117.017 Y51.951
X116.913 Y52.059
X116.799 Y52.157
X116.677 Y52.244
X116.546 Y52.321
X116.402 Y52.391
X116.248 Y52.451
X116.085 Y52.5
X115.91 Y52.538
X115.728 Y52.562
X115.536 Y52.572
X115.341 Y52.566
X115.144 Y52.545
X114.948 Y52.507
X114.753 Y52.453
X114.562 Y52.383
X114.38 Y52.3
X114.23 Y52.216
X114.075 Y52.112
X113.943 Y52.006
X113.833 Y51.904
X113.722 Y51.782
X113.699 Y51.752
X113.596 Y51.571
X113.548 Y51.367
X113.558 Y51.159
X113.626 Y50.961
X113.747 Y50.79
X113.758 Y50.779
X113.872 Y50.647
X113.925 Y50.585
X114.008 Y50.48
X114.093 Y50.361
X114.227 Y50.163
G3 X114.574 Y50.046 I0.256 J0.187
G1 X114.952 Y50.16
X116.586 Y50.648
X117.057 Y50.789
G3 X117.264 Y50.983 I-0.091 J0.304
G1 X117.276 Y51.019
X117.284 Y51.035
X117.489 Y51.346
X117.565 Y51.475
X117.607 Y51.619
X117.623 Y51.768
X117.615 Y51.918
X117.587 Y52.065
X117.543 Y52.209
X117.483 Y52.346
X117.41 Y52.477
X117.325 Y52.601
X117.23 Y52.718
X117.117 Y52.835
X116.992 Y52.946
X116.852 Y53.052
X116.693 Y53.153
X116.517 Y53.245
X116.33 Y53.325
X116.13 Y53.392
X115.915 Y53.446
X115.687 Y53.483
X115.449 Y53.503
X115.205
X114.96 Y53.484
X114.714 Y53.445
X114.472 Y53.386
X114.238 Y53.309
X114.011 Y53.213
X113.815 Y53.111
X113.635 Y52.998
X113.474 Y52.878
X113.346 Y52.765
X113.217 Y52.633
X113.111 Y52.504
X113.051 Y52.418
X112.959 Y52.239
X112.919 Y52.042
X112.933 Y51.84
X113. Y51.651
X113.116 Y51.486
X113.271 Y51.318
X113.424 Y51.15
X113.56 Y50.983
X113.59 Y50.948
X113.724 Y50.815
X113.747 Y50.79
G3 X114.019 Y50.703 I0.223 J0.226
G1 X114.502 Y50.779
X116.753 Y51.133
X117.279 Y51.216
X117.34 Y51.232
X117.397 Y51.26
X117.447 Y51.298
X117.489 Y51.346
X117.611 Y51.531
X117.741 Y51.666
X117.754 Y51.678
X117.778 Y51.695
X117.897 Y51.786
X117.971 Y51.917
X118.019 Y52.059
X118.046 Y52.206
X118.054 Y52.356
X118.044 Y52.506
X118.018 Y52.654
X117.979 Y52.798
X117.927 Y52.939
X117.862 Y53.08
X117.778 Y53.228
X117.679 Y53.374
X117.563 Y53.518
X117.426 Y53.663
X117.269 Y53.805
X117.096 Y53.937
X116.904 Y54.061
X116.689 Y54.177
X116.453 Y54.28
X116.201 Y54.366
X115.937 Y54.434
X115.66 Y54.482
X115.37 Y54.508
X115.072 Y54.511
X114.768 Y54.49
X114.466 Y54.445
X114.171 Y54.375
X113.887 Y54.284
X113.618 Y54.173
X113.365 Y54.044
X113.135 Y53.902
X112.942 Y53.761
X112.765 Y53.608
X112.632 Y53.472
X112.502 Y53.318
X112.4 Y53.174
X112.317 Y53.034
X112.297 Y52.994
X112.228 Y52.77
X112.233 Y52.535
X112.311 Y52.314
X112.453 Y52.128
X112.601 Y51.989
X112.752 Y51.833
X112.763 Y51.821
X112.92 Y51.659
X113.087 Y51.513
X113.116 Y51.486
X113.167 Y51.448
X113.223 Y51.422
X113.284 Y51.407
X113.347 Y51.404
X113.88 Y51.434
X117.004 Y51.61
X117.625 Y51.645
X117.679 Y51.653
X117.73 Y51.67
X117.778 Y51.695
X118.203 Y51.989
X118.322 Y52.08
X118.416 Y52.197
X118.489 Y52.328
X118.542 Y52.468
X118.578 Y52.614
X118.597 Y52.763
X118.602 Y52.913
X118.593 Y53.062
X118.57 Y53.217
X118.534 Y53.374
X118.481 Y53.541
X118.409 Y53.716
X118.321 Y53.891
X118.213 Y54.068
X118.081 Y54.25
X117.925 Y54.431
X117.752 Y54.604
X117.552 Y54.773
X117.325 Y54.935
X117.074 Y55.086
X116.802 Y55.221
X116.513 Y55.336
X116.202 Y55.432
X115.87 Y55.506
X115.522 Y55.555
X115.163 Y55.576
X114.798 Y55.568
X114.432 Y55.53
X114.069 Y55.464
X113.716 Y55.368
X113.379 Y55.248
X113.061 Y55.105
X112.77 Y54.944
X112.502 Y54.767
X112.264 Y54.581
X112.074 Y54.406
X111.911 Y54.229
X111.773 Y54.053
X111.672 Y53.901
X111.578 Y53.731
X111.569 Y53.71
X111.508 Y53.494
X111.515 Y53.27
X111.589 Y53.058
X111.723 Y52.878
X111.944 Y52.659
X112.1 Y52.491
X112.25 Y52.324
X112.424 Y52.156
X112.453 Y52.128
X112.498 Y52.096
X112.548 Y52.071
X112.601 Y52.055
X112.657 Y52.049
X113.219 Y52.038
X117.428 Y51.951
X118.026 Y51.938
X118.088 Y51.943
X118.148 Y51.96
X118.203 Y51.989
X118.223 Y52.002
X118.242 Y52.009
X118.541 Y52.099
X118.682 Y52.149
X118.811 Y52.225
X118.923 Y52.325
X119.019 Y52.441
X119.098 Y52.568
X119.163 Y52.703
X119.213 Y52.845
X119.249 Y52.99
X119.272 Y53.14
X119.284 Y53.297
X119.283 Y53.467
X119.267 Y53.651
X119.236 Y53.839
X119.186 Y54.039
X119.114 Y54.251
X119.022 Y54.464
X118.908 Y54.679
X118.766 Y54.901
X118.596 Y55.127
X118.401 Y55.345
X118.181 Y55.555
X117.93 Y55.758
X117.648 Y55.952
X117.336 Y56.131
X116.997 Y56.291
X116.637 Y56.427
X116.258 Y56.536
X115.856 Y56.617
X115.436 Y56.668
X115.005 Y56.684
X114.566 Y56.666
X114.129 Y56.613
X113.697 Y56.525
X113.279 Y56.403
X112.878 Y56.251
X112.5 Y56.072
X112.158 Y55.874
X111.854 Y55.665
X111.586 Y55.447
X111.354 Y55.223
X111.186 Y55.035
X111.034 Y54.833
X110.984 Y54.754
X110.903 Y54.578
X110.869 Y54.388
X110.887 Y54.195
X110.893 Y54.168
X110.91 Y54.121
X110.973 Y54.
X111.077 Y53.809
X111.147 Y53.665
X111.245 Y53.45
X111.298 Y53.33
X111.316 Y53.293
X111.342 Y53.257
X111.412 Y53.184
X111.723 Y52.878
X111.777 Y52.838
X111.838 Y52.81
X111.904 Y52.796
X112.484 Y52.733
X117.76 Y52.162
X118.426 Y52.09
X118.484 Y52.089
X118.541 Y52.099
X118.713 Y52.151
X118.733 Y52.153
X119.043 Y52.177
X119.192 Y52.196
X119.332 Y52.251
X119.46 Y52.329
X119.575 Y52.425
X119.678 Y52.534
X119.768 Y52.654
X119.846 Y52.782
X119.911 Y52.917
X119.968 Y53.063
X120.014 Y53.218
X120.051 Y53.393
X120.075 Y53.583
X120.085 Y53.78
X120.078 Y53.996
X120.051 Y54.227
X120.006 Y54.462
X119.936 Y54.71
X119.839 Y54.971
X119.715 Y55.24
X119.566 Y55.503
X119.386 Y55.769
X119.171 Y56.038
X118.919 Y56.305
X118.633 Y56.564
X118.318 Y56.805
X117.974 Y57.028
X117.596 Y57.231
X117.185 Y57.412
X116.744 Y57.565
X116.277 Y57.685
X115.789 Y57.77
X115.285 Y57.817
X114.772 Y57.823
X114.256 Y57.787
X113.744 Y57.71
X113.241 Y57.593
X112.757 Y57.438
X112.299 Y57.25
X111.872 Y57.033
X111.479 Y56.792
X111.134 Y56.54
X110.863 Y56.306
X110.647 Y56.087
X110.53 Y55.894
X110.476 Y55.675
X110.491 Y55.45
X110.573 Y55.239
X110.675 Y55.006
X110.727 Y54.839
X110.817 Y54.503
X110.887 Y54.195
G3 X111.124 Y53.966 I0.307 J0.08
G1 X111.551 Y53.868
X118.276 Y52.34
X118.96 Y52.185
X119.001 Y52.178
X119.043 Y52.177
X119.192 Y52.188
X119.202
X119.454 Y52.137
X119.602 Y52.115
X119.752 Y52.126
X119.896 Y52.165
X120.034 Y52.224
X120.163 Y52.302
X120.282 Y52.393
X120.391 Y52.496
X120.49 Y52.608
X120.58 Y52.73
X120.667 Y52.872
X120.746 Y53.023
X120.818 Y53.197
X120.881 Y53.39
X120.929 Y53.593
X120.964 Y53.816
X120.982 Y54.063
X120.98 Y54.319
X120.956 Y54.589
X120.907 Y54.878
X120.83 Y55.182
X120.725 Y55.492
X120.59 Y55.803
X120.418 Y56.125
X120.208 Y56.454
X119.958 Y56.783
X119.67 Y57.104
X119.35 Y57.409
X118.994 Y57.697
X118.596 Y57.969
X118.157 Y58.219
X117.681 Y58.443
X117.317 Y58.579
X117.167 Y58.618
X117.011 Y58.625
X116.858 Y58.599
X116.594 Y58.527
X116.438 Y58.485
X116.271 Y58.447
X116.103 Y58.417
X115.802 Y58.359
X115.265 Y58.229
X115.146 Y58.192
X115.098 Y58.175
X114.93 Y58.125
X114.763 Y58.078
X114.559 Y58.024
X114.428 Y57.991
X114.26 Y57.942
X114.093 Y57.876
X114.044 Y57.856
X113.59 Y57.687
X113.423 Y57.643
X113.255 Y57.608
X113.087 Y57.585
X112.92 Y57.557
X112.585 Y57.496
X112.417 Y57.463
X111.915 Y57.334
X111.327 Y57.186
X110.91 Y57.056
X110.79 Y57.018
X110.649 Y56.966
X110.513 Y56.903
X110.456 Y56.868
X110.278 Y56.718
X110.155 Y56.52
X110.099 Y56.293
X110.118 Y56.06
X110.207 Y55.844
G3 X110.746 Y55.861 I0.264 J0.176
G1 X110.817 Y55.983
X111.132 Y56.523
X111.149 Y56.552
G3 X110.875 Y57.029 I-0.274 J0.16
G1 X110.874
X110.832 Y57.027
X110.79 Y57.018
X110.575 Y56.953
X110.234 Y56.85
X110.153 Y56.825
X110.113 Y56.811
X110.072 Y56.79
X110.044 Y56.771
X110.016 Y56.748
X109.984 Y56.716
X109.96 Y56.683
X109.937 Y56.641
X109.922 Y56.599
X109.912 Y56.557
X109.909 Y56.515
X109.911 Y56.473
X109.919 Y56.431
X109.933 Y56.389
X109.954 Y56.347
X110.029 Y56.18
X110.072 Y56.075
X110.104 Y56.012
X110.414 Y55.509
X110.532 Y55.311
X110.573 Y55.239
X110.605 Y55.196
X110.645 Y55.159
X110.69 Y55.129
X110.739 Y55.107
X111.278 Y54.924
X118.71 Y52.389
X119.425 Y52.145
X119.454 Y52.137
X119.673 Y52.093
X119.684 Y52.09
X119.789 Y52.044
X119.911 Y51.989
X120.048 Y51.926
X120.239 Y51.937
X120.414 Y52.014
X120.549 Y52.15
X120.626 Y52.324
G3 X120.29 Y52.899 I-0.448 J0.123
X119.911 Y51.989 I-0.12 J-0.484
G1 X119.956 Y51.963
X120.124 Y51.865
X120.166 Y51.85
X120.207 Y51.842
X120.249 Y51.839
X120.291 Y51.842
X120.333 Y51.85
X120.375 Y51.865
X120.417 Y51.887
X120.459 Y51.915
X120.499 Y51.952
X120.528 Y51.989
X120.552 Y52.03
X120.569 Y52.072
X120.626 Y52.324
X120.679 Y52.491
X120.736 Y52.659
X120.794 Y52.801
X120.962 Y53.162
X121.053 Y53.33
X121.129 Y53.451
X121.162 Y53.497
X121.296 Y53.654
X121.397 Y53.785
X121.479 Y53.91
X121.547 Y54.044
X121.604 Y54.185
X121.651 Y54.338
X121.692 Y54.519
X121.719 Y54.711
X121.732 Y54.935
X121.728 Y55.166
X121.701 Y55.429
X121.649 Y55.712
X121.57 Y56.006
X121.455 Y56.331
X121.301 Y56.672
X121.116 Y57.009
X120.884 Y57.361
X120.604 Y57.72
X120.275 Y58.077
X119.898 Y58.426
X119.485 Y58.751
X119.159 Y58.967
X118.981 Y59.054
X118.787 Y59.09
X118.59 Y59.074
X118.281 Y59.006
X118.113 Y58.961
X117.946 Y58.908
X117.611 Y58.823
X117.443 Y58.779
X117.276 Y58.725
X116.941 Y58.622
X116.858 Y58.599
G3 X116.721 Y58.081 I0.096 J-0.303
G1 X116.821 Y57.973
X120.652 Y53.844
X120.83 Y53.653
G3 X121.296 Y53.654 I0.233 J0.216
G1 X121.305 Y53.665
X121.464 Y53.824
X121.631 Y53.976
X121.664 Y54.
X121.862 Y54.133
X121.982 Y54.223
X122.09 Y54.328
X122.183 Y54.445
X122.263 Y54.572
X122.33 Y54.707
X122.386 Y54.848
X122.439 Y55.017
X122.479 Y55.195
X122.509 Y55.408
X122.523 Y55.628
X122.518 Y55.884
X122.49 Y56.158
X122.437 Y56.448
X122.35 Y56.775
X122.23 Y57.111
X122.073 Y57.462
X121.865 Y57.841
X121.603 Y58.238
X121.301 Y58.625
X120.951 Y59.007
X120.683 Y59.255
X120.527 Y59.366
X120.347 Y59.434
X120.156 Y59.452
X119.967 Y59.422
X119.778 Y59.365
X119.621 Y59.321
X119.454 Y59.279
X119.118 Y59.198
X118.59 Y59.074
G3 X118.408 Y58.585 I0.079 J-0.308
G1 X118.507 Y58.442
X121.261 Y54.471
X121.433 Y54.222
G3 X121.862 Y54.133 I0.261 J0.181
G1 X121.967 Y54.204
X122.05 Y54.256
X122.124 Y54.294
X122.394 Y54.377
X122.535 Y54.429
X122.665 Y54.503
X122.783 Y54.595
X122.889 Y54.702
X122.982 Y54.819
X123.065 Y54.944
X123.142 Y55.087
X123.21 Y55.24
X123.273 Y55.422
X123.324 Y55.616
X123.364 Y55.84
X123.387 Y56.088
X123.391 Y56.351
X123.371 Y56.651
X123.325 Y56.966
X123.247 Y57.304
X123.128 Y57.681
X122.967 Y58.075
X122.768 Y58.469
X122.512 Y58.889
X122.25 Y59.25
X122.031 Y59.504
X121.969 Y59.566
X121.817 Y59.682
X121.641 Y59.756
X121.451 Y59.781
X121.262 Y59.758
G3 X121.04 Y59.391 I0.09 J-0.304
G1 X121.103 Y59.082
X121.947 Y54.882
X122. Y54.621
G3 X122.394 Y54.377 I0.311 J0.063
G1 X122.616 Y54.446
X122.626 Y54.448
X122.972 Y54.476
X123.12 Y54.496
X123.263 Y54.543
X123.397 Y54.611
X123.521 Y54.695
X123.569 Y54.737
X123.646 Y54.815
X123.709 Y54.906
X123.754 Y55.006
G3 X123.286 Y55.393 I-0.293 J0.122
G1 X122.781 Y55.058
G3 X122.972 Y54.476 I0.175 J-0.265
G1 X123.118 Y54.488
X123.307 Y54.465
X123.349 Y54.464
X123.391 Y54.467
X123.432 Y54.477
X123.474 Y54.493
X123.495 Y54.503
X123.543 Y54.536
X123.591 Y54.58
X123.62 Y54.619
X123.642 Y54.657
X123.648 Y54.671
X123.695 Y54.839
X123.754 Y55.006
X123.909 Y55.342
X123.977 Y55.479
X123.996 Y55.509
X124.071 Y55.639
X124.143 Y55.827
X124.202 Y56.026
X124.252 Y56.262
X124.284 Y56.51
X124.298 Y56.795
X124.288 Y57.113
X124.251 Y57.44
X124.179 Y57.808
X124.066 Y58.212
X123.917 Y58.614
X123.727 Y59.026
X123.534 Y59.367
X123.353 Y59.634
X123.202 Y59.823
X123.114 Y59.917
X122.949 Y60.048
X122.754 Y60.128
X122.544 Y60.149
X122.336 Y60.11
G3 X122.146 Y59.719 I0.112 J-0.297
G1 X122.237 Y59.427
X123.409 Y55.667
X123.432 Y55.595
G3 X123.996 Y55.509 I0.303 J0.095
G1 X124.318 Y56.012
X124.341 Y56.054
X124.523 Y56.515
X124.55 Y56.599
X124.573 Y56.683
X124.582 Y56.85
X124.591 Y57.186
X124.594 Y57.353
X124.598 Y58.024
X124.601 Y58.359
X124.609 Y58.451
X124.618 Y58.641
X124.612 Y58.824
X124.587 Y59.034
X124.544 Y59.251
X124.482 Y59.47
X124.41 Y59.665
X124.317 Y59.863
X124.225 Y60.026
X124.185 Y60.085
X124.029 Y60.251
X123.831 Y60.362
X123.608 Y60.408
X123.382 Y60.384
G3 X123.192 Y59.934 I0.092 J-0.304
G1 X123.297 Y59.731
X124.013 Y58.347
G3 X124.609 Y58.451 I0.282 J0.146
G1 X124.617 Y58.527
X124.657 Y58.862
X124.688 Y59.03
X124.762 Y59.365
X124.793 Y59.533
X124.815 Y59.746
X124.822 Y59.896
X124.778 Y60.104
X124.675 Y60.289
X124.522 Y60.436
X124.332 Y60.531
X124.123 Y60.566
X123.912 Y60.537
G3 X123.798 Y60.002 I0.1 J-0.301
G1 X123.89 Y59.917
X124.216 Y59.619
X124.286 Y59.555
G3 X124.815 Y59.746 I0.214 J0.234
G1 X124.844 Y60.036
X124.882 Y60.203
X124.894 Y60.25
X124.904 Y60.287
X124.912 Y60.329
X124.913 Y60.358
X124.912 Y60.39
X124.909 Y60.423
X124.903 Y60.455
X124.878 Y60.502
X124.841 Y60.54
X124.796 Y60.569
X124.745 Y60.585
X124.692 Y60.588
G3 X124.722 Y60.167 I0.015 J-0.211
X124.912 Y60.329 I-0.015 J0.211
G1 X124.915 Y60.371
X124.912 Y60.413
X124.903 Y60.455
X124.889 Y60.497
X124.866 Y60.539
X124.843 Y60.573
X124.815 Y60.608
X124.794 Y60.628
X124.773 Y60.644
X124.731 Y60.67
X124.689 Y60.688
X124.647 Y60.699
X124.605 Y60.704
X124.563
X124.479 Y60.688
X124.312 Y60.651
X124.144 Y60.605
X123.474 Y60.408
X123.307 Y60.365
X123.139 Y60.323
X122.972 Y60.284
X122.804 Y60.248
X122.616 Y60.203
X122.469 Y60.155
X122.114 Y60.036
X121.967 Y59.986
X121.799 Y59.927
X121.631 Y59.864
X121.464 Y59.811
X120.961 Y59.68
X120.794 Y59.637
X120.291 Y59.516
X120.124 Y59.469
X119.967 Y59.422
G3 X119.962 Y58.822 I0.102 J-0.301
G1 X120.028 Y58.798 Z1.212
X120.092 Y58.776 Z1.235
X120.148 Y58.755 Z1.273
X120.196 Y58.738 Z1.323
X120.231 Y58.726 Z1.384
X120.254 Y58.718 Z1.451
X120.261 Y58.715 Z1.521
G0 Z10.2
X129.819 Y77.91
Z1.839
G1 Z1.521 F1016.
X129.813 Y77.906 Z1.451
X129.793 Y77.894 Z1.384
X129.76 Y77.874 Z1.323
X129.718 Y77.848 Z1.273
X129.666 Y77.816 Z1.235
X129.609 Y77.781 Z1.212
X129.549 Y77.744 Z1.204
G3 X129.003 Y77.18 I0.829 J-1.348
G1 X128.891 Y76.968
X128.615 Y76.466
X128.5 Y76.292
X128.357 Y76.13
X128.165 Y75.94
X128.059 Y75.835
X127.963 Y75.719
X127.858 Y75.571
X127.745 Y75.379
X127.631 Y75.145
X127.51 Y74.838
X127.387 Y74.428
X127.26 Y73.842
X127.197 Y73.365
X127.181 Y73.058
X127.189 Y72.783
X127.196 Y72.722
X127.241 Y72.536
X127.332 Y72.368
X127.464 Y72.229
X127.626 Y72.128
X127.809 Y72.072
G3 X128.165 Y72.338 I0.042 J0.315
G1 X128.21 Y72.629
X128.673 Y75.619
X128.677 Y75.643
G3 X128.165 Y75.94 I-0.314 J0.049
G1 X127.995 Y75.795
X127.663 Y75.522
X127.495 Y75.385
X127.341 Y75.292
X127.327 Y75.285
X127.199 Y75.208
X127.081 Y75.115
X126.967 Y75.008
X126.859 Y74.888
X126.738 Y74.731
X126.623 Y74.553
X126.509 Y74.342
X126.411 Y74.117
X126.328 Y73.878
X126.272 Y73.663
X126.235 Y73.446
X126.218 Y73.264
X126.215 Y73.071
X126.227 Y72.901
X126.251 Y72.741
X126.254 Y72.728
X126.326 Y72.541
X126.447 Y72.381
X126.606 Y72.26
X126.793 Y72.187
X126.992 Y72.169
X127.16 Y72.153
X127.327 Y72.135
X127.495 Y72.121
X127.605 Y72.107
X128.04 Y72.033
X128.237 Y71.961
X128.296 Y71.939
X128.5 Y71.833
X128.599 Y71.771
X128.653 Y71.734
G3 X129.111 Y72.134 I0.169 J0.269
G1 X127.871 Y74.878
X127.756 Y75.13
G3 X127.327 Y75.285 I-0.289 J-0.131
G1 X126.992 Y75.106
X126.825 Y75.029
X126.657 Y74.971
X126.541 Y74.941
X126.513 Y74.934
X126.49 Y74.928
X126.376 Y74.89
G3 X126.562 Y74.433 I0.116 J-0.219
G1 X126.588 Y74.441
X126.613 Y74.448
G3 X126.49 Y74.928 I-0.071 J0.238
G1 X126.406 Y74.905
X126.364 Y74.885
X126.322 Y74.856
X126.287 Y74.822
X126.261 Y74.789
X126.155 Y74.58
X125.987 Y74.248
X125.918 Y74.118
X125.718 Y73.783
X125.629 Y73.614
X125.569 Y73.476
X125.524 Y73.333
X125.492 Y73.186
X125.475 Y73.037
X125.472 Y72.887
X125.483 Y72.738
X125.487 Y72.717
X125.564 Y72.497
X125.705 Y72.311
X125.896 Y72.179
X126.12 Y72.112
X126.353 Y72.119
G3 X126.591 Y72.506 I-0.069 J0.31
G1 X126.523 Y72.776
X126.305 Y73.643
X126.293 Y73.689
G3 X125.718 Y73.783 I-0.308 J-0.078
G1 X125.618 Y73.615
X125.205 Y73.02
X125.125 Y72.893
X125.086 Y72.686
X125.114 Y72.478
X125.205 Y72.288
X125.352 Y72.137
X125.538 Y72.04
X125.746 Y72.006
G3 X126.251 Y72.292 I-0.02 J0.623
X125.205 Y73.02 I-0.537 J0.345
G1 X125.15 Y72.942
X125.037 Y72.777
X124.924 Y72.61
X124.907 Y72.584
X124.886 Y72.552
X124.81 Y72.427
X124.824 Y72.401
G3 X125.226 Y72.257 I0.28 J0.149
G1 X125.492 Y72.367
X125.748 Y72.473
G3 X125.916 Y72.895 I-0.122 J0.293
X125.49 Y73.054 I-0.29 J-0.129
X124.886 Y72.552 I0.677 J-1.43
G1 X124.868 Y72.526
X124.838 Y72.484
X124.815 Y72.439
X124.8 Y72.398
X124.792 Y72.357
X124.789 Y72.316
X124.792 Y72.274
X124.8 Y72.233
X124.815 Y72.192
X124.836 Y72.149
X124.868 Y72.107
X124.896 Y72.078
X124.925 Y72.055
X124.982 Y72.022
X125.024 Y72.004
X125.066 Y71.993
X125.108 Y71.988
X125.15
X125.317 Y71.999
X125.485 Y72.003
X125.652 Y72.006
X125.82
X125.903 Y72.009
X125.987 Y72.03
X126.155 Y72.074
X126.289 Y72.107
X126.49 Y72.144
X126.657 Y72.153
X126.992 Y72.169
G3 X127.143 Y72.749 I-0.025 J0.316
G1 X127.084 Y72.788 Z1.212
X127.029 Y72.826 Z1.235
X126.978 Y72.859 Z1.273
X126.937 Y72.887 Z1.323
X126.905 Y72.908 Z1.384
X126.886 Y72.921 Z1.451
X126.879 Y72.925 Z1.521
G0 Z10.2
X103.145 Y81.825
Z1.839
G1 Z1.521 F1016.
X103.149 Y81.818 Z1.451
X103.161 Y81.798 Z1.384
X103.181 Y81.766 Z1.323
X103.207 Y81.723 Z1.273
X103.239 Y81.671 Z1.235
X103.274 Y81.614 Z1.212
X103.31 Y81.554 Z1.204
G3 X103.873 Y81.006 I1.351 J0.825
G1 X103.9 Y80.992
X103.953 Y80.954
X104.361 Y80.518
X104.376 Y80.498
X104.396 Y80.461
X104.474 Y80.333
X104.57 Y80.218
X104.677 Y80.113
X104.812 Y80.002
X104.96 Y79.899
X105.12 Y79.805
X105.277 Y79.73
X105.421 Y79.674
X105.583 Y79.627
X105.617 Y79.619
X105.837 Y79.607
X106.051 Y79.659
X106.239 Y79.772
X106.387 Y79.935
X106.48 Y80.135
G3 X106.252 Y80.521 I-0.307 J0.079
G1 X105.974 Y80.593
X104.82 Y80.893
X104.761 Y80.909
G3 X104.396 Y80.461 I-0.08 J-0.307
G1 X104.471 Y80.322
X104.584 Y80.059
X104.587 Y80.049
X104.614 Y79.894
X104.647 Y79.748
X104.699 Y79.607
X104.772 Y79.476
X104.862 Y79.356
X104.967 Y79.249
X105.084 Y79.155
X105.212 Y79.076
X105.348 Y79.013
X105.49 Y78.966
X105.514 Y78.961
X105.723 Y78.95
X105.927 Y78.999
X106.108 Y79.104
X106.252 Y79.257
X106.346 Y79.444
X106.383 Y79.651
X106.399 Y79.819
X106.436 Y79.986
X106.48 Y80.135
G3 X106.104 Y80.524 I-0.307 J0.079
G1 X105.97 Y80.494
X105.164 Y80.315
X104.86 Y80.248
G3 X104.614 Y79.894 I0.069 J-0.31
G1 X104.669 Y79.578
Y79.567
X104.65 Y79.35
X104.644 Y79.2
X104.669 Y79.052
X104.721 Y78.911
X104.796 Y78.781
X104.89 Y78.664
X104.999 Y78.561
X105.121 Y78.475
X105.254 Y78.405
X105.394 Y78.352
X105.54 Y78.318
X105.589 Y78.313
X105.813 Y78.321
X106.025 Y78.397
X106.204 Y78.532
X106.334 Y78.715
X106.404 Y78.928
X106.407 Y79.152
X106.384 Y79.316
X106.378 Y79.483
X106.383 Y79.651
G3 X105.972 Y79.953 I-0.317 J-0.001
G1 X105.787 Y79.896
X105.274 Y79.738
X104.871 Y79.613
G3 X104.65 Y79.35 I0.094 J-0.303
G1 X104.628 Y79.106
X104.625 Y79.096
X104.561 Y78.925
X104.515 Y78.782
X104.506 Y78.632
X104.528 Y78.484
X104.576 Y78.342
X104.645 Y78.208
X104.731 Y78.085
X104.832 Y77.975
X104.947 Y77.879
X105.072 Y77.796
X105.207 Y77.729
X105.348 Y77.678
X105.494 Y77.643
X105.643 Y77.625
X105.793 Y77.623
X105.942 Y77.638
X106.088 Y77.669
X106.1 Y77.673
X106.281 Y77.761
X106.431 Y77.894
X106.541 Y78.062
X106.601 Y78.254
X106.607 Y78.455
X106.559 Y78.65
X106.495 Y78.813
X106.445 Y78.98
X106.407 Y79.152
G3 X106.021 Y79.406 I-0.313 J-0.055
G1 X105.76 Y79.344
X105.253 Y79.224
X104.78 Y79.112
G3 X104.561 Y78.925 I0.073 J-0.309
G1 X104.45 Y78.631
X104.442 Y78.617
X104.396 Y78.559
X104.309 Y78.436
X104.262 Y78.294
X104.247 Y78.145
X104.258 Y77.995
X104.292 Y77.849
X104.346 Y77.709
X104.417 Y77.577
X104.502 Y77.454
X104.6 Y77.34
X104.71 Y77.237
X104.828 Y77.146
X104.955 Y77.066
X105.088 Y76.997
X105.227 Y76.94
X105.37 Y76.895
X105.517 Y76.864
X105.666 Y76.845
X105.816 Y76.84
X105.966 Y76.85
X106.114 Y76.872
X106.26 Y76.908
X106.401 Y76.959
X106.537 Y77.022
X106.666 Y77.098
X106.675 Y77.104
X106.839 Y77.269
X106.943 Y77.476
X106.979 Y77.706
X106.941 Y77.935
X106.835 Y78.141
X106.721 Y78.32
X106.636 Y78.477
X106.559 Y78.65
G3 X106.235 Y78.839 I-0.291 J-0.127
G1 X105.853 Y78.799
X105.145 Y78.725
X104.605 Y78.669
X104.546 Y78.657
X104.49 Y78.634
X104.439 Y78.601
X104.396 Y78.559
X104.067 Y78.142
X103.974 Y78.024
X103.917 Y77.886
X103.887 Y77.739
X103.88 Y77.589
X103.893 Y77.439
X103.924 Y77.293
X103.972 Y77.151
X104.034 Y77.014
X104.109 Y76.884
X104.195 Y76.761
X104.291 Y76.646
X104.399 Y76.538
X104.52 Y76.433
X104.653 Y76.336
X104.793 Y76.25
X104.945 Y76.173
X105.109 Y76.106
X105.28 Y76.051
X105.453 Y76.011
X105.632 Y75.984
X105.817 Y75.972
X106.005 Y75.974
X106.173 Y75.99
X106.33 Y76.017
X106.5 Y76.061
X106.645 Y76.112
X106.783 Y76.172
X106.922 Y76.248
X107.047 Y76.331
X107.165 Y76.423
X107.275 Y76.526
X107.375 Y76.637
X107.401 Y76.673
X107.511 Y76.877
X107.551 Y77.105
X107.519 Y77.335
X107.418 Y77.543
X107.258 Y77.71
X107.224 Y77.736
X107.136 Y77.807
X107.056 Y77.883
X106.967 Y77.974
X106.889 Y78.068
X106.835 Y78.141
G3 X106.58 Y78.262 I-0.249 J-0.197
G1 X106.087 Y78.253
X104.833 Y78.232
X104.272 Y78.222
X104.216 Y78.216
X104.162 Y78.2
X104.112 Y78.175
X104.067 Y78.142
X104.054 Y78.13
X103.989 Y78.075
X103.978 Y78.067
X103.781 Y77.956
X103.654 Y77.876
X103.554 Y77.764
X103.477 Y77.635
X103.422 Y77.496
X103.388 Y77.35
X103.372 Y77.201
Y77.051
X103.388 Y76.902
X103.418 Y76.755
X103.46 Y76.611
X103.516 Y76.469
X103.586 Y76.323
X103.673 Y76.175
X103.775 Y76.031
X103.891 Y75.89
X104.026 Y75.752
X104.178 Y75.619
X104.346 Y75.495
X104.528 Y75.381
X104.722 Y75.281
X104.93 Y75.194
X105.147 Y75.123
X105.371 Y75.069
X105.602 Y75.033
X105.834 Y75.015
X106.065 Y75.016
X106.295 Y75.036
X106.523 Y75.074
X106.743 Y75.129
X106.956 Y75.202
X107.161 Y75.29
X107.332 Y75.381
X107.502 Y75.489
X107.653 Y75.603
X107.773 Y75.71
X107.889 Y75.832
X107.996 Y75.964
X108.081 Y76.087
X108.156 Y76.217
X108.223 Y76.362
X108.25 Y76.435
X108.295 Y76.652
X108.274 Y76.874
X108.188 Y77.079
X108.044 Y77.249
X107.857 Y77.369
X107.727 Y77.427
X107.634 Y77.471
X107.391 Y77.612
X107.352 Y77.639
X107.258 Y77.71
X107.208 Y77.739
X107.154 Y77.758
X107.098 Y77.767
X106.486 Y77.811
X104.559 Y77.948
X103.949 Y77.991
X103.891 Y77.99
X103.834 Y77.978
X103.781 Y77.956
X103.497 Y77.797
X103.479 Y77.79
X103.403 Y77.771
X103.26 Y77.728
X103.134 Y77.646
X103.027 Y77.54
X102.939 Y77.419
X102.869 Y77.286
X102.815 Y77.146
X102.777 Y77.001
X102.754 Y76.853
X102.744 Y76.703
X102.747 Y76.553
X102.763 Y76.392
X102.794 Y76.227
X102.839 Y76.057
X102.903 Y75.878
X102.986 Y75.694
X103.085 Y75.513
X103.205 Y75.332
X103.347 Y75.151
X103.51 Y74.974
X103.694 Y74.804
X103.896 Y74.645
X104.115 Y74.5
X104.354 Y74.368
X104.61 Y74.252
X104.88 Y74.155
X105.162 Y74.079
X105.453 Y74.025
X105.75 Y73.994
X106.05 Y73.987
X106.351 Y74.005
X106.645 Y74.045
X106.933 Y74.109
X107.21 Y74.194
X107.471 Y74.298
X107.718 Y74.42
X107.95 Y74.559
X108.162 Y74.71
X108.356 Y74.874
X108.526 Y75.043
X108.665 Y75.205
X108.796 Y75.384
X108.891 Y75.539
X108.919 Y75.593
X108.98 Y75.765
X108.998 Y75.947
X108.971 Y76.128
X108.9 Y76.297
X108.823 Y76.466
X108.681 Y76.801
X108.613 Y76.968
X108.593 Y77.012
X108.564 Y77.056
X108.544 Y77.079
X108.519 Y77.103
X108.475 Y77.136
X108.397 Y77.186
X108.313 Y77.233
X108.271 Y77.248
X108.229 Y77.257
X108.052 Y77.304
X107.894 Y77.353
X107.857 Y77.369
X107.813 Y77.383
X107.767 Y77.391
X107.077 Y77.453
X104.185 Y77.715
X103.498 Y77.777
X103.45
X103.403 Y77.771
X103.036 Y77.68
X102.868 Y77.644
X102.723 Y77.608
X102.59 Y77.538
X102.471 Y77.447
X102.366 Y77.339
X102.276 Y77.22
X102.2 Y77.09
X102.137 Y76.954
X102.088 Y76.812
X102.05 Y76.666
X102.022 Y76.505
X102.007 Y76.337
X102.005 Y76.156
X102.019 Y75.96
X102.05 Y75.759
X102.098 Y75.552
X102.169 Y75.333
X102.263 Y75.106
X102.377 Y74.881
X102.515 Y74.658
X102.679 Y74.434
X102.87 Y74.213
X103.088 Y73.999
X103.331 Y73.796
X103.595 Y73.609
X103.88 Y73.439
X104.187 Y73.288
X104.515 Y73.159
X104.86 Y73.054
X105.218 Y72.976
X105.585 Y72.926
X105.958 Y72.906
X106.332 Y72.916
X106.703 Y72.955
X107.067 Y73.024
X107.421 Y73.121
X107.762 Y73.245
X108.087 Y73.393
X108.393 Y73.563
X108.674 Y73.751
X108.93 Y73.953
X109.135 Y74.144
X109.252 Y74.271
X109.377 Y74.458
X109.44 Y74.673
X109.436 Y74.897
X109.397 Y75.124
X109.381 Y75.208
X109.352 Y75.292
X109.165 Y75.795
X109.067 Y75.994
X108.996 Y76.13
X108.9 Y76.297
G3 X108.696 Y76.448 I-0.275 J-0.158
G1 X108.185 Y76.562
X103.687 Y77.564
X103.65 Y77.575
G3 X102.868 Y77.644 I-0.527 J-1.492
G1 X102.701 Y77.611
X102.617 Y77.592
X102.575 Y77.575
X102.533 Y77.551
X102.366 Y77.462
X102.031 Y77.329
X101.894 Y77.267
X101.771 Y77.181
X101.662 Y77.078
X101.566 Y76.963
X101.482 Y76.839
X101.411 Y76.706
X101.351 Y76.569
X101.3 Y76.418
X101.257 Y76.247
X101.227 Y76.067
X101.21 Y75.87
X101.209 Y75.653
X101.225 Y75.43
X101.262 Y75.196
X101.322 Y74.944
X101.408 Y74.682
X101.517 Y74.422
X101.654 Y74.155
X101.824 Y73.882
X102.026 Y73.61
X102.258 Y73.343
X102.518 Y73.089
X102.623 Y73.002
X102.689 Y72.953
X102.76 Y72.912
X102.835 Y72.879
X102.868 Y72.867
X103.036 Y72.792
X103.413 Y72.61
X103.538 Y72.567
X104.041 Y72.383
X104.376 Y72.238
X104.853 Y72.059
X105.168 Y71.969
X105.517 Y71.899
X105.889 Y71.855
X106.271 Y71.84
X106.668 Y71.857
X107.077 Y71.908
X107.489 Y71.993
X107.898 Y72.112
X108.296 Y72.264
X108.678 Y72.446
X109.024 Y72.646
X109.285 Y72.827
X109.362 Y72.89
X109.496 Y73.033
X109.588 Y73.206
X109.631 Y73.396
X109.623 Y73.592
X109.619 Y73.615
X109.569 Y73.951
X109.546 Y74.118
X109.506 Y74.454
X109.483 Y74.621
X109.436 Y74.897
G3 X108.983 Y75.116 I-0.311 J-0.065
G1 X108.8 Y75.025
X104.438 Y72.843
X104.37 Y72.809
G3 X104.376 Y72.238 I0.142 J-0.284
G1 X104.711 Y72.092
X104.879 Y72.014
X105.046 Y71.933
X105.214 Y71.854
X105.549 Y71.706
X105.716 Y71.629
X105.884 Y71.534
X106.07 Y71.436
X106.219 Y71.36
X106.386 Y71.284
X106.574 Y71.214
X106.748 Y71.165
X106.954 Y71.124
X107.174 Y71.098
X107.433 Y71.089
X107.71 Y71.101
X108.014 Y71.14
X108.349 Y71.21
X108.688 Y71.309
X108.984 Y71.422
X109.241 Y71.546
X109.439 Y71.661
X109.572 Y71.753
X109.736 Y71.909
X109.845 Y72.108
X109.889 Y72.331
X109.864 Y72.556
G3 X109.471 Y72.766 I-0.303 J-0.094
G1 X109.192 Y72.684
X106.461 Y71.88
X106.437 Y71.873
G3 X106.386 Y71.284 I0.09 J-0.305
G1 X106.812 Y71.101
X107.224 Y70.878
X107.391 Y70.785
X107.559 Y70.682
X107.687 Y70.604
X107.827 Y70.55
X107.971 Y70.509
X108.141 Y70.476
X108.319 Y70.455
X108.519 Y70.448
X108.733 Y70.458
X108.949 Y70.485
X109.145 Y70.526
X109.351 Y70.586
X109.524 Y70.653
X109.672 Y70.724
X109.76 Y70.775
X109.938 Y70.921
X110.064 Y71.115
X110.123 Y71.337
X110.112 Y71.568
G3 X109.721 Y71.798 I-0.308 J-0.076
G1 X109.45 Y71.725
X107.735 Y71.263
X107.665 Y71.244
G3 X107.559 Y70.682 I0.083 J-0.307
G1 X107.682 Y70.598
X107.894 Y70.443
X107.912 Y70.43
X108.229 Y70.196
X108.365 Y70.095
X108.489 Y70.011
X108.624 Y69.946
X108.766 Y69.896
X108.911 Y69.861
X109.06 Y69.838
X109.209 Y69.829
X109.359 Y69.833
X109.509 Y69.849
X109.656 Y69.878
X109.8 Y69.92
X109.843 Y69.937
X110.026 Y70.042
X110.172 Y70.195
X110.269 Y70.383
X110.309 Y70.59
X110.289 Y70.8
G3 X109.903 Y71.022 I-0.306 J-0.086
G1 X109.621 Y70.948
X108.563 Y70.671
X108.482 Y70.65
G3 X108.365 Y70.095 I0.08 J-0.307
G1 X108.397 Y70.071
X108.564 Y69.962
X108.732 Y69.859
X108.899 Y69.735
X109.065 Y69.592
X109.179 Y69.494
X109.309 Y69.418
X109.449 Y69.365
X109.595 Y69.332
X109.745 Y69.32
X109.953 Y69.363
X110.14 Y69.462
X110.291 Y69.611
X110.394 Y69.796
X110.44 Y70.003
X110.426 Y70.214
G3 X110.002 Y70.433 I-0.308 J-0.077
G1 X109.774 Y70.343
X109.327 Y70.167
X109.177 Y70.108
G3 X109.065 Y69.592 I0.116 J-0.295
G1 X109.24 Y69.424
X109.403 Y69.257
X109.489 Y69.164
X109.597 Y69.06
X109.786 Y68.989
X109.989 Y68.981
X110.183 Y69.04
X110.349 Y69.157
X110.468 Y69.32
X110.529 Y69.514
X110.524 Y69.717
G3 X110.38 Y69.984 I-0.546 J-0.122
X109.489 Y69.164 I-0.435 J-0.421
G1 X109.559 Y69.089
X109.779 Y68.877
X109.821 Y68.846
X109.863 Y68.825
X109.904 Y68.81
X109.946 Y68.802
X109.988 Y68.8
X110.03 Y68.803
X110.072 Y68.811
X110.114 Y68.824
X110.156 Y68.843
X110.283 Y68.921
X110.407 Y68.99
X110.435 Y69.007
X110.464 Y69.03
X110.494 Y69.059
X110.52 Y69.089
X110.539 Y69.115
X110.554 Y69.142
X110.565 Y69.168
X110.575 Y69.194
X110.582 Y69.225
X110.586 Y69.257
X110.588 Y69.293
X110.585 Y69.33
X110.547 Y69.592
X110.484 Y69.927
X110.452 Y70.095
X110.416 Y70.262
X110.298 Y70.765
X110.176 Y71.268
X110.139 Y71.436
X110.069 Y71.771
X110.029 Y71.939
X109.895 Y72.442
X109.758 Y72.945
X109.737 Y73.036
X109.648 Y73.448
X109.623 Y73.592
G3 X109.452 Y73.811 I-0.311 J-0.066
G1 X109.005 Y74.03
X102.755 Y77.081
X102.276 Y77.315
X102.217 Y77.337
X102.155 Y77.347
X102.092 Y77.344
X102.031 Y77.329
X101.853 Y77.259
X101.842 Y77.256
X101.444 Y77.182
X101.298 Y77.148
X101.162 Y77.084
X101.037 Y77.002
X100.923 Y76.904
X100.82 Y76.795
X100.729 Y76.676
X100.648 Y76.549
X100.575 Y76.41
X100.505 Y76.247
X100.447 Y76.075
X100.398 Y75.881
X100.362 Y75.664
X100.343 Y75.44
Y75.193
X100.363 Y74.925
X100.407 Y74.65
X100.476 Y74.363
X100.577 Y74.057
X100.609 Y73.981
X100.713 Y73.805
X100.862 Y73.665
X101.043 Y73.57
X101.193 Y73.517
X101.367 Y73.448
X101.863 Y73.234
X102.031 Y73.161
X102.366 Y73.055
X102.533 Y72.993
X102.835 Y72.879
G3 X103.232 Y73.296 I0.102 J0.301
G1 X103.209 Y73.356
X101.917 Y76.651
X101.787 Y76.984
G3 X101.444 Y77.182 I-0.296 J-0.116
G1 X101.36 Y77.167
X100.942 Y77.199
X100.792 Y77.203
X100.644 Y77.174
X100.504 Y77.122
X100.37 Y77.053
X100.246 Y76.969
X100.131 Y76.873
X100.025 Y76.767
X99.924 Y76.647
X99.828 Y76.513
X99.732 Y76.354
X99.647 Y76.182
X99.57 Y75.987
X99.502 Y75.767
X99.45 Y75.535
X99.415 Y75.281
X99.398 Y74.998
X99.404 Y74.744
X99.416 Y74.633
X99.465 Y74.434
X99.566 Y74.256
X99.713 Y74.112
X99.893 Y74.015
X100.064 Y73.951
X100.188 Y73.903
X100.523 Y73.765
X100.69 Y73.697
X101.043 Y73.57
G3 X101.456 Y73.898 I0.096 J0.303
G1 X101.443 Y74.062
X101.25 Y76.562
X101.223 Y76.908
G3 X100.942 Y77.199 I-0.317 J-0.024
G1 X100.879 Y77.204
X100.477 Y77.328
X100.331 Y77.365
X100.182 Y77.374
X100.032 Y77.358
X99.887 Y77.322
X99.746 Y77.27
X99.612 Y77.203
X99.485 Y77.124
X99.363 Y77.032
X99.241 Y76.925
X99.115 Y76.794
X98.997 Y76.65
X98.881 Y76.483
X98.768 Y76.288
X98.668 Y76.079
X98.581 Y75.85
X98.519 Y75.639
X98.473 Y75.417
X98.449 Y75.227
X98.441 Y75.052
X98.461 Y74.848
X98.535 Y74.657
X98.659 Y74.494
X98.823 Y74.371
X99.015 Y74.297
X99.063 Y74.286
X99.183 Y74.255
X99.518 Y74.15
X99.616 Y74.118
X99.893 Y74.015
G3 X100.308 Y74.272 I0.101 J0.301
G1 X100.34 Y74.498
X100.639 Y76.639
X100.687 Y76.984
G3 X100.477 Y77.328 I-0.314 J0.044
G1 X100.397 Y77.353
X100.02 Y77.591
X99.956 Y77.639
X99.853 Y77.745
X99.518 Y78.106
X99.505 Y78.124
X99.391 Y78.31
X99.234 Y78.593
X99.229 Y78.603
X99.072 Y79.096
X99.031 Y79.567
Y79.578
X99.112 Y80.039
X99.114 Y80.049
X99.35 Y80.537
X99.382 Y80.582
X99.392 Y80.594
G3 X99.163 Y81.102 I-0.253 J0.192
G1 X99.058 Y81.11
X93.254 Y81.553
G3 X93.027 Y80.992 I-0.024 J-0.317
G1 X93.348 Y80.743
X93.364 Y80.727
X93.538 Y80.525
X93.557 Y80.489
X93.632 Y80.359
X93.725 Y80.241
X93.829 Y80.133
X93.944 Y80.033
X94.093 Y79.922
X94.286 Y79.801
X94.513 Y79.683
X94.811 Y79.558
X95.197 Y79.431
X95.733 Y79.301
X96.462 Y79.186
X96.789 Y79.016
X96.937 Y78.905
X97.168 Y78.617
X97.407 Y77.919
X97.402 Y77.182
X97.317 Y76.449
X97.271 Y75.955
X97.268 Y75.646
X97.287 Y75.376
X97.308 Y75.233
X97.359 Y75.053
X97.454 Y74.892
X97.585 Y74.759
X97.675 Y74.689
X97.799 Y74.621
X97.842 Y74.603
X98.01 Y74.545
X98.512 Y74.413
X99.015 Y74.297
G0 Z10.2
X93.432 Y81.578
Z1.839
G1 Z1.521 F1016.
Y81.57 Z1.451
X93.43 Y81.546 Z1.384
X93.428 Y81.509 Z1.323
X93.425 Y81.459 Z1.273
X93.421 Y81.398 Z1.235
X93.417 Y81.331 Z1.212
X93.412 Y81.261 Z1.204
G3 X93.557 Y80.489 I1.579 J-0.102
G1 X93.793 Y80.028
X93.805 Y79.986
X93.822 Y79.926
X93.837 Y79.819
X93.866 Y79.671
X93.923 Y79.532
X93.996 Y79.402
X94.082 Y79.279
X94.179 Y79.163
X94.308 Y79.033
X94.463 Y78.899
X94.645 Y78.766
X94.96 Y78.574
X95.215 Y78.308
X95.603 Y77.68
X95.79 Y76.966
X95.894 Y76.236
X95.966 Y75.779
X95.981 Y75.717
X96.068 Y75.506
X96.215 Y75.332
X96.408 Y75.21
X96.629 Y75.153
X96.837 Y75.133
X96.85 Y75.13
X97.278 Y74.957
X97.34 Y74.931
X97.507 Y74.819
X97.585 Y74.759
G3 X98.026 Y75.206 I0.186 J0.257
G1 X94.407 Y80.043
G3 X93.837 Y79.819 I-0.254 J-0.19
G1 X93.872 Y79.578
X93.866 Y79.483
X93.849 Y79.223
X93.847 Y79.073
X93.863 Y78.924
X94.044 Y78.209
X94.277 Y77.509
X94.451 Y76.792
X94.576 Y76.232
X94.667 Y75.934
X94.776 Y75.662
X94.779 Y75.656
X94.91 Y75.47
X95.093 Y75.332
X95.308 Y75.256
G3 X95.657 Y75.669 I0.047 J0.314
G1 X95.613 Y75.801
X94.467 Y79.29
G3 X93.849 Y79.223 I-0.302 J-0.099
G1 X93.844 Y79.148
X93.825 Y78.98
X93.822 Y78.956
X93.717 Y78.61
X93.708 Y78.592
X93.697 Y78.574
X93.626 Y78.443
X93.567 Y78.304
X93.511 Y78.129
X93.458 Y77.909
X93.412 Y77.61
X93.386 Y77.25
X93.389 Y76.881
X93.422 Y76.511
X93.468 Y76.239
X93.497 Y76.127
X93.579 Y75.929
X93.713 Y75.764
X93.89 Y75.643
G3 X94.337 Y75.941 I0.129 J0.29
G1 X94.333 Y76.087
X94.28 Y78.407
G3 X93.697 Y78.574 I-0.317 J-0.007
G1 X93.434 Y78.142
X93.384 Y78.072
X93.319 Y78.001
X93.151 Y77.853
X93.044 Y77.748
X92.949 Y77.632
X92.866 Y77.507
X92.795 Y77.375
X92.73 Y77.224
X92.676 Y77.066
X92.638 Y76.914
X92.635 Y76.9
X92.63 Y76.695
X92.68 Y76.497
X92.783 Y76.319
X92.931 Y76.177
G3 X93.419 Y76.375 I0.177 J0.263
G1 X93.453 Y76.536
X93.664 Y77.541
Y77.542
G3 X93.151 Y77.853 I-0.311 J0.065
G1 X92.911 Y77.639
X92.864 Y77.602
X92.588 Y77.471
X92.456 Y77.401
X92.338 Y77.268
X92.271 Y77.103
X92.263 Y76.925
X92.316 Y76.755
X92.422 Y76.612
G3 X92.695 Y76.478 I0.383 J0.433
X92.893 Y77.504 I0.099 J0.513
X92.588 Y77.471 I-0.099 J-0.513
G1 X92.481 Y77.421
X92.314 Y77.344
X92.281 Y77.326
X92.249 Y77.304
X92.213 Y77.27
X92.186 Y77.237
X92.164 Y77.203
X92.146 Y77.17
X92.133 Y77.136
X92.123 Y77.094
X92.118 Y77.052
X92.119 Y77.01
X92.126 Y76.968
X92.134 Y76.938
X92.146 Y76.907
X92.16 Y76.88
X92.177 Y76.854
X92.198 Y76.827
X92.224 Y76.801
X92.481 Y76.556
X92.816 Y76.26
X93.151 Y76.018
X93.234 Y75.963
X93.989 Y75.595
X94.031 Y75.578
X94.073 Y75.566
X94.827 Y75.377
X95.162 Y75.283
X95.329 Y75.252
X95.664 Y75.193
X95.832 Y75.169
X95.999 Y75.147
X96.041 Y75.144
X96.083 Y75.146
X96.237 Y75.165
X96.366 Y75.179
X96.629 Y75.153
G3 X96.861 Y75.707 I0.02 J0.317
G1 X96.808 Y75.754 Z1.212
X96.758 Y75.799 Z1.235
X96.714 Y75.839 Z1.273
X96.676 Y75.872 Z1.323
X96.648 Y75.898 Z1.384
X96.63 Y75.913 Z1.451
X96.625 Y75.919 Z1.521
G0 Z10.2
X78.11 Y81.917
Z1.839
G1 Z1.521 F1016.
X78.113 Y81.91 Z1.451
X78.122 Y81.888 Z1.384
X78.136 Y81.853 Z1.323
X78.155 Y81.807 Z1.273
X78.178 Y81.751 Z1.235
X78.203 Y81.689 Z1.212
X78.23 Y81.623 Z1.204
G3 X78.697 Y80.992 I1.466 J0.596
G1 X78.861 Y80.867
X78.911 Y80.812
X79.17 Y80.523
X79.182 Y80.506
X79.192 Y80.489
X79.271 Y80.362
X79.364 Y80.244
X79.468 Y80.136
X79.585 Y80.035
X79.737 Y79.923
X79.934 Y79.801
X80.163 Y79.683
X80.467 Y79.557
X80.858 Y79.43
X81.408 Y79.299
X82.137 Y79.187
X82.872 Y79.125
X83.609 Y79.09
X84.347 Y79.071
X85.085 Y79.061
X85.823 Y79.055
X86.56 Y79.051
X88.005 Y79.049
X88.029 Y79.05
X88.042 Y79.051
X88.126 Y79.053
X88.814 Y79.103
X88.84 Y79.107
X89.051 Y79.173
X89.232 Y79.297
X89.369 Y79.469
X89.45 Y79.674
G3 X89.03 Y80.033 I-0.312 J0.06
G1 X88.921 Y79.993
X88.022 Y79.669
G3 X88.126 Y79.053 I0.108 J-0.299
G1 X88.461 Y79.061
X88.628 Y79.053
X88.796 Y79.035
X89.047 Y78.982
X89.089 Y78.981
X89.131 Y78.986
X89.173 Y78.996
X89.215 Y79.013
X89.256 Y79.038
X89.298 Y79.072
X89.334 Y79.11
X89.361 Y79.148
X89.383 Y79.19
X89.397 Y79.232
X89.405 Y79.274
X89.418 Y79.483
X89.445 Y79.651
X89.531 Y80.028
X89.534 Y80.039
X89.791 Y80.526
X89.838 Y80.583
G3 X89.337 Y80.973 I-0.251 J0.195
X89.838 Y80.583 I0.251 J-0.195
X89.602 Y81.096 I-0.251 J0.195
G1 X79.351 Y81.563
G3 X79.02 Y81.256 I-0.014 J-0.317
X79.192 Y80.489 I1.582 J-0.048
G1 X79.285 Y80.322
X79.368 Y80.154
X79.404 Y80.059
X79.447 Y79.819
X79.481 Y79.672
X79.539 Y79.534
X79.614 Y79.404
X79.701 Y79.282
X79.799 Y79.167
X79.929 Y79.037
X80.092 Y78.898
X80.275 Y78.766
X80.518 Y78.618
X80.812 Y78.471
X81.17 Y78.326
X81.637 Y78.18
X82.278 Y78.034
X83.009 Y77.929
X83.744 Y77.866
X84.481 Y77.83
X85.218 Y77.808
X85.67 Y77.8
X85.893 Y77.831
X86.098 Y77.927
X86.263 Y78.081
X86.312 Y78.142
X86.45 Y78.302
X86.459 Y78.31
X86.618 Y78.435
X87.037 Y78.723
X87.058 Y78.735
X87.078 Y78.746
X87.539 Y78.943
X88.031 Y79.05
X88.042 Y79.051
G3 X88.009 Y79.681 I-0.052 J0.313
G1 X80.002 Y80.167
X79.78 Y80.18
G3 X79.447 Y79.819 I-0.019 J-0.317
G1 X79.49 Y79.578
Y79.567
X79.458 Y79.223
X79.452 Y79.074
X79.47 Y78.925
X79.509 Y78.78
X79.563 Y78.64
X79.632 Y78.506
X79.711 Y78.377
X79.819 Y78.23
X79.944 Y78.086
X80.104 Y77.928
X80.296 Y77.768
X80.527 Y77.604
X80.824 Y77.428
X81.155 Y77.266
X81.594 Y77.093
X82.139 Y76.928
X82.86 Y76.77
X83.591 Y76.671
X84.326 Y76.608
X84.839 Y76.586
X85.04 Y76.594
X85.269 Y76.639
X85.472 Y76.754
X85.63 Y76.926
X85.727 Y77.138
X85.753 Y77.235
X85.76 Y77.254
X85.995 Y77.723
X86.016 Y77.765
X86.046 Y77.807
X86.263 Y78.081
G3 X86.054 Y78.583 I-0.256 J0.188
G1 X85.924 Y78.602
X80.097 Y79.457
X79.819 Y79.497
G3 X79.458 Y79.223 I-0.046 J-0.314
G1 X79.448 Y79.108
X79.445 Y79.088
X79.36 Y78.813
X79.311 Y78.679
X79.266 Y78.536
X79.247 Y78.387
X79.25 Y78.237
X79.272 Y78.088
X79.308 Y77.943
X79.358 Y77.801
X79.421 Y77.657
X79.51 Y77.494
X79.615 Y77.333
X79.753 Y77.155
X79.912 Y76.981
X80.118 Y76.788
X80.352 Y76.602
X80.651 Y76.402
X80.994 Y76.21
X81.43 Y76.01
X81.954 Y75.819
X82.598 Y75.641
X83.323 Y75.503
X83.887 Y75.434
X84.281 Y75.418
X84.54 Y75.428
X84.8 Y75.459
X85.007 Y75.501
X85.072 Y75.519
X85.248 Y75.596
X85.399 Y75.716
X85.514 Y75.871
X85.585 Y76.05
X85.608 Y76.241
X85.607 Y76.298
X85.621 Y76.748
X85.623 Y76.759
X85.727 Y77.138
G3 X85.489 Y77.521 I-0.309 J0.073
G1 X85.212 Y77.585
X80.005 Y78.792
X79.676 Y78.868
G3 X79.311 Y78.679 I-0.072 J-0.309
G1 X79.298 Y78.645
X79.246 Y78.553
X79.03 Y78.207
X78.957 Y78.076
X78.905 Y77.935
X78.874 Y77.788
X78.863 Y77.638
X78.867 Y77.488
X78.885 Y77.34
X78.919 Y77.184
X78.966 Y77.026
X79.036 Y76.847
X79.122 Y76.67
X79.239 Y76.472
X79.378 Y76.274
X79.553 Y76.064
X79.767 Y75.845
X80.016 Y75.628
X80.337 Y75.391
X80.684 Y75.176
X81.128 Y74.947
X81.663 Y74.723
X82.266 Y74.527
X82.864 Y74.384
X83.379 Y74.304
X83.842 Y74.27
X84.19 Y74.272
X84.494 Y74.299
X84.722 Y74.337
X84.948 Y74.394
X85.129 Y74.456
X85.307 Y74.533
X85.329 Y74.545
X85.485 Y74.656
X85.608 Y74.804
X85.689 Y74.978
X85.721 Y75.168
X85.704 Y75.359
X85.624 Y75.722
X85.623 Y75.732
X85.609 Y76.13
X85.608 Y76.241
G3 X85.382 Y76.53 I-0.317 J-0.015
G1 X85.004 Y76.644
X79.751 Y78.223
X79.384 Y78.333
G3 X79.03 Y78.207 I-0.091 J-0.304
G1 X78.989 Y78.142
X78.911 Y78.037
X78.861 Y77.974
X78.846 Y77.958
X78.703 Y77.835
X78.594 Y77.732
X78.505 Y77.611
X78.438 Y77.478
X78.388 Y77.336
X78.356 Y77.189
X78.339 Y77.04
X78.336 Y76.89
X78.345 Y76.737
X78.369 Y76.562
X78.409 Y76.383
X78.47 Y76.185
X78.554 Y75.976
X78.66 Y75.762
X78.804 Y75.523
X78.97 Y75.291
X79.179 Y75.044
X79.438 Y74.783
X79.728 Y74.534
X80.097 Y74.266
X80.532 Y74.001
X81.007 Y73.761
X81.555 Y73.538
X82.127 Y73.357
X82.698 Y73.225
X83.211 Y73.15
X83.66 Y73.12
X84.076 Y73.126
X84.444 Y73.161
X84.731 Y73.212
X84.994 Y73.281
X85.196 Y73.352
X85.396 Y73.44
X85.56 Y73.529
X85.711 Y73.627
X85.784 Y73.683
X85.932 Y73.837
X86.03 Y74.026
X86.071 Y74.236
X86.05 Y74.448
X85.969 Y74.646
X85.948 Y74.682
X85.901 Y74.789
X85.772 Y75.124
X85.719 Y75.292
X85.704 Y75.359
G3 X85.503 Y75.579 I-0.307 J-0.08
G1 X85.055 Y75.738
X79.444 Y77.731
X79.008 Y77.886
G3 X78.703 Y77.835 I-0.106 J-0.299
G1 X78.474 Y77.639
X78.409 Y77.591
X78.275 Y77.526
X78.144 Y77.454
X78.03 Y77.356
X77.935 Y77.24
X77.856 Y77.112
X77.793 Y76.976
X77.745 Y76.834
X77.711 Y76.688
X77.687 Y76.531
X77.677 Y76.369
X77.679 Y76.182
X77.698 Y75.988
X77.734 Y75.778
X77.795 Y75.547
X77.876 Y75.315
X77.989 Y75.058
X78.135 Y74.789
X78.307 Y74.523
X78.53 Y74.234
X78.804 Y73.932
X79.111 Y73.644
X79.484 Y73.347
X79.928 Y73.047
X80.43 Y72.765
X80.965 Y72.518
X81.545 Y72.305
X82.135 Y72.141
X82.698 Y72.032
X83.231 Y71.973
X83.723 Y71.958
X84.176 Y71.98
X84.569 Y72.032
X84.923 Y72.108
X85.246 Y72.204
X85.499 Y72.303
X85.735 Y72.417
X85.912 Y72.521
X86.086 Y72.644
X86.231 Y72.764
X86.35 Y72.88
X86.47 Y73.018
X86.479 Y73.029
X86.585 Y73.231
X86.624 Y73.456
X86.593 Y73.683
X86.494 Y73.889
X86.283 Y74.197
X86.094 Y74.454
X85.984 Y74.621
X85.969 Y74.646
X85.927 Y74.699
X85.874 Y74.741
X85.814 Y74.772
X85.27 Y74.978
X79.019 Y77.343
X78.517 Y77.533
X78.457 Y77.549
X78.395 Y77.554
X78.334 Y77.546
X78.275 Y77.526
X78.241 Y77.51
X77.875 Y77.345
X77.864 Y77.342
X77.822 Y77.335
X77.676 Y77.302
X77.541 Y77.237
X77.42 Y77.148
X77.313 Y77.043
X77.22 Y76.925
X77.141 Y76.798
X77.074 Y76.664
X77.018 Y76.522
X76.972 Y76.37
X76.934 Y76.195
X76.91 Y76.011
X76.899 Y75.806
X76.905 Y75.579
X76.931 Y75.346
X76.98 Y75.09
X77.056 Y74.813
X77.157 Y74.535
X77.298 Y74.229
X77.478 Y73.905
X77.689 Y73.591
X77.952 Y73.26
X78.277 Y72.911
X78.662 Y72.56
X79.083 Y72.234
X79.57 Y71.916
X80.122 Y71.615
X80.722 Y71.349
X81.346 Y71.13
X81.974 Y70.964
X82.592 Y70.854
X83.189 Y70.796
X83.744 Y70.787
X84.247 Y70.819
X84.704 Y70.886
X85.127 Y70.982
X85.499 Y71.099
X85.828 Y71.233
X86.123 Y71.381
X86.382 Y71.538
X86.578 Y71.68
X86.763 Y71.838
X86.9 Y71.976
X87.025 Y72.123
X87.136 Y72.278
X87.161 Y72.32
X87.249 Y72.538
X87.264 Y72.774
X87.205 Y73.002
X87.076 Y73.199
X86.702 Y73.615
X86.618 Y73.715
X86.566 Y73.783
X86.494 Y73.889
X86.455 Y73.933
X86.408 Y73.969
X86.356 Y73.995
X85.79 Y74.22
X78.561 Y77.086
X77.982 Y77.316
X77.93 Y77.331
X77.877 Y77.338
X77.822 Y77.335
X77.404 Y77.263
X77.32 Y77.247
X77.236 Y77.213
X77.058 Y77.136
X76.901 Y77.061
X76.751 Y76.96
X76.633 Y76.866
X76.529 Y76.759
X76.435 Y76.641
X76.353 Y76.516
X76.279 Y76.376
X76.213 Y76.226
X76.154 Y76.053
X76.104 Y75.86
X76.069 Y75.654
X76.048 Y75.421
X76.046 Y75.173
X76.065 Y74.908
X76.11 Y74.61
X76.183 Y74.303
X76.286 Y73.984
X76.429 Y73.638
X76.618 Y73.269
X76.841 Y72.908
X77.121 Y72.527
X77.459 Y72.136
X77.861 Y71.741
X78.323 Y71.355
X78.827 Y70.998
X79.4 Y70.658
X80.032 Y70.349
X80.703 Y70.085
X81.394 Y69.875
X82.089 Y69.724
X82.769 Y69.632
X83.415 Y69.598
X84.012 Y69.614
X84.565 Y69.673
X85.08 Y69.771
X85.558 Y69.902
X85.994 Y70.06
X86.369 Y70.232
X86.697 Y70.415
X86.992 Y70.612
X87.239 Y70.807
X87.426 Y70.982
X87.596 Y71.168
X87.717 Y71.323
X87.827 Y71.491
X87.919 Y71.66
X87.95 Y71.729
X88. Y71.889
X88.014 Y72.056
X87.989 Y72.222
X87.975 Y72.274
X87.958 Y72.327
X87.929 Y72.385
X87.91 Y72.413
X87.886 Y72.442
X87.791 Y72.533
X87.701 Y72.61
X87.623 Y72.68
X87.12 Y73.151
X87.076 Y73.199
X87.024 Y73.243
X86.963 Y73.274
X86.358 Y73.508
X77.644 Y76.872
X77.142 Y77.066
X77.082 Y77.083
X77.021 Y77.088
X76.96 Y77.08
X76.901 Y77.061
X76.734 Y76.96
X76.566 Y76.881
X76.21 Y76.724
X76.2 Y76.721
X76.055 Y76.68
X75.925 Y76.605
X75.807 Y76.513
X75.7 Y76.408
X75.604 Y76.293
X75.519 Y76.17
X75.436 Y76.026
X75.363 Y75.872
X75.293 Y75.687
X75.237 Y75.49
X75.191 Y75.266
X75.161 Y75.016
X75.151 Y74.755
X75.163 Y74.458
X75.202 Y74.138
X75.27 Y73.806
X75.375 Y73.443
X75.524 Y73.05
X75.709 Y72.659
X75.945 Y72.249
X76.245 Y71.814
X76.609 Y71.366
X77.036 Y70.922
X77.508 Y70.501
X78.045 Y70.096
X78.658 Y69.707
X79.311 Y69.363
X79.988 Y69.069
X80.685 Y68.827
X81.398 Y68.637
X82.05 Y68.514
X82.159 Y68.502
X82.268 Y68.506
X82.376 Y68.526
X82.461 Y68.548
X82.471 Y68.55
X82.943 Y68.558
X82.953 Y68.557
X82.974 Y68.552
X83.122 Y68.526
X83.606 Y68.487
X84.131
X84.673 Y68.531
X85.214 Y68.619
X85.733 Y68.747
X86.222 Y68.91
X86.676 Y69.104
X87.083 Y69.317
X87.433 Y69.538
X87.738 Y69.767
X88.007 Y70.005
X88.227 Y70.232
X88.356 Y70.389
X88.474 Y70.593
X88.522 Y70.823
X88.496 Y71.057
X88.398 Y71.271
X88.293 Y71.428
X88.289 Y71.436
X88.126 Y71.808
X88.073 Y71.939
X88.02 Y72.107
X87.989 Y72.222
G3 X87.502 Y72.389 I-0.304 J-0.093
G1 X87.351 Y72.282
X82.928 Y69.157
X82.873 Y69.118
G3 X82.974 Y68.552 I0.183 J-0.259
G1 X83.424 Y68.448
X83.898 Y68.186
X83.918 Y68.169
X84.031 Y68.07
X84.16 Y67.994
X84.296 Y67.931
X84.45 Y67.873
X84.643 Y67.819
X84.851 Y67.777
X85.097 Y67.749
X85.375 Y67.739
X85.691 Y67.753
X86.026 Y67.795
X86.402 Y67.874
X86.797 Y67.99
X87.189 Y68.141
X87.518 Y68.298
X87.617 Y68.356
X87.706 Y68.428
X87.783 Y68.513
X87.97 Y68.754
X88.132 Y68.921
X88.311 Y69.089
X88.497 Y69.257
X88.628 Y69.377
X88.679 Y69.424
X88.867 Y69.62
X88.923 Y69.688
X89.036 Y69.879
X89.087 Y70.095
X89.073 Y70.316
X88.993 Y70.523
X88.856 Y70.698
G3 X88.337 Y70.528 I-0.209 J-0.239
G1 X88.309 Y70.403
X88.16 Y69.732
G3 X88.679 Y69.424 I0.31 J-0.069
G1 X88.796 Y69.534
X89.131 Y69.856
X89.2 Y69.927
X89.236 Y69.968
X89.265 Y70.01
X89.285 Y70.051
X89.299 Y70.095
X89.306 Y70.133
X89.308 Y70.17
X89.305 Y70.208
X89.298 Y70.246
X89.294 Y70.262
X89.277 Y70.304
X89.254 Y70.346
X89.22 Y70.388
X89.176 Y70.43
X89.131 Y70.463
X88.962 Y70.598
X88.784 Y70.765
X88.701 Y70.849
X88.635 Y70.933
X88.398 Y71.271
G3 X87.963 Y71.349 I-0.257 J-0.186
G1 X87.717 Y71.183
X84.159 Y68.782
X83.968 Y68.653
G3 X83.918 Y68.169 I0.178 J-0.263
G1 X84.143 Y67.952
X84.288 Y67.748
X84.338 Y67.664
X84.415 Y67.535
X84.514 Y67.422
X84.626 Y67.323
X84.749 Y67.236
X84.879 Y67.161
X85.028 Y67.091
X85.194 Y67.028
X85.393 Y66.971
X85.606 Y66.928
X85.799 Y66.905
X86.004 Y66.909
X86.2 Y66.969
X86.372 Y67.081
X86.45 Y67.148
X86.564 Y67.245
X86.953 Y67.611
X87.102 Y67.748
X87.12 Y67.767
X87.455 Y68.124
X87.573 Y68.251
X87.71 Y68.418
X87.783 Y68.513
G3 X87.43 Y69.001 I-0.258 J0.186
G1 X84.783 Y68.166
X84.536 Y68.088
G3 X84.338 Y67.664 I0.096 J-0.303
G1 X84.376 Y67.58
X84.487 Y67.264
X84.489 Y67.245
X84.508 Y67.096
X84.556 Y66.954
X84.626 Y66.821
X84.714 Y66.7
X84.815 Y66.589
X84.862 Y66.548
X85.045 Y66.429
X85.255 Y66.37
X85.473 Y66.375
X85.679 Y66.446
X85.856 Y66.574
X85.948 Y66.651
X86.043 Y66.742
X86.372 Y67.081
G3 X86.143 Y67.631 I-0.216 J0.233
G1 X86.131 Y67.63
X85.078 Y67.588
X84.793 Y67.576
G3 X84.489 Y67.245 I0.013 J-0.317
G1 X84.524 Y66.794
X84.513 Y66.742
X84.489 Y66.594
X84.541 Y66.399
X84.654 Y66.232
X84.815 Y66.11
X85.006 Y66.048
X85.208 Y66.051
X85.398 Y66.12
X85.555 Y66.246
X85.78 Y66.499
X85.856 Y66.574
G3 X85.575 Y67.105 I-0.231 J0.218
G1 X85.181 Y67.043
X84.771 Y66.977
G3 X84.513 Y66.742 I0.05 J-0.314
G1 X84.422 Y66.322
X84.394 Y66.174
X84.454 Y66.011
X84.563 Y65.876
X84.711 Y65.785
X84.88 Y65.747
X85.053 Y65.766
X85.21 Y65.841
X85.334 Y65.963
X85.43 Y66.097
X85.445 Y66.118
X85.555 Y66.246
G3 X85.522 Y66.65 I-0.224 J0.185
X84.422 Y66.322 I-0.446 J-0.512
G1 X84.419 Y66.311
X84.388 Y66.239
X84.307 Y66.071
X84.246 Y65.934
X84.253 Y65.784
X84.34 Y65.631
X84.477 Y65.519
X84.644 Y65.462
X84.821 Y65.468
X84.983 Y65.536
X85.112 Y65.658
X85.334 Y65.963
G3 X85.275 Y66.289 I-0.198 J0.133
X84.307 Y66.071 I-0.387 J-0.539
G1 X84.19 Y65.841
X84.184 Y65.83
X84.175 Y65.82
X84.131 Y65.759
X84.09 Y65.615
X84.102 Y65.466
X84.191 Y65.321
X84.328 Y65.219
X84.492 Y65.174
X84.661 Y65.191
X84.812 Y65.27
X84.924 Y65.398
G3 X84.727 Y65.856 I-0.279 J0.151
G1 X84.497 Y65.917
G3 X84.175 Y65.82 I-0.082 J-0.307
G1 X83.998 Y65.602
X83.909 Y65.481
X83.877 Y65.334
X83.892 Y65.185
X83.987 Y65.033
X84.131 Y64.926
X84.304 Y64.879
X84.483 Y64.898
X84.641 Y64.982
X84.759 Y65.117
X84.924 Y65.398
G3 X84.879 Y65.654 I-0.185 J0.1
X83.998 Y65.602 I-0.415 J-0.461
G1 X83.937 Y65.528
X83.82 Y65.401
X83.793 Y65.376
X83.684 Y65.272
X83.634 Y65.131
X83.631 Y64.981
X83.632 Y64.977
X83.71 Y64.805
X83.843 Y64.672
X84.014 Y64.592
X84.202 Y64.578
X84.384 Y64.629
X84.536 Y64.74
X84.64 Y64.898
X84.729 Y65.065
X84.759 Y65.117
G3 X84.704 Y65.382 I-0.186 J0.1
X83.793 Y65.376 I-0.452 J-0.572
G1 X83.77 Y65.357
X83.528 Y65.208
X83.404 Y65.123
X83.337 Y64.989
X83.312 Y64.841
X83.322 Y64.692
X83.404 Y64.515
X83.535 Y64.372
X83.704 Y64.274
X83.894 Y64.233
X84.087 Y64.25
X84.267 Y64.325
X84.415 Y64.451
X84.519 Y64.616
X84.64 Y64.898
G3 X84.552 Y65.174 I-0.215 J0.084
X83.528 Y65.208 I-0.54 J-0.82
G1 X83.414 Y65.138
X83.403 Y65.133
X83.305 Y65.103
X83.164 Y65.052
X83.053 Y64.951
X82.979 Y64.82
X82.941 Y64.675
X82.932 Y64.525
X82.953 Y64.377
X82.999 Y64.234
X83.005 Y64.222
X83.138 Y64.041
X83.318 Y63.908
X83.53 Y63.835
X83.754 Y63.829
X83.97 Y63.89
X84.158 Y64.013
X84.3 Y64.187
X84.422 Y64.395
X84.44 Y64.434
X84.519 Y64.616
G3 X84.247 Y65.048 I-0.296 J0.116
G1 X84.087 Y65.06
X83.412 Y65.113
X83.358 Y65.112
X83.305 Y65.103
X82.932 Y64.989
X82.789 Y64.945
X82.671 Y64.852
X82.579 Y64.734
X82.512 Y64.6
X82.472 Y64.455
X82.456 Y64.306
X82.466 Y64.156
X82.496 Y64.009
X82.546 Y63.868
X82.616 Y63.735
X82.701 Y63.612
X82.802 Y63.501
X82.84 Y63.468
X83.014 Y63.355
X83.212 Y63.295
X83.418 Y63.292
X83.618 Y63.346
X83.795 Y63.454
X83.935 Y63.606
X84.017 Y63.724
X84.105 Y63.857
X84.3 Y64.187
G3 X84.115 Y64.642 I-0.279 J0.152
G1 X83.901 Y64.708
X83.686 Y64.774
X83.036 Y64.975
X82.985 Y64.986
X82.932 Y64.989
X82.597 Y64.979
X82.448 Y64.968
X82.31 Y64.908
X82.189 Y64.818
X82.088 Y64.708
X82.005 Y64.583
X81.942 Y64.447
X81.898 Y64.304
X81.871 Y64.156
X81.862 Y64.006
X81.87 Y63.857
X81.893 Y63.708
X81.932 Y63.564
X81.986 Y63.423
X82.053 Y63.289
X82.135 Y63.164
X82.228 Y63.046
X82.333 Y62.939
X82.449 Y62.844
X82.481 Y62.822
X82.689 Y62.724
X82.917 Y62.696
X83.143 Y62.738
X83.345 Y62.847
X83.503 Y63.013
X83.648 Y63.221
X83.783 Y63.389
X83.935 Y63.606
G3 X83.87 Y64.022 I-0.267 J0.171
G1 X83.619 Y64.228
X83.236 Y64.545
X82.797 Y64.907
X82.752 Y64.937
X82.703 Y64.96
X82.651 Y64.974
X82.597 Y64.979
X82.461 Y64.976
X82.262 Y65.027
X82.115 Y65.057
X81.966 Y65.039
X81.825 Y64.989
X81.695 Y64.914
X81.578 Y64.82
X81.475 Y64.711
X81.386 Y64.59
X81.311 Y64.46
X81.251 Y64.323
X81.205 Y64.18
X81.172 Y64.034
X81.153 Y63.885
X81.147 Y63.735
X81.154 Y63.585
X81.172 Y63.436
X81.204 Y63.284
X81.249 Y63.13
X81.305 Y62.986
X81.369 Y62.85
X81.45 Y62.713
X81.537 Y62.59
X81.632 Y62.474
X81.738 Y62.368
X81.853 Y62.271
X81.975 Y62.184
X82.104 Y62.108
X82.139 Y62.092
X82.345 Y62.032
X82.559
X82.765 Y62.095
X82.944 Y62.214
X83.081 Y62.379
X83.186 Y62.551
X83.267 Y62.675
X83.298 Y62.718
X83.503 Y63.013
G3 X83.498 Y63.366 I-0.267 J0.172
G1 X83.264 Y63.704
X82.758 Y64.434
X82.433 Y64.903
X82.399 Y64.945
X82.358 Y64.98
X82.312 Y65.007
X82.262 Y65.027
X81.99 Y65.097
X81.927 Y65.134
X81.794 Y65.203
X81.646 Y65.231
X81.497 Y65.226
X81.35 Y65.194
X81.21 Y65.14
X81.079 Y65.068
X80.957 Y64.98
X80.846 Y64.88
X80.745 Y64.768
X80.655 Y64.648
X80.576 Y64.52
X80.509 Y64.386
X80.448 Y64.238
X80.399 Y64.08
X80.36 Y63.915
X80.335 Y63.74
X80.323 Y63.558
X80.326 Y63.369
X80.344 Y63.177
X80.379 Y62.983
X80.429 Y62.792
X80.494 Y62.604
X80.576 Y62.42
X80.673 Y62.242
X80.784 Y62.071
X80.893 Y61.929
X81.018 Y61.792
X81.148 Y61.671
X81.268 Y61.575
X81.405 Y61.483
X81.544 Y61.405
X81.68 Y61.343
X81.821 Y61.292
X81.852 Y61.284
X82.053 Y61.258
X82.253 Y61.288
X82.438 Y61.371
X82.594 Y61.502
X82.708 Y61.669
X82.932 Y62.127
X82.981 Y62.215
X83.081 Y62.379
G3 X83.094 Y62.665 I-0.277 J0.156
G1 X82.894 Y63.11
X82.293 Y64.449
X82.047 Y64.996
X82.016 Y65.049
X81.976 Y65.096
X81.927 Y65.134
X81.535 Y65.363
X81.523 Y65.378
X81.422 Y65.489
X81.28 Y65.536
X81.131 Y65.556
X80.981 Y65.552
X80.833 Y65.528
X80.689 Y65.486
X80.55 Y65.428
X80.419 Y65.356
X80.294 Y65.273
X80.177 Y65.179
X80.063 Y65.071
X79.951 Y64.948
X79.848 Y64.812
X79.75 Y64.66
X79.66 Y64.491
X79.579 Y64.306
X79.512 Y64.11
X79.459 Y63.903
X79.422 Y63.683
X79.401 Y63.452
X79.399 Y63.213
X79.417 Y62.967
X79.455 Y62.719
X79.513 Y62.473
X79.591 Y62.23
X79.689 Y61.994
X79.805 Y61.768
X79.937 Y61.555
X80.084 Y61.354
X80.245 Y61.169
X80.417 Y61.
X80.579 Y60.864
X80.753 Y60.742
X80.918 Y60.644
X81.07 Y60.57
X81.142 Y60.541
X81.363 Y60.492
X81.589 Y60.511
X81.799 Y60.598
X81.972 Y60.745
X82.094 Y60.886
X82.248 Y61.042
X82.472 Y61.255
X82.507 Y61.295
X82.554 Y61.377
X82.646 Y61.545
X82.708 Y61.669
X82.728 Y61.726
X82.736 Y61.785
X82.734 Y61.844
X82.72 Y61.903
X82.544 Y62.42
X81.791 Y64.641
X81.572 Y65.287
X81.551 Y65.334
X81.523 Y65.378
X81.151 Y65.83
X81.089 Y65.964
X81.044 Y66.071
X80.987 Y66.27
X80.985 Y66.281
X80.937 Y66.773
X80.976 Y67.266
X80.981 Y67.287
X81.021 Y67.412
X81.089 Y67.584
X81.15 Y67.707
X81.157 Y67.717
X81.53 Y68.156
X81.561 Y68.181
X81.978 Y68.418
X81.993 Y68.425
X82.376 Y68.526
G3 X82.532 Y69.028 I-0.091 J0.304
G1 X82.429 Y69.157
X76.773 Y76.239
X76.481 Y76.604
G3 X76.2 Y76.721 I-0.248 J-0.198
G1 X75.728 Y76.655
X75.718 Y76.654
X75.707 Y76.655
X75.557 Y76.657
X75.411 Y76.626
X75.271 Y76.571
X75.14 Y76.498
X75.018 Y76.41
X74.906 Y76.311
X74.803 Y76.202
X74.705 Y76.08
X74.605 Y75.932
X74.515 Y75.773
X74.428 Y75.584
X74.35 Y75.374
X74.286 Y75.145
X74.234 Y74.88
X74.202 Y74.6
X74.192 Y74.294
X74.209 Y73.946
X74.256 Y73.583
X74.336 Y73.203
X74.459 Y72.788
X74.632 Y72.34
X74.853 Y71.883
X75.124 Y71.42
X75.466 Y70.931
X75.874 Y70.437
X76.352 Y69.945
X76.902 Y69.463
X77.494 Y69.022
X78.118 Y68.629
X78.444 Y68.456
X78.716 Y68.206
X78.928 Y67.904
X79.035 Y67.551
X79.052 Y66.814
X78.861 Y66.101
X78.618 Y65.404
X78.45 Y64.845
X78.35 Y64.378
X78.293 Y63.949
X78.273 Y63.551
X78.284 Y63.168
X78.325 Y62.796
X78.395 Y62.436
X78.491 Y62.089
X78.613 Y61.756
X78.759 Y61.439
X78.928 Y61.139
X79.114 Y60.862
X79.315 Y60.608
X79.526 Y60.384
X79.727 Y60.201
X79.924 Y60.049
X80.115 Y59.925
X80.279 Y59.836
X80.463 Y59.754
X80.499 Y59.742
X80.727 Y59.701
X80.956 Y59.732
X81.165 Y59.832
X81.332 Y59.992
X81.493 Y60.203
X81.592 Y60.321
X81.641 Y60.371
X81.759 Y60.5
X81.972 Y60.745
G3 X81.655 Y61.254 I-0.247 J0.2
G1 X81.586 Y61.239 Z1.212
X81.521 Y61.224 Z1.235
X81.462 Y61.211 Z1.273
X81.413 Y61.2 Z1.323
X81.376 Y61.191 Z1.384
X81.353 Y61.186 Z1.451
X81.345 Y61.184 Z1.521
G0 Z10.2
X76.707 Y76.206
Z1.839
G1 Z1.521 F1016.
X76.7 Y76.211 Z1.451
X76.681 Y76.224 Z1.384
X76.65 Y76.245 Z1.323
X76.608 Y76.274 Z1.273
X76.559 Y76.308 Z1.235
X76.503 Y76.346 Z1.212
X76.445 Y76.386 Z1.204
G3 X75.707 Y76.655 I-0.895 J-1.305
G1 X75.226 Y76.686
X75.134 Y76.708
X74.986 Y76.735
X74.836 Y76.731
X74.689 Y76.704
X74.546 Y76.657
X74.41 Y76.593
X74.282 Y76.516
X74.161 Y76.428
X74.04 Y76.323
X73.921 Y76.201
X73.803 Y76.06
X73.684 Y75.892
X73.576 Y75.71
X73.472 Y75.496
X73.377 Y75.254
X73.299 Y74.995
X73.235 Y74.697
X73.191 Y74.368
X73.173 Y74.028
X73.184 Y73.647
X73.23 Y73.223
X73.315 Y72.78
X73.44 Y72.325
X73.618 Y71.836
X73.857 Y71.315
X74.161 Y70.771
X74.531 Y70.218
X74.954 Y69.686
X75.457 Y69.147
X76.002 Y68.649
X76.583 Y68.193
X76.835 Y67.925
X77.008 Y67.599
X77.22 Y66.892
X77.237 Y66.154
X77.172 Y65.419
X77.098 Y64.685
X77.06 Y63.976
X77.075 Y63.378
X77.134 Y62.831
X77.229 Y62.325
X77.357 Y61.858
X77.515 Y61.421
X77.702 Y61.011
X77.915 Y60.629
X78.147 Y60.281
X78.393 Y59.968
X78.648 Y59.695
X78.9 Y59.464
X79.119 Y59.293
X79.341 Y59.147
X79.537 Y59.041
X79.71 Y58.963
X79.905 Y58.894
X80.076 Y58.849
X80.171 Y58.832
X80.379 Y58.824
X80.581 Y58.874
X80.761 Y58.979
X80.905 Y59.129
X81.001 Y59.314
X81.019 Y59.365
X81.091 Y59.533
X81.276 Y59.917
X81.332 Y59.992
G3 X80.983 Y60.48 I-0.259 J0.184
G1 X80.916 Y60.46 Z1.212
X80.851 Y60.441 Z1.235
X80.794 Y60.424 Z1.273
X80.745 Y60.41 Z1.323
X80.709 Y60.399 Z1.384
X80.687 Y60.393 Z1.451
X80.679 Y60.391 Z1.521
G0 Z10.2
X76.045 Y76.1
Z1.839
G1 Z1.521 F1016.
X76.039 Y76.105 Z1.451
X76.023 Y76.122 Z1.384
X75.995 Y76.148 Z1.323
X75.959 Y76.183 Z1.273
X75.916 Y76.224 Z1.235
X75.867 Y76.271 Z1.212
X75.817 Y76.32 Z1.204
G3 X75.134 Y76.708 I-1.099 J-1.139
G1 X74.723 Y76.805
X74.388 Y76.879
X74.24 Y76.905
X74.09 Y76.902
X73.942 Y76.878
X73.798 Y76.838
X73.658 Y76.783
X73.524 Y76.715
X73.395 Y76.635
X73.254 Y76.531
X73.119 Y76.414
X72.979 Y76.272
X72.838 Y76.104
X72.707 Y75.918
X72.574 Y75.695
X72.454 Y75.449
X72.348 Y75.18
X72.253 Y74.869
X72.178 Y74.523
X72.129 Y74.161
X72.107 Y73.753
X72.119 Y73.306
X72.17 Y72.825
X72.262 Y72.339
X72.407 Y71.812
X72.612 Y71.245
X72.884 Y70.649
X73.223 Y70.041
X73.633 Y69.428
X74.09 Y68.849
X74.592 Y68.308
X75.131 Y67.805
X75.505 Y67.168
X75.692 Y66.455
X75.761 Y65.72
X75.778 Y64.983
X75.79 Y64.245
X75.828 Y63.508
X75.911 Y62.8
X76.039 Y62.154
X76.208 Y61.558
X76.413 Y61.007
X76.651 Y60.498
X76.914 Y60.035
X77.194 Y59.623
X77.483 Y59.265
X77.78 Y58.951
X78.076 Y58.685
X78.36 Y58.468
X78.642 Y58.288
X78.89 Y58.155
X79.138 Y58.046
X79.34 Y57.977
X79.544 Y57.925
X79.735 Y57.892
X79.789 Y57.888
X79.999 Y57.899
X80.197 Y57.968
X80.367 Y58.09
X80.497 Y58.255
X80.754 Y58.702
X80.842 Y58.862
X81.001 Y59.314
G3 X80.519 Y59.672 I-0.303 J0.095
G1 X80.461 Y59.632 Z1.212
X80.406 Y59.594 Z1.235
X80.356 Y59.56 Z1.273
X80.314 Y59.532 Z1.323
X80.283 Y59.51 Z1.384
X80.264 Y59.497 Z1.451
X80.257 Y59.493 Z1.521
G0 Z10.2
X75.307 Y76.283
Z1.839
G1 Z1.521 F1016.
X75.301 Y76.288 Z1.451
X75.284 Y76.304 Z1.384
X75.257 Y76.33 Z1.323
X75.22 Y76.365 Z1.273
X75.176 Y76.406 Z1.235
X75.127 Y76.452 Z1.212
X75.076 Y76.5 Z1.204
G3 X74.388 Y76.879 I-1.084 J-1.153
G1 X74.221 Y76.917
X74.066 Y76.968
X73.886 Y77.043
X73.835 Y77.065
X73.695 Y77.119
X73.548 Y77.15
X73.398 Y77.159
X73.249 Y77.148
X73.101 Y77.12
X72.957 Y77.078
X72.818 Y77.023
X72.668 Y76.95
X72.519 Y76.862
X72.361 Y76.751
X72.2 Y76.616
X72.044 Y76.463
X71.88 Y76.274
X71.725 Y76.064
X71.576 Y75.823
X71.432 Y75.542
X71.303 Y75.231
X71.194 Y74.894
X71.103 Y74.508
X71.036 Y74.074
X71.003 Y73.621
X71.007 Y73.14
X71.054 Y72.613
X71.152 Y72.039
X71.309 Y71.425
X71.507 Y70.845
X71.56 Y70.725
X71.634 Y70.616
X71.726 Y70.522
X71.834 Y70.43
X72. Y70.262
X72.135 Y70.095
X72.21 Y69.994
X72.257 Y69.927
X72.378 Y69.728
X72.447 Y69.592
X72.524 Y69.424
X72.545 Y69.371
X72.659 Y69.089
X72.713 Y68.998
X72.76 Y68.921
X72.85 Y68.754
X72.921 Y68.622
X73.326 Y68.005
X73.772 Y67.417
X74.088 Y66.751
X74.28 Y66.038
X74.391 Y65.309
X74.463 Y64.574
X74.531 Y63.84
X74.557 Y63.623
X74.583 Y63.498
X74.63 Y63.379
X74.696 Y63.27
G3 X75.246 Y63.568 I0.249 J0.197
G1 X73.442 Y68.981
G3 X73.027 Y69.177 I-0.301 J-0.1
X72.85 Y68.754 I0.114 J-0.296
G1 X73.048 Y68.339
X73.081 Y68.251
X73.139 Y68.083
X73.179 Y67.915
X73.204 Y67.748
X73.233 Y67.412
X73.241 Y67.245
X73.243 Y66.909
X73.24 Y66.742
X73.226 Y66.574
X73.215 Y66.452
X73.212 Y66.406
X73.193 Y65.97
Y65.898
X73.2 Y65.827
X73.215 Y65.756
G3 X73.837 Y65.84 I0.305 J0.089
G1 X73.844 Y66.362
G3 X73.212 Y66.406 I-0.317 J0.004
G1 X73.196 Y66.239
X73.162 Y66.071
X73.159 Y66.029
X73.16 Y65.987
X73.177 Y65.904
X73.262 Y65.568
X73.278 Y65.526
X73.383 Y65.321
X73.428 Y65.233
X73.609 Y64.898
X73.63 Y64.865
X73.655 Y64.832
X73.718 Y64.767
X73.752 Y64.73
X73.889 Y64.562
X74.026 Y64.377
X74.269 Y63.892
X74.359 Y63.724
X74.609 Y63.389
X74.723 Y63.234
X74.761 Y63.179
X74.799 Y63.137
X74.891 Y63.049
X75.033 Y62.886
X75.17 Y62.718
X75.226 Y62.631
X75.461 Y62.215
X75.561 Y62.073
X75.686 Y61.88
X75.77 Y61.712
X75.85 Y61.545
X76.002 Y61.209
X76.056 Y61.042
X76.146 Y60.706
X76.184 Y60.539
X76.231 Y60.179
X76.248 Y60.036
X76.25 Y59.985
X76.266 Y59.836
X76.303 Y59.652
X76.364 Y59.439
X76.448 Y59.217
X76.566 Y58.968
X76.706 Y58.723
X76.883 Y58.466
X77.093 Y58.208
X77.328 Y57.961
X77.585 Y57.733
X77.852 Y57.531
X78.127 Y57.356
X78.404 Y57.209
X78.637 Y57.109
X78.876 Y57.028
X79.069 Y56.979
X79.271 Y56.946
X79.283 Y56.945
X79.508 Y56.96
X79.717 Y57.041
X79.893 Y57.182
X80.018 Y57.369
X80.167 Y57.689
X80.263 Y57.856
X80.481 Y58.226
X80.497 Y58.255
G3 X80.343 Y58.695 I-0.28 J0.149
G1 X80.103 Y58.8
X76.833 Y60.221
X76.694 Y60.282
G3 X76.25 Y59.985 I-0.127 J-0.291
G1 X76.274 Y59.533
X76.272 Y58.862
X76.271 Y58.602
X76.278 Y58.453
X76.298 Y58.304
X76.334 Y58.151
X76.386 Y57.988
X76.458 Y57.81
X76.55 Y57.627
X76.672 Y57.428
X76.812 Y57.234
