(WOLF-IN-MOON-2.7)
(T1  D=0.792 CR=0. - ZMIN=-2.479 - FLAT END MILL)
G0 G90 G94 G17
G21
G53 G0 Z0.

(PARALLEL1)
M5
M9
T1 M6
S16500 M3
G4 P4.
G55
G0 X52.434 Y-49.808
Z15.
Z1.716
G1 Z-0.203 F356.
X52.428 Z-0.234
X52.41 Z-0.26
X52.384 Z-0.277
X52.353 Z-0.282
X52.022 Z-0.274
X51.205 Z-0.279
X50.584 Z-0.297
X50.248 Z-0.286
X49.822 Z-0.275
X48.297
X47.962 Z-0.294
X47.041 Z-0.263
X46.198 Z-0.267
X46.053 Z-0.276
X45.018 Z-0.277
X44.877 Z-0.292
X44.633 Z-0.289
X43.949 Z-0.272
X43.608 Z-0.271
X43.126 Z-0.253
X41.958
X41.579 Z-0.26
X39.837 Z-0.262
X39.592 Z-0.27
X38.563 Z-0.251
X38.329 Z-0.239
X37.48 Z-0.243
X37.102 Z-0.245
X35.71 Z-0.252
X34.988 Z-0.256
X34.295 Z-0.258
X34.057 Z-0.262
X33.677 Z-0.272
X33.591 Z-0.285
X33.496 Z-0.273
X33.099 Z-0.251
X32.32 Z-0.256
X32.126 Z-0.265
X31.993 Z-0.274
X31.459 Z-0.284
X31.316 Z-0.288
X30.474 Z-0.257
X29.416 Z-0.258
X29.271 Z-0.269
X28.608 Z-0.267
X28.441 Z-0.251
X27.959 Z-0.249
X27.815 Z-0.238
X26.69
X26.29 Z-0.26
X25.716 Z-0.265
X25.444 Z-0.271
X25.232 Z-0.268
X24.714 Z-0.231
X23.49 Z-0.232
X23.153 Z-0.245
X22.219 Z-0.236
X21.531
X21.218 Z-0.24
X20.536 Z-0.239
X20.275 Z-0.24
X19.754 Z-0.234
X18.442 Z-0.231
X17.814 Z-0.233
X17.569 Z-0.248
X15.311 Z-0.24
X14.939 Z-0.253
X14.728 Z-0.264
X14.102 Z-0.249
X13.604 Z-0.254
X13.35 Z-0.27
X12.994 Z-0.276
X12.771 Z-0.277
X12.537 Z-0.26
X11.876 Z-0.257
X11.639 Z-0.23
X10.786 Z-0.233
X10.292 Z-0.26
X10.049 Z-0.251
X7.965 Z-0.244
X7.649 Z-0.222
X6.9 Z-0.226
X5.725 Z-0.232
X5.64 Z-0.236
X4.726 Z-0.24
X4.441 Z-0.249
X3.91 Z-0.252
X2.991 Z-0.258
X2.778 Z-0.265
X2.218 Z-0.259
X1.949 Z-0.251
X1.547 Z-0.248
X1.085 Z-0.228
X0.034 Z-0.233
X-1.567
X-2.09 Z-0.221
X-2.985 Z-0.228
X-3.04 Z-0.234
X-3.811 Z-0.242
X-3.957 Z-0.248
X-4.651 Z-0.232
X-5.409 Z-0.236
X-5.574 Z-0.239
X-5.994 Z-0.242
X-6.415 Z-0.254
X-7.447 Z-0.264
X-7.757 Z-0.31
X-7.852 Z-0.349
X-8.282 Z-0.311
X-8.585 Z-0.276
X-8.775 Z-0.26
X-10.179 Z-0.267
X-10.422 Z-0.266
X-10.878 Z-0.253
X-11.697 Z-0.25
X-11.905 Z-0.234
X-12.496 Z-0.238
X-12.765 Z-0.25
X-13.242 Z-0.254
X-13.417 Z-0.235
X-14.353 Z-0.239
X-14.476 Z-0.229
X-15.343 Z-0.233
X-15.714 Z-0.252
X-16.652 Z-0.228
X-16.999 Z-0.225
X-17.699 Z-0.209
X-18.466 Z-0.217
X-18.781 Z-0.236
X-19.424 Z-0.237
X-19.561 Z-0.223
X-20.388 Z-0.227
X-20.622 Z-0.239
X-21.36 Z-0.251
X-21.857 Z-0.254
X-23.064 Z-0.248
X-23.17 Z-0.249
X-23.335 Z-0.237
X-23.99 Z-0.242
X-24.21 Z-0.244
X-25.039 Z-0.251
X-25.247
X-26.116 Z-0.25
X-26.908 Z-0.253
X-27.638 Z-0.248
X-28.795 Z-0.262
X-28.958 Z-0.274
X-29.954
X-30.249 Z-0.393
X-30.574 Z-0.946
X-30.863 Z-1.521
X-31.035 Z-1.939
X-31.086 Z-1.863
X-31.112 Z-1.786
X-31.381 Z-0.663
X-31.402 Z-0.596
X-31.704 Z-0.305
X-32.021 Z-0.268
X-32.551 Z-0.264
X-32.78 Z-0.248
X-33.072 Z-0.247
X-33.371 Z-0.224
X-34.274 Z-0.228
X-34.789 Z-0.246
X-36.023 Z-0.26
X-36.269 Z-0.261
X-37.065 Z-0.248
X-37.322
X-37.654 Z-0.234
X-38.156 Z-0.242
X-39.119 Z-0.238
X-40.206 Z-0.255
X-40.442 Z-0.241
X-41.123 Z-0.247
X-41.61 Z-0.253
X-42.047 Z-0.252
X-42.381 Z-0.228
X-43.28 Z-0.232
X-43.996 Z-0.236
X-44.17 Z-0.24
X-44.484 Z-0.214
X-45.547 Z-0.22
X-45.831 Z-0.241
X-46.632 Z-0.248
X-46.793 Z-0.258
X-46.861 Z-0.26
X-47.244 Z-0.255
X-47.635 Z-0.239
X-48.165 Z-0.243
X-49.075 Z-0.245
X-49.373 Z-0.266
X-50.752 Z-0.297
X-51.109 Z-0.313
X-51.409 Z-0.31
X-52.073 Z-0.309
X-52.282 Z-0.328
X-52.353 Z-0.335
X-52.375 Z-0.331
X-52.392 Z-0.327
X-52.405
X-52.442 Y-49.802
X-52.475 Y-49.785
X-52.501 Y-49.759
X-52.518 Y-49.726
X-52.524 Y-49.689
Y-49.531
X-52.518 Y-49.494
X-52.501 Y-49.461
X-52.475 Y-49.434
X-52.442 Y-49.418
X-52.405 Y-49.412
X-52.388 Z-0.331
X-52.383 Z-0.334
X-52.359 Z-0.337
X-52.207 Z-0.314
X-52.029 Z-0.296
X-51.644 Z-0.29
X-51.266 Z-0.31
X-51.096 Z-0.313
X-50.731 Z-0.295
X-50.378 Z-0.277
X-49.891 Z-0.266
X-49.317 Z-0.26
X-49.159 Z-0.243
X-47.854 Z-0.239
X-46.947 Z-0.249
X-46.701 Z-0.235
X-46.367 Z-0.221
X-46.092 Z-0.229
X-45.898 Z-0.237
X-45.614 Z-0.228
X-44.932 Z-0.214
X-44.459 Z-0.225
X-44.24 Z-0.228
X-44.148 Z-0.235
X-44.08
X-42.489 Z-0.229
X-42.238 Z-0.242
X-40.231 Z-0.239
X-39.322 Z-0.229
X-38.999 Z-0.222
X-38.244 Z-0.228
X-38.05 Z-0.214
X-37.325 Z-0.21
X-37.128 Z-0.231
X-36.814 Z-0.236
X-36.173 Z-0.259
X-35.717 Z-0.247
X-34.887 Z-0.244
X-34.445 Z-0.241
X-34.024 Z-0.229
X-33.533 Z-0.227
X-32.705 Z-0.236
X-32.288 Z-0.256
X-31.619 Z-0.269
X-31.303 Z-0.304
X-31.176 Z-0.51
X-31.114 Z-0.518
X-31.061 Z-0.543
X-31.022 Z-0.59
X-30.874 Z-1.05
X-30.615 Z-1.509
X-30.394 Z-1.086
X-30.015 Z-0.442
X-29.984 Z-0.409
X-29.763 Z-0.32
X-29.712 Z-0.282
X-29.617 Z-0.271
X-29.214 Z-0.282
X-28.944 Z-0.274
X-28.765 Z-0.26
X-28.183 Z-0.245
X-27.398 Z-0.242
X-26.94 Z-0.256
X-26.374 Z-0.245
X-25.413 Z-0.239
X-25.083 Z-0.25
X-24.717 Z-0.244
X-23.943 Z-0.237
X-23.369 Z-0.234
X-22.641 Z-0.229
X-22.41 Z-0.245
X-21.694 Z-0.244
X-21.44 Z-0.235
X-19.701 Z-0.225
X-19.466 Z-0.237
X-19.188 Z-0.241
X-18.928 Z-0.237
X-18.543 Z-0.215
X-17.667 Z-0.209
X-17.083 Z-0.218
X-16.278 Z-0.237
X-15.542 Z-0.236
X-15.311 Z-0.233
X-14.473 Z-0.229
X-14.396 Z-0.239
X-14.238
X-13.304 Z-0.235
X-13.05 Z-0.253
X-12.611 Z-0.237
X-11.783 Z-0.234
X-11.463 Z-0.251
X-11.12 Z-0.252
X-10.294 Z-0.248
X-9.964 Z-0.258
X-9.84 Z-0.251
X-9.161 Z-0.247
X-8.792 Z-0.264
X-7.892 Z-0.268
X-7.733 Z-0.27
X-7.632 Z-0.279
X-7.464 Z-0.273
X-7.17 Z-0.255
X-6.033 Z-0.246
X-5.772 Z-0.239
X-5.295 Z-0.23
X-4.03 Z-0.222
X-3.881 Z-0.233
X-3.388 Z-0.231
X-2.99 Z-0.228
X-2.008 Z-0.221
X-1.277 Z-0.237
X-0.791 Z-0.235
X0.13 Z-0.239
X0.732 Z-0.228
X1.547 Z-0.245
X1.911
X2.524 Z-0.26
X2.872 Z-0.265
X3.061 Z-0.256
X3.838
X3.93 Z-0.255
X4.664 Z-0.25
X5.104 Z-0.237
X5.594 Z-0.242
X5.807 Z-0.236
X6.518 Z-0.227
X6.886 Z-0.225
X7.723 Z-0.221
X8.006 Z-0.242
X9.687 Z-0.244
X10.277 Z-0.257
X10.566
X10.956 Z-0.234
X11.523
X11.844 Z-0.259
X12.263 Z-0.26
X12.808 Z-0.273
X13.294 Z-0.266
X13.532 Z-0.253
X14.019 Z-0.249
X14.629 Z-0.252
X14.864 Z-0.257
X15.487 Z-0.243
X16.047
X16.203 Z-0.236
X16.496 Z-0.23
X16.816 Z-0.227
X17.899
X17.986
X18.434 Z-0.218
X18.717 Z-0.229
X19.156 Z-0.239
X20.162 Z-0.237
X21.123 Z-0.235
X21.339 Z-0.222
X21.89 Z-0.218
X22.195 Z-0.223
X22.707 Z-0.224
X23.398 Z-0.231
X24.811 Z-0.23
X25.434 Z-0.269
X25.629 Z-0.271
X26.394 Z-0.252
X27.132 Z-0.235
X27.855 Z-0.247
X28.696 Z-0.261
X28.758 Z-0.27
X28.788 Z-0.274
X29.489 Z-0.266
X29.601 Z-0.259
X30.307
X31.158 Z-0.293
X31.27 Z-0.291
X31.568 Z-0.281
X32.321 Z-0.253
X33.192 Z-0.249
X33.449 Z-0.263
X33.935 Z-0.244
X34.331 Z-0.251
X35.978 Z-0.252
X36.743 Z-0.243
X37.425
X38.084 Z-0.24
X38.427 Z-0.253
X39.563 Z-0.275
X39.979 Z-0.262
X40.714
X41.593 Z-0.261
X42.115 Z-0.254
X42.799 Z-0.252
X43.462 Z-0.27
X44.576 Z-0.274
X44.788 Z-0.29
X45.225 Z-0.276
X46.036 Z-0.278
X46.474 Z-0.264
X47.017 Z-0.269
X48.46 Z-0.272
X49.24 Z-0.271
X50.192 Z-0.287
X50.638 Z-0.298
X51.379 Z-0.279
X52.003 Z-0.276
X52.359 Z-0.289
X52.378 Z-0.285
X52.396 Z-0.281
X52.416 Y-49.41
X52.436 Y-49.405
X52.455 Y-49.396 Z-0.282
X52.472 Y-49.384
X52.487 Y-49.369
X52.498 Y-49.352 Z-0.283
X52.507 Y-49.334
X52.513 Y-49.314 Z-0.284
X52.514 Y-49.293
Y-49.134 Z-0.288
X52.513 Y-49.114 Z-0.289
X52.507 Y-49.094
X52.498 Y-49.075 Z-0.29
X52.487 Y-49.058
X52.472 Y-49.043
X52.455 Y-49.031 Z-0.291
X52.436 Y-49.023
X52.416 Y-49.017
X52.396 Y-49.016
X52.395
X52.378 Z-0.295
X52.359 Z-0.299
X51.713 Z-0.283
X51.07 Z-0.299
X50.651 Z-0.304
X49.867 Z-0.291
X49.6 Z-0.281
X48.557 Z-0.277
X48.007 Z-0.27
X46.547 Z-0.275
X44.999 Z-0.277
X44.811 Z-0.286
X44.562 Z-0.274
X43.422 Z-0.269
X42.789 Z-0.254
X41.876 Z-0.259
X41.371 Z-0.269
X41.026 Z-0.249
X39.631 Z-0.255
X39.217 Z-0.269
X38.513 Z-0.261
X37.901 Z-0.244
X37.008 Z-0.236
X36.555 Z-0.241
X36.184 Z-0.254
X34.792
X34.415 Z-0.236
X33.559 Z-0.24
X33.241 Z-0.251
X32.373 Z-0.253
X31.804 Z-0.27
X31.288 Z-0.276
X30.354 Z-0.279
X29.706 Z-0.266
X29.018 Z-0.262
X28.802 Z-0.264
X28.677 Z-0.256
X27.342 Z-0.245
X26.66 Z-0.241
X25.755 Z-0.256
X25.242 Z-0.253
X24.424 Z-0.231
X23.614 Z-0.229
X23.079 Z-0.221
X22.231 Z-0.225
X21.979 Z-0.218
X21.327 Z-0.222
X21.107 Z-0.235
X20.395 Z-0.243
X19.837 Z-0.232
X19.534 Z-0.227
X19.033 Z-0.225
X18.823 Z-0.206
X18.044 Z-0.208
X17.857 Z-0.219
X17.127 Z-0.221
X16.429 Z-0.23
X15.738 Z-0.234
X15.287 Z-0.23
X14.885 Z-0.241
X14.159 Z-0.243
X13.267 Z-0.262
X12.704 Z-0.252
X11.996 Z-0.263
X11.39 Z-0.245
X10.212 Z-0.25
X10.084 Z-0.249
X9.562 Z-0.244
X9.172 Z-0.241
X8.602 Z-0.23
X8.231 Z-0.22
X7.818 Z-0.233
X7.177 Z-0.226
X6.872 Z-0.238
X6.191 Z-0.242
X5.056 Z-0.255
X4.092 Z-0.262
X3.912 Z-0.259
X3.692 Z-0.253
X3.036 Z-0.257
X2.298 Z-0.222
X2.012 Z-0.209
X1.594 Z-0.219
X1.154 Z-0.239
X0.419
X0.109 Z-0.23
X-0.864 Z-0.233
X-0.973 Z-0.223
X-1.807 Z-0.228
X-1.903 Z-0.234
X-2.359 Z-0.226
X-2.867 Z-0.236
X-3.878 Z-0.232
X-4.012 Z-0.222
X-4.944 Z-0.227
X-6.05 Z-0.245
X-7.023 Z-0.249
X-7.157 Z-0.25
X-7.31 Z-0.241
X-8.066 Z-0.245
X-8.322 Z-0.263
X-8.595 Z-0.265
X-8.784 Z-0.249
X-11.475 Z-0.248
X-12.166 Z-0.238
X-12.609 Z-0.245
X-12.794 Z-0.254
X-13.277 Z-0.247
X-13.757 Z-0.243
X-14.269 Z-0.257
X-14.745 Z-0.233
X-15.693 Z-0.228
X-16.499 Z-0.241
X-17.343 Z-0.222
X-17.9 Z-0.218
X-17.978 Z-0.222
X-18.955 Z-0.233
X-19.289 Z-0.249
X-19.743 Z-0.231
X-21.221 Z-0.232
X-21.726 Z-0.239
X-22.046 Z-0.228
X-23.141 Z-0.226
X-24.118 Z-0.228
X-24.609 Z-0.232
X-24.806 Z-0.237
X-26.394 Z-0.245
X-26.939 Z-0.256
X-27.274 Z-0.249
X-27.515 Z-0.241
X-28.232 Z-0.246
X-28.717 Z-0.261
X-28.874 Z-0.334
X-28.998 Z-0.349
X-29.082 Z-0.395
X-29.318 Z-0.411
X-29.422 Z-0.441
X-29.513 Z-0.497
X-29.63 Z-0.613
X-29.869 Z-0.909
X-29.927 Z-1.013
X-30.145 Z-1.47
X-30.308 Z-0.892
X-30.478 Z-0.54
X-30.609 Z-0.315
X-30.767 Z-0.307
X-31.131 Z-0.284
X-31.283 Z-0.269
X-32.252 Z-0.257
X-32.471 Z-0.242
X-32.994 Z-0.232
X-34.234 Z-0.235
X-34.382 Z-0.241
X-34.858
X-35.765 Z-0.246
X-36.073 Z-0.255
X-36.747 Z-0.231
X-37.039 Z-0.229
X-37.313 Z-0.21
X-38.049 Z-0.214
X-38.252 Z-0.228
X-38.933 Z-0.222
X-39.648 Z-0.228
X-40.13 Z-0.236
X-40.585 Z-0.214
X-41.05 Z-0.225
X-41.385 Z-0.241
X-42.425 Z-0.239
X-43.77 Z-0.228
X-44.143 Z-0.229
X-45.428 Z-0.232
X-45.708 Z-0.235
X-45.98 Z-0.212
X-46.759 Z-0.215
X-47.008 Z-0.236
X-47.988
X-48.126 Z-0.245
X-48.66 Z-0.229
X-49.069 Z-0.237
X-49.296 Z-0.25
X-50.206 Z-0.266
X-50.584 Z-0.287
X-50.999 Z-0.321
X-51.386 Z-0.282
X-52.165 Z-0.286
X-52.359 Z-0.308
X-52.381 Z-0.305
X-52.399 Z-0.3
X-52.419 Y-49.014 Z-0.301
X-52.439 Y-49.008
X-52.458 Y-49.
X-52.475 Y-48.988
X-52.49 Y-48.973 Z-0.302
X-52.501 Y-48.956
X-52.51 Y-48.937
X-52.516 Y-48.917 Z-0.303
X-52.517 Y-48.897
Y-48.738 Z-0.307
X-52.516 Y-48.718 Z-0.308
X-52.51 Y-48.698
X-52.501 Y-48.679 Z-0.309
X-52.49 Y-48.662
X-52.475 Y-48.647
X-52.458 Y-48.635 Z-0.31
X-52.439 Y-48.627
X-52.419 Y-48.621
X-52.399 Y-48.619
X-52.398
X-52.381 Z-0.314
X-52.359 Z-0.318
X-52.073 Z-0.287
X-51.483 Z-0.282
X-51.166 Z-0.317
X-50.957 Z-0.311
X-50.075 Z-0.256
X-49.394 Z-0.249
X-49.181 Z-0.231
X-48.365 Z-0.228
X-48.005 Z-0.241
X-47.681 Z-0.228
X-47.301 Z-0.22
X-46.815 Z-0.226
X-46.673 Z-0.216
X-46.095 Z-0.212
X-45.599 Z-0.246
X-45.458 Z-0.235
X-45.069 Z-0.23
X-44.861 Z-0.218
X-44.413 Z-0.213
X-44.093 Z-0.222
X-43.859 Z-0.211
X-43.238 Z-0.216
X-42.525 Z-0.214
X-42.321 Z-0.233
X-41.8 Z-0.24
X-41.273 Z-0.227
X-41.088 Z-0.215
X-40.261 Z-0.212
X-39.931 Z-0.229
X-38.936 Z-0.22
X-38.366 Z-0.237
X-37.643 Z-0.231
X-37.306 Z-0.228
X-36.869 Z-0.231
X-36.289 Z-0.247
X-35.613 Z-0.244
X-34.873 Z-0.243
X-34.309 Z-0.239
X-33.912 Z-0.23
X-32.495 Z-0.243
X-32.216 Z-0.256
X-31.417 Z-0.266
X-30.768 Z-0.294
X-30.356 Z-0.305
X-30.308 Z-0.313
X-30.214 Z-0.341
X-29.911 Z-0.895
X-29.679 Z-1.676
X-29.511 Z-1.351
X-29.474 Z-1.296
X-29.228 Z-0.681
X-29.196 Z-0.664
X-28.928 Z-0.505
X-28.695 Z-0.346
X-28.622 Z-0.307
X-28.387 Z-0.288
X-28.287 Z-0.276
X-28.115 Z-0.252
X-26.898 Z-0.251
X-26.007
X-25.572 Z-0.238
X-24.654 Z-0.234
X-24.461 Z-0.229
X-23.232 Z-0.226
X-22.453 Z-0.224
X-21.607 Z-0.231
X-20.853 Z-0.232
X-20.439 Z-0.241
X-20.045
X-19.163 Z-0.252
X-18.779 Z-0.231
X-17.563 Z-0.222
X-17.139 Z-0.229
X-16.317 Z-0.236
X-15.962 Z-0.231
X-15.662 Z-0.224
X-15.327 Z-0.221
X-14.593 Z-0.217
X-14.282 Z-0.251
X-13.529 Z-0.245
X-13.349 Z-0.25
X-12.679 Z-0.252
X-12.498 Z-0.245
X-11.968 Z-0.24
X-11.685 Z-0.252
X-11.58 Z-0.254
X-10.43 Z-0.253
X-8.932 Z-0.247
X-8.561 Z-0.239
X-7.865 Z-0.24
X-7.329 Z-0.239
X-6.773 Z-0.241
X-6.113 Z-0.247
X-5.531 Z-0.241
X-5.006 Z-0.234
X-4.536 Z-0.242
X-4.276 Z-0.236
X-2.862 Z-0.247
X-2.739 Z-0.24
X-2.397 Z-0.218
X-1.813 Z-0.212
X-1.557 Z-0.222
X-1.265 Z-0.223
X-0.818 Z-0.231
X0.174 Z-0.232
X1.105 Z-0.236
X1.202 Z-0.227
X1.47 Z-0.211
X2.324 Z-0.207
X2.894 Z-0.244
X3.465 Z-0.259
X4.052 Z-0.24
X4.733 Z-0.242
X4.998 Z-0.241
X5.844 Z-0.247
X7.54 Z-0.239
X7.787 Z-0.223
X8.641 Z-0.219
X8.854 Z-0.23
X9.34 Z-0.241
X10.048 Z-0.243
X10.302 Z-0.251
X11.387 Z-0.239
X12.052 Z-0.255
X12.426 Z-0.243
X13.273 Z-0.236
X13.462 Z-0.25
X13.839 Z-0.246
X14.97 Z-0.231
X15.952 Z-0.232
X16.244
X16.678 Z-0.208
X17.36 Z-0.201
X17.697 Z-0.211
X17.978 Z-0.217
X18.127 Z-0.21
X18.71 Z-0.206
X19.028 Z-0.224
X19.24 Z-0.227
X19.956 Z-0.234
X20.325 Z-0.237
X20.556 Z-0.253
X21.393 Z-0.243
X21.748 Z-0.23
X22.165 Z-0.24
X22.67 Z-0.221
X24.283 Z-0.231
X25.264 Z-0.254
X25.775 Z-0.256
X26.376 Z-0.243
X27.593 Z-0.245
X28.773 Z-0.257
X28.968 Z-0.258
X29.751 Z-0.264
X30.001 Z-0.261
X30.682 Z-0.255
X30.854 Z-0.267
X31.811 Z-0.259
X32.092 Z-0.254
X32.542 Z-0.244
X33.024 Z-0.255
X33.63 Z-0.241
X34.279 Z-0.236
X34.582 Z-0.25
X35.343 Z-0.264
X35.489 Z-0.259
X35.824 Z-0.242
X36.443
X36.625 Z-0.239
X37.487 Z-0.231
X38.26 Z-0.252
X38.785 Z-0.255
X39.124 Z-0.248
X41.461 Z-0.241
X41.754 Z-0.267
X42.088 Z-0.262
X43.066
X43.744 Z-0.26
X44.319 Z-0.274
X44.883 Z-0.285
X45.013 Z-0.278
X47.336 Z-0.275
X48.197 Z-0.295
X48.62 Z-0.276
X49.739 Z-0.28
X49.872 Z-0.291
X50.257 Z-0.3
X50.791 Z-0.302
X51.273 Z-0.285
X52.359 Z-0.282
X52.377 Z-0.278
X52.38 Z-0.276
X52.397 Z-0.272
X52.434 Y-48.614
X52.467 Y-48.597
X52.494 Y-48.57
X52.51 Y-48.537
X52.516 Y-48.5
Y-48.342
X52.51 Y-48.305
X52.494 Y-48.272
X52.467 Y-48.246
X52.434 Y-48.229
X52.397 Y-48.223
X52.394
X52.376 Z-0.276
X52.359 Z-0.28
X51.372 Z-0.287
X51.094 Z-0.298
X50.415 Z-0.289
X50.074 Z-0.274
X49.609 Z-0.268
X48.977 Z-0.275
X48.585 Z-0.293
X48.271
X47.638 Z-0.289
X47.001 Z-0.275
X46.154 Z-0.272
X45.872 Z-0.268
X45.308 Z-0.271
X45.026 Z-0.275
X44.467 Z-0.273
X43.88 Z-0.257
X42.116 Z-0.255
X41.884 Z-0.263
X41.628 Z-0.241
X38.976 Z-0.248
X38.688 Z-0.255
X38.104 Z-0.253
X37.71 Z-0.231
X36.864 Z-0.235
X36.609 Z-0.242
X35.688 Z-0.241
X35.258 Z-0.258
X34.548 Z-0.255
X34.288 Z-0.249
X33.221 Z-0.243
X32.917 Z-0.24
X32.126 Z-0.242
X31.576 Z-0.255
X30.423 Z-0.249
X29.886 Z-0.253
X29.568 Z-0.234
X28.809 Z-0.237
X28.408 Z-0.25
X27.386 Z-0.246
X26.631 Z-0.244
X26.114 Z-0.258
X25.846 Z-0.255
X25.677 Z-0.241
X24.762 Z-0.243
X23.892 Z-0.227
X22.556 Z-0.233
X22.117 Z-0.245
X21.761 Z-0.257
X21.375 Z-0.264
X21.162 Z-0.249
X20.384 Z-0.246
X19.878 Z-0.237
X19.604 Z-0.231
X19.251 Z-0.211
X19.021 Z-0.194
X18.316 Z-0.187
X17.796 Z-0.208
X17.541 Z-0.201
X16.559 Z-0.207
X16.074 Z-0.234
X15.345 Z-0.215
X14.732 Z-0.22
X14.108 Z-0.239
X12.465
X11.955 Z-0.259
X11.597 Z-0.239
X10.557 Z-0.244
X10.369 Z-0.257
X10.007 Z-0.244
X9.239
X8.633 Z-0.23
X8.274 Z-0.219
X7.926 Z-0.228
X7.66 Z-0.24
X6.57 Z-0.243
X6.312 Z-0.252
X6.035 Z-0.25
X5.515 Z-0.24
X3.864 Z-0.241
X3.356 Z-0.261
X3.08 Z-0.252
X2.294 Z-0.21
X1.492 Z-0.213
X1.22 Z-0.221
X0.101 Z-0.23
X-0.774 Z-0.233
X-1.353 Z-0.225
X-1.597 Z-0.212
X-2.485 Z-0.216
X-2.704 Z-0.226
X-3. Z-0.245
X-3.174 Z-0.237
X-4.488 Z-0.24
X-5.087 Z-0.244
X-5.567 Z-0.237
X-6.142 Z-0.244
X-6.412 Z-0.251
X-6.736 Z-0.231
X-7.541 Z-0.236
X-7.77 Z-0.238
X-9.522 Z-0.241
X-9.875 Z-0.265
X-10.253 Z-0.26
X-10.759 Z-0.262
X-10.847 Z-0.269
X-11.585 Z-0.266
X-11.85 Z-0.248
X-12.694 Z-0.254
X-13.171 Z-0.251
X-13.311 Z-0.244
X-14.275 Z-0.24
X-14.465 Z-0.215
X-15.379 Z-0.22
X-15.669 Z-0.229
X-17.329
X-17.573 Z-0.238
X-19.195 Z-0.241
X-19.348 Z-0.231
X-20.221 Z-0.229
X-20.992 Z-0.222
X-21.275 Z-0.228
X-21.541 Z-0.242
X-22.032 Z-0.226
X-22.81 Z-0.231
X-23.622 Z-0.24
X-24.178 Z-0.235
X-24.589 Z-0.23
X-25.451 Z-0.24
X-26.36 Z-0.258
X-27.67 Z-0.25
X-27.917 Z-0.258
X-28.21 Z-0.331
X-28.504 Z-0.462
X-28.591 Z-0.532
X-28.662 Z-0.63
X-28.727 Z-0.776
X-28.832 Z-1.032
X-29.074 Z-1.685
X-29.144 Z-1.847
X-29.152 Z-1.862
X-29.216 Z-1.759
X-29.415 Z-1.064
X-29.513 Z-0.728
X-29.816 Z-0.338
X-30.138 Z-0.295
X-30.911 Z-0.292
X-31.148 Z-0.28
X-31.259 Z-0.265
X-31.817 Z-0.255
X-32.341 Z-0.253
X-32.468 Z-0.244
X-33.808 Z-0.245
X-34.149 Z-0.239
X-34.843
X-35.441 Z-0.235
X-36.011 Z-0.24
X-36.283 Z-0.247
X-36.752 Z-0.236
X-37.495 Z-0.237
X-37.869 Z-0.218
X-38.231 Z-0.224
X-38.39 Z-0.225
X-38.654 Z-0.218
X-40.233 Z-0.219
X-40.82 Z-0.212
X-41.687 Z-0.218
X-42.04 Z-0.228
X-42.232 Z-0.225
X-42.382 Z-0.213
X-42.762 Z-0.192
X-43.444 Z-0.195
X-43.55 Z-0.201
X-43.988
X-44.22 Z-0.213
X-44.984 Z-0.217
X-45.19 Z-0.23
X-45.597 Z-0.235
X-46.146 Z-0.218
X-47.688 Z-0.224
X-48.022 Z-0.243
X-48.644 Z-0.228
X-49.061 Z-0.235
X-49.17 Z-0.245
X-50.094 Z-0.259
X-51.18 Z-0.303
X-51.422 Z-0.313
X-51.952
X-52.359 Z-0.334
X-52.379 Z-0.33
X-52.396 Z-0.326
X-52.398
X-52.418 Y-48.221
X-52.438 Y-48.216
X-52.457 Y-48.207 Z-0.325
X-52.474 Y-48.195
X-52.489 Y-48.181 Z-0.324
X-52.501 Y-48.164
X-52.509 Y-48.145 Z-0.323
X-52.515 Y-48.125 Z-0.322
X-52.517 Y-48.104
Y-47.946 Z-0.316
X-52.515 Y-47.925
X-52.509 Y-47.905 Z-0.315
X-52.501 Y-47.886 Z-0.314
X-52.489 Y-47.869
X-52.474 Y-47.855 Z-0.313
X-52.457 Y-47.843
X-52.438 Y-47.834
X-52.418 Y-47.829
X-52.398 Y-47.827
X-52.38 Z-0.317
X-52.359 Z-0.32
X-52.16 Z-0.302
X-51.146 Z-0.299
X-50.292 Z-0.264
X-49.718 Z-0.255
X-49.512 Z-0.248
X-48.917 Z-0.238
X-48.373 Z-0.227
X-48.078 Z-0.243
X-47.666 Z-0.224
X-45.979 Z-0.218
X-45.805 Z-0.225
X-45.584 Z-0.23
X-45.139 Z-0.213
X-44.803 Z-0.228
X-44.644 Z-0.225
X-44.422 Z-0.219
X-44.103 Z-0.206
X-43.578 Z-0.201
X-43.472 Z-0.195
X-42.701 Z-0.192
X-42.267 Z-0.222
X-42.084 Z-0.221
X-40.856 Z-0.214
X-40.763 Z-0.223
X-40.541
X-40.258 Z-0.219
X-39.317 Z-0.217
X-38.677
X-38.409 Z-0.214
X-37.58 Z-0.21
X-37.266 Z-0.232
X-37.183 Z-0.235
X-36.48 Z-0.231
X-36.202 Z-0.24
X-36.02 Z-0.239
X-34.835 Z-0.238
X-34.675 Z-0.239
X-33.305 Z-0.247
X-33.014 Z-0.24
X-32.013 Z-0.249
X-31.61 Z-0.255
X-31.283 Z-0.265
X-31.118 Z-0.286
X-31.015 Z-0.296
X-30.334 Z-0.29
X-30.12 Z-0.295
X-29.733 Z-0.321
X-29.531 Z-0.339
X-29.423 Z-0.364
X-29.231 Z-0.608
X-29.13 Z-0.8
X-28.998 Z-1.274
X-28.836 Z-1.815
X-28.747 Z-1.678
X-28.636 Z-1.381
X-28.435 Z-0.921
X-28.347 Z-0.857
X-28.113 Z-0.499
X-27.817 Z-0.325
X-27.762 Z-0.312
X-26.931 Z-0.272
X-26.491 Z-0.263
X-26.242 Z-0.248
X-25.602 Z-0.233
X-25.149 Z-0.227
X-24.176 Z-0.221
X-23.684 Z-0.236
X-23.043 Z-0.227
X-22.362 Z-0.236
X-21.499 Z-0.239
X-21.256 Z-0.225
X-19.852 Z-0.227
X-19.489 Z-0.231
X-19.059 Z-0.239
X-18.537 Z-0.24
X-17.361 Z-0.23
X-15.681
X-15.323 Z-0.216
X-14.5 Z-0.212
X-14.046 Z-0.233
X-13.453 Z-0.241
X-12.869 Z-0.244
X-12.573 Z-0.249
X-12.144 Z-0.239
X-11.85 Z-0.248
X-11.598 Z-0.264
X-11.287 Z-0.255
X-10.564 Z-0.27
X-9.906 Z-0.266
X-9.548 Z-0.243
X-7.936 Z-0.239
X-7.552 Z-0.236
X-6.735 Z-0.231
X-6.489 Z-0.244
X-6.293 Z-0.236
X-5.904 Z-0.231
X-4.736 Z-0.22
X-4.21 Z-0.23
X-2.931 Z-0.237
X-2.691 Z-0.227
X-1.991 Z-0.216
X-1.603 Z-0.226
X-0.835 Z-0.231
X-0.25 Z-0.232
X0.236 Z-0.226
X1.491 Z-0.224
X1.776
X2.129
X2.959 Z-0.254
X3.828 Z-0.259
X4.116 Z-0.245
X5.074 Z-0.247
X5.881 Z-0.254
X6.344 Z-0.232
X7.57 Z-0.229
X7.816 Z-0.248
X8.013
X8.495 Z-0.249
X9.018 Z-0.252
X9.416 Z-0.271
X9.717 Z-0.256
X10.143 Z-0.261
X10.503 Z-0.252
X11.333 Z-0.245
X11.654 Z-0.26
X11.919 Z-0.261
X12.454 Z-0.256
X12.583 Z-0.25
X13.248 Z-0.239
X14.173 Z-0.24
X14.378 Z-0.229
X14.695 Z-0.22
X15.405 Z-0.215
X15.932 Z-0.23
X16.319 Z-0.221
X17.119 Z-0.209
X17.619 Z-0.212
X18.022 Z-0.182
X18.679 Z-0.178
X19.122 Z-0.188
X19.326 Z-0.215
X19.674 Z-0.219
X20.042 Z-0.239
X20.176 Z-0.247
X21.217 Z-0.248
X21.586 Z-0.261
X22.157 Z-0.249
X22.592 Z-0.231
X23.808 Z-0.226
X24.074 Z-0.234
X24.512 Z-0.237
X24.593 Z-0.244
X25.608 Z-0.241
X25.821 Z-0.249
X26.326
X26.792 Z-0.237
X27.182 Z-0.248
X28.357 Z-0.249
X28.796 Z-0.237
X29.586 Z-0.234
X29.968 Z-0.251
X30.363 Z-0.242
X30.937 Z-0.237
X31.211 Z-0.25
X31.669 Z-0.254
X32.153 Z-0.239
X33.767 Z-0.231
X34.298 Z-0.25
X35.306 Z-0.252
X35.668 Z-0.238
X36.257 Z-0.233
X36.562 Z-0.258
X36.998 Z-0.24
X37.533 Z-0.235
X38.099 Z-0.262
X39.125 Z-0.251
X39.762
X40.012 Z-0.249
X40.542 Z-0.259
X40.814 Z-0.247
X41.495 Z-0.244
X41.878 Z-0.259
X42.278 Z-0.252
X43.253 Z-0.254
X43.935 Z-0.257
X44.375 Z-0.271
X44.891 Z-0.275
X45.011 Z-0.27
X45.995 Z-0.268
X46.23 Z-0.275
X46.902 Z-0.28
X48.279 Z-0.293
X48.741 Z-0.297
X49.178 Z-0.27
X49.906 Z-0.266
X50.425 Z-0.279
X50.65 Z-0.282
X51.176 Z-0.288
X51.827 Z-0.286
X52.359 Z-0.28
X52.376 Z-0.276
X52.394 Z-0.272
X52.395
X52.415 Y-47.825
X52.435 Y-47.82
X52.454 Y-47.811
X52.471 Y-47.799 Z-0.273
X52.486 Y-47.784
X52.498 Y-47.767 Z-0.274
X52.507 Y-47.749
X52.512 Y-47.729 Z-0.275
X52.514 Y-47.708 Z-0.276
Y-47.549 Z-0.281
X52.512 Y-47.529 Z-0.282
X52.507 Y-47.509
X52.498 Y-47.49 Z-0.283
X52.486 Y-47.473 Z-0.284
X52.471 Y-47.458
X52.454 Y-47.447
X52.435 Y-47.438 Z-0.285
X52.415 Y-47.432
X52.395 Y-47.431
X52.377 Z-0.289
X52.359 Z-0.293
X52.191 Z-0.29
X51.29 Z-0.283
X50.343 Z-0.277
X49.775 Z-0.266
X49.309 Z-0.271
X49.096 Z-0.297
X47.636 Z-0.285
X46.566 Z-0.282
X46.308 Z-0.284
X45.701 Z-0.266
X45.097 Z-0.27
X44.965 Z-0.274
X43.392 Z-0.26
X42.851 Z-0.251
X42.362 Z-0.255
X41.959 Z-0.264
X41.132 Z-0.256
X40.696 Z-0.268
X39.204 Z-0.267
X38.927 Z-0.279
X38.337 Z-0.26
X37.761 Z-0.257
X37.143 Z-0.259
X36.856 Z-0.258
X36.539 Z-0.229
X35.663 Z-0.233
X35.247 Z-0.247
X34.383 Z-0.25
X33.596 Z-0.231
X32.083 Z-0.236
X31.803 Z-0.248
X31.268 Z-0.25
X31.121 Z-0.235
X30.293 Z-0.238
X30.063 Z-0.251
X29.82 Z-0.249
X29.513 Z-0.237
X28.658 Z-0.244
X28.402 Z-0.258
X27.897 Z-0.25
X27.592 Z-0.23
X27.154 Z-0.223
X26.418 Z-0.235
X25.872 Z-0.256
X25.701 Z-0.254
X24.871 Z-0.239
X23.745 Z-0.234
X23.442 Z-0.226
X22.872 Z-0.23
X22.461 Z-0.249
X20.504 Z-0.246
X19.709 Z-0.218
X19.31 Z-0.215
X19.041 Z-0.188
X18.634 Z-0.178
X18.105 Z-0.182
X17.592 Z-0.213
X16.92 Z-0.207
X16.239 Z-0.215
X15.685 Z-0.23
X15.101 Z-0.22
X14.49 Z-0.227
X14.201 Z-0.241
X13.338 Z-0.242
X12.739 Z-0.256
X11.783 Z-0.255
X11.616 Z-0.244
X10.334 Z-0.245
X9.855 Z-0.271
X8.971 Z-0.251
X8.445 Z-0.256
X7.985 Z-0.253
X7.731 Z-0.224
X6.806 Z-0.228
X6.363 Z-0.234
X6.068 Z-0.247
X3.795 Z-0.252
X3.406 Z-0.256
X2.472 Z-0.263
X2.209 Z-0.265
X2.013 Z-0.249
X1.418 Z-0.231
X1.073 Z-0.224
X0.445 Z-0.234
X0.287 Z-0.242
X0.129 Z-0.232
X-0.475 Z-0.231
X-0.817 Z-0.223
X-1.478 Z-0.227
X-1.618 Z-0.24
X-2.218 Z-0.244
X-2.438 Z-0.254
X-3.346 Z-0.226
X-3.955 Z-0.228
X-4.45 Z-0.219
X-5.433 Z-0.225
X-6.017 Z-0.231
X-6.283 Z-0.24
X-6.948 Z-0.232
X-7.922 Z-0.234
X-8.564 Z-0.257
X-8.773 Z-0.254
X-9.392 Z-0.245
X-9.863 Z-0.251
X-10.032 Z-0.262
X-10.396 Z-0.263
X-11.15 Z-0.253
X-11.506 Z-0.25
X-11.937 Z-0.22
X-12.469 Z-0.225
X-12.711 Z-0.237
X-13.333 Z-0.229
X-14.014
X-14.204 Z-0.228
X-14.607 Z-0.212
X-15.191 Z-0.214
X-15.786 Z-0.24
X-16.937 Z-0.236
X-17.77 Z-0.229
X-18.678 Z-0.237
X-19.354 Z-0.239
X-19.774 Z-0.236
X-20.057 Z-0.226
X-20.812 Z-0.231
X-21.095 Z-0.251
X-21.813 Z-0.237
X-22.238 Z-0.235
X-22.75 Z-0.227
X-23.442 Z-0.231
X-23.676 Z-0.237
X-23.942 Z-0.22
X-25.081 Z-0.228
X-25.644 Z-0.231
X-26.206 Z-0.237
X-26.66 Z-0.266
X-26.846 Z-0.289
X-27.152 Z-0.292
X-27.396 Z-0.348
X-27.449 Z-0.362
X-27.727 Z-0.487
X-27.746 Z-0.503
X-28.042 Z-0.94
X-28.331 Z-1.832
X-28.447 Z-1.963
X-28.718 Z-1.075
X-28.971 Z-0.492
X-29.021 Z-0.395
X-29.336 Z-0.325
X-29.975 Z-0.288
X-30.834 Z-0.286
X-31.29 Z-0.254
X-31.759 Z-0.247
X-32.076 Z-0.231
X-33.277 Z-0.239
X-33.392 Z-0.243
X-34.308 Z-0.247
X-34.671 Z-0.254
X-35.303 Z-0.237
X-36.082 Z-0.243
X-36.262 Z-0.241
X-36.52 Z-0.231
X-37.138 Z-0.236
X-37.248 Z-0.237
X-37.681 Z-0.21
X-38.315 Z-0.214
X-38.427 Z-0.216
X-38.632 Z-0.204
X-39.195 Z-0.209
X-40.138 Z-0.218
X-40.443 Z-0.224
X-40.831 Z-0.215
X-41.16 Z-0.203
X-42.214 Z-0.215
X-42.848 Z-0.209
X-44.514 Z-0.206
X-44.742 Z-0.21
X-45.37 Z-0.205
X-45.6 Z-0.213
X-45.848 Z-0.226
X-46.113 Z-0.218
X-47.095 Z-0.22
X-47.633 Z-0.227
X-47.917 Z-0.237
X-48.158 Z-0.219
X-49.05 Z-0.223
X-49.696 Z-0.253
X-50.085 Z-0.258
X-50.393 Z-0.262
X-50.587 Z-0.276
X-50.894 Z-0.285
X-51.108 Z-0.301
X-52.084 Z-0.303
X-52.359 Z-0.327
X-52.38 Z-0.323
X-52.398 Z-0.319
X-52.4
X-52.421 Y-47.429 Z-0.32
X-52.441 Y-47.424
X-52.459 Y-47.415
X-52.476 Y-47.403 Z-0.321
X-52.491 Y-47.388 Z-0.322
X-52.503 Y-47.371 Z-0.323
X-52.512 Y-47.353 Z-0.324
X-52.517 Y-47.333 Z-0.325
X-52.519 Y-47.312 Z-0.326
Y-47.153 Z-0.335
X-52.517 Y-47.133 Z-0.336
X-52.512 Y-47.113 Z-0.337
X-52.503 Y-47.094 Z-0.338
X-52.491 Y-47.077 Z-0.339
X-52.476 Y-47.062 Z-0.34
X-52.459 Y-47.05 Z-0.341
X-52.441 Y-47.042
X-52.421 Y-47.036
X-52.4 Y-47.034
X-52.382 Z-0.345
X-52.359 Z-0.349
X-52.219 Z-0.328
X-51.912 Z-0.307
X-51.112 Z-0.303
X-50.974 Z-0.283
X-50.743 Z-0.276
X-50.438 Z-0.264
X-50.077 Z-0.258
X-49.908 Z-0.254
X-49.531 Z-0.244
X-49.146 Z-0.221
X-48.089 Z-0.216
X-47.858 Z-0.235
X-47.687 Z-0.225
X-46.976 Z-0.221
X-46.728 Z-0.205
X-46.144 Z-0.202
X-45.725 Z-0.213
X-45.552 Z-0.206
X-43.839
X-42.633 Z-0.212
X-41.871 Z-0.205
X-41.019 Z-0.198
X-40.736 Z-0.208
X-40.355 Z-0.222
X-39.989 Z-0.216
X-39.338 Z-0.209
X-38.471 Z-0.204
X-38.175 Z-0.229
X-37.958
X-37.251 Z-0.245
X-36.925 Z-0.241
X-36.195 Z-0.247
X-35.368 Z-0.245
X-34.56 Z-0.251
X-34.285 Z-0.246
X-33.325 Z-0.243
X-33.1 Z-0.237
X-31.905 Z-0.231
X-31.623 Z-0.25
X-31.379 Z-0.251
X-31.092 Z-0.26
X-30.572 Z-0.274
X-30.1 Z-0.287
X-29.668 Z-0.298
X-29.437 Z-0.304
X-29.081 Z-0.313
X-28.919 Z-0.322
X-28.735 Z-0.423
X-28.676 Z-0.437
X-28.63 Z-0.457
X-28.428 Z-0.917
X-28.345 Z-1.118
X-28.05 Z-1.977
X-27.948 Z-1.858
X-27.753 Z-1.342
X-27.648 Z-1.097
X-27.471 Z-0.86
X-27.352 Z-0.653
X-27.32 Z-0.605
X-26.947 Z-0.335
X-26.848 Z-0.314
X-26.402 Z-0.25
X-25.919 Z-0.234
X-25.026 Z-0.237
X-24.679 Z-0.224
X-23.794 Z-0.22
X-23.54 Z-0.232
X-22.875 Z-0.227
X-22.298 Z-0.24
X-22.115 Z-0.266
X-21.58 Z-0.291
X-20.752 Z-0.246
X-20.266 Z-0.248
X-19.218 Z-0.25
X-18.691 Z-0.234
X-16.967 Z-0.231
X-16.054 Z-0.232
X-15.573 Z-0.238
X-15.447 Z-0.235
X-14.715 Z-0.225
X-14.289 Z-0.241
X-14.076 Z-0.228
X-12.791 Z-0.231
X-12.588 Z-0.223
X-11.799 Z-0.22
X-11.514 Z-0.236
X-10.636 Z-0.256
X-10.086 Z-0.258
X-9.841 Z-0.245
X-8.712 Z-0.251
X-8.555 Z-0.252
X-8.067 Z-0.225
X-7.364 Z-0.22
X-7.195 Z-0.229
X-7.061 Z-0.232
X-6.331 Z-0.249
X-5.826 Z-0.239
X-4.692 Z-0.219
X-4.067 Z-0.23
X-3.867 Z-0.22
X-3.157 Z-0.214
X-2.579 Z-0.245
X-2.18 Z-0.256
X-1.795 Z-0.24
X-1.407 Z-0.235
X-1.348 Z-0.23
X-0.995 Z-0.223
X-0.495 Z-0.236
X0.253 Z-0.245
X0.358 Z-0.229
X1.423 Z-0.224
X1.637 Z-0.242
X2.172 Z-0.245
X2.788 Z-0.262
X3.961 Z-0.254
X4.718 Z-0.252
X4.928 Z-0.251
X6.081 Z-0.247
X7.016 Z-0.229
X7.524 Z-0.225
X7.859 Z-0.251
X8.362 Z-0.255
X8.851 Z-0.251
X9.613 Z-0.259
X10.035 Z-0.255
X10.212 Z-0.244
X11.186 Z-0.24
X11.649 Z-0.255
X12.031 Z-0.253
X12.578 Z-0.261
X13.54 Z-0.225
X14.383 Z-0.221
X15.15 Z-0.227
X15.828 Z-0.231
X16.797 Z-0.207
X17.689 Z-0.218
X18.333 Z-0.192
X19.014 Z-0.203
X19.26 Z-0.218
X19.678 Z-0.225
X19.959 Z-0.23
X20.53 Z-0.246
X22.718 Z-0.254
X23.275 Z-0.249
X24.273 Z-0.243
X24.662 Z-0.239
X25.635 Z-0.247
X25.787 Z-0.254
X26.025 Z-0.256
X26.142 Z-0.248
X26.434 Z-0.243
X26.663 Z-0.229
X27.323 Z-0.223
X27.761 Z-0.23
X28.206 Z-0.259
X30.232 Z-0.251
X30.422 Z-0.241
X30.805 Z-0.235
X31.112 Z-0.243
X31.321 Z-0.238
X32.071 Z-0.242
X32.23 Z-0.24
X32.605 Z-0.232
X33.152 Z-0.249
X33.617 Z-0.24
X34.518 Z-0.253
X36.293 Z-0.229
X36.575 Z-0.245
X36.758 Z-0.247
X36.902 Z-0.261
X37.127 Z-0.258
X37.589 Z-0.259
X38.608 Z-0.262
X38.803 Z-0.269
X39.096 Z-0.268
X40.273 Z-0.27
X41.137
X42.81 Z-0.26
X43.196 Z-0.274
X43.355 Z-0.273
X43.689 Z-0.266
X44.901 Z-0.279
X45.481 Z-0.292
X46.006 Z-0.287
X46.453 Z-0.297
X47.311 Z-0.293
X48.523 Z-0.294
X48.963 Z-0.283
X49.556 Z-0.281
X51.164 Z-0.283
X51.794 Z-0.285
X52.123 Z-0.296
X52.359 Z-0.305
X52.378 Z-0.301
X52.396 Z-0.297
X52.416 Y-47.033
X52.436 Y-47.027
X52.455 Y-47.019
X52.472 Y-47.007 Z-0.296
X52.487 Y-46.992
X52.499 Y-46.975 Z-0.295
X52.507 Y-46.956
X52.513 Y-46.936 Z-0.294
X52.514 Y-46.916
Y-46.757 Z-0.289
X52.513 Y-46.736 Z-0.288
X52.507 Y-46.716 Z-0.287
X52.499 Y-46.698
X52.487 Y-46.681 Z-0.286
X52.472 Y-46.666
X52.455 Y-46.654 Z-0.285
X52.436 Y-46.645
X52.416 Y-46.64
X52.396 Y-46.638
X52.395
X52.377 Z-0.289
X52.359 Z-0.293
X51.696 Z-0.279
X51.277 Z-0.282
X50.793 Z-0.275
X50.066 Z-0.283
X49.66 Z-0.268
X48.881 Z-0.271
X48.456 Z-0.283
X47.616 Z-0.297
X47.286 Z-0.293
X46.918 Z-0.281
X46.266 Z-0.292
X46.14 Z-0.291
X45.886 Z-0.278
X45.193 Z-0.281
X45.035 Z-0.285
X44.246 Z-0.267
X43.796 Z-0.279
X43.217 Z-0.295
X43.063 Z-0.29
X42.683 Z-0.271
X41.176 Z-0.275
X40.255 Z-0.268
X39.125 Z-0.263
X38.374 Z-0.255
X37.839 Z-0.263
X37.714 Z-0.247
X36.919 Z-0.251
X36.179 Z-0.23
X35.174 Z-0.236
X34.621 Z-0.253
X34.082 Z-0.234
X33.304 Z-0.238
X33.133 Z-0.247
X32.145 Z-0.242
X31.229 Z-0.241
X30.884 Z-0.25
X30.163 Z-0.256
X28.653 Z-0.263
X28.112 Z-0.255
X27.748 Z-0.244
X27.204 Z-0.227
X26.797 Z-0.237
X26.466 Z-0.243
X26.133 Z-0.247
X25.985 Z-0.259
X25.692 Z-0.266
X25.38 Z-0.252
X24.611 Z-0.244
X23.458 Z-0.252
X23.166 Z-0.256
X22.728 Z-0.257
X22.034 Z-0.255
X20.558 Z-0.242
X20.248 Z-0.218
X19.171 Z-0.209
X18.944 Z-0.211
X18.229
X17.969 Z-0.222
X17.524 Z-0.207
X16.827 Z-0.211
X16.492 Z-0.229
X15.958 Z-0.236
X15.708 Z-0.227
X14.971 Z-0.222
X13.491 Z-0.225
X12.846 Z-0.248
X12.437 Z-0.236
X11.809 Z-0.243
X11.605 Z-0.227
X10.749 Z-0.231
X10.463 Z-0.236
X9.835 Z-0.244
X9.575 Z-0.245
X9.228 Z-0.248
X8.934 Z-0.255
X8.542 Z-0.262
X7.703 Z-0.247
X6.331 Z-0.243
X5.459 Z-0.254
X5.351 Z-0.263
X4.772 Z-0.261
X3.702 Z-0.256
X2.996 Z-0.258
X2.745
X2.214 Z-0.245
X1.63
X1.299 Z-0.229
X0.569 Z-0.233
X0.267 Z-0.245
X-0.677 Z-0.242
X-0.876 Z-0.24
X-1.298 Z-0.235
X-1.785 Z-0.239
X-2.058 Z-0.251
X-2.49 Z-0.248
X-3.088 Z-0.214
X-3.867 Z-0.218
X-4.187 Z-0.238
X-4.548 Z-0.239
X-5.879 Z-0.241
X-6.155 Z-0.251
X-6.686 Z-0.248
X-7.386 Z-0.22
X-8.054 Z-0.224
X-8.279 Z-0.24
X-8.788 Z-0.254
X-9.538 Z-0.249
X-9.727 Z-0.253
X-10.324 Z-0.245
X-10.911 Z-0.252
X-11.931 Z-0.222
X-12.553 Z-0.227
X-13.968 Z-0.232
X-14.579 Z-0.235
X-14.788 Z-0.221
X-15.588 Z-0.225
X-15.753 Z-0.231
X-16.095 Z-0.23
X-16.53 Z-0.227
X-17.172 Z-0.236
X-17.817 Z-0.237
X-18.417 Z-0.238
X-18.962 Z-0.259
X-19.578 Z-0.289
X-20.771 Z-0.28
X-21.668 Z-0.301
X-21.976 Z-0.291
X-22.46 Z-0.248
X-22.661 Z-0.236
X-23.529 Z-0.232
X-23.901 Z-0.221
X-24.771 Z-0.216
X-25.118 Z-0.227
X-25.583 Z-0.246
X-26.042 Z-0.252
X-26.15 Z-0.291
X-26.302 Z-0.306
X-26.481 Z-0.326
X-26.536 Z-0.335
X-26.914 Z-0.343
X-27.217 Z-0.832
X-27.249 Z-0.909
X-27.485 Z-1.597
X-27.583 Z-1.801
X-27.68 Z-1.969
X-27.939 Z-1.146
X-28.23 Z-0.387
X-28.39 Z-0.329
X-28.569 Z-0.299
X-29.108 Z-0.289
X-29.742 Z-0.277
X-30.207 Z-0.266
X-31.083 Z-0.267
X-32.074 Z-0.234
X-32.745 Z-0.238
X-33.097 Z-0.244
X-33.337 Z-0.251
X-33.732 Z-0.243
X-34.331 Z-0.254
X-35.499 Z-0.251
X-36.637
X-37.367
X-38. Z-0.239
X-38.495 Z-0.205
X-39.929 Z-0.21
X-40.132 Z-0.219
X-40.292 Z-0.198
X-41.852 Z-0.203
X-42.582 Z-0.208
X-42.679 Z-0.201
X-43.653 Z-0.206
X-44.03
X-44.211 Z-0.194
X-44.99 Z-0.197
X-45.54 Z-0.219
X-45.828 Z-0.206
X-46.768 Z-0.204
X-47.118 Z-0.225
X-47.555 Z-0.231
X-47.799 Z-0.239
X-48.099 Z-0.215
X-48.849 Z-0.217
X-49.195 Z-0.244
X-49.769 Z-0.248
X-50.459 Z-0.281
X-50.902 Z-0.289
X-51.165 Z-0.315
X-51.57 Z-0.309
X-51.765 Z-0.317
X-52.154 Z-0.321
X-52.359 Z-0.335
X-52.379 Z-0.331
X-52.397 Z-0.327
X-52.417 Y-46.636
X-52.437 Y-46.631
X-52.456 Y-46.622
X-52.473 Y-46.61 Z-0.326
X-52.488 Y-46.596
X-52.5 Y-46.579
X-52.508 Y-46.56 Z-0.325
X-52.514 Y-46.54
X-52.516 Y-46.519 Z-0.324
Y-46.361 Z-0.32
X-52.514 Y-46.34 Z-0.319
X-52.508 Y-46.32
X-52.5 Y-46.301 Z-0.318
X-52.488 Y-46.284
X-52.473 Y-46.27
X-52.456 Y-46.258 Z-0.317
X-52.437 Y-46.249
X-52.417 Y-46.244
X-52.397 Y-46.242
X-52.394
X-52.377 Z-0.321
X-52.359 Z-0.325
X-51.186 Z-0.319
X-50.601 Z-0.285
X-50.085 Z-0.264
X-49.234 Z-0.258
X-48.678 Z-0.233
X-48.297 Z-0.23
X-47.96 Z-0.251
X-47.266 Z-0.243
X-46.714 Z-0.208
X-45.991 Z-0.2
X-45.729 Z-0.207
X-45.362 Z-0.188
X-44.883 Z-0.191
X-44.067 Z-0.198
X-43.85 Z-0.213
X-43.577 Z-0.206
X-42.756 Z-0.201
X-42.59 Z-0.212
X-42.491 Z-0.207
X-41.712 Z-0.202
X-40.385 Z-0.198
X-40.084 Z-0.223
X-39.848 Z-0.209
X-38.552 Z-0.206
X-38.32 Z-0.226
X-38.106 Z-0.239
X-37.84 Z-0.243
X-36.304 Z-0.251
X-34.222 Z-0.254
X-33.494 Z-0.241
X-33.324 Z-0.238
X-32.496 Z-0.234
X-32.108 Z-0.25
X-31.353 Z-0.253
X-30.884 Z-0.266
X-30.112
X-28.256 Z-0.286
X-28.13 Z-0.308
X-28.004 Z-0.318
X-27.847 Z-0.327
X-27.83 Z-0.344
X-27.557 Z-0.661
X-27.537 Z-0.706
X-27.258 Z-1.737
X-27.162 Z-1.574
X-26.857 Z-0.746
X-26.83 Z-0.7
X-26.558 Z-0.407
X-26.537 Z-0.391
X-26.438 Z-0.379
X-26.19 Z-0.386
X-25.958 Z-0.252
X-25.769 Z-0.246
X-25.308 Z-0.219
X-24.121 Z-0.213
X-23.628 Z-0.236
X-22.654 Z-0.243
X-21.889 Z-0.307
X-21.757 Z-0.314
X-21.197 Z-0.298
X-20.292 Z-0.285
X-19.614 Z-0.294
X-18.752 Z-0.264
X-18.016 Z-0.247
X-17.085
X-16.809 Z-0.227
X-15.878 Z-0.226
X-15.629 Z-0.229
X-15.511 Z-0.224
X-14.947 Z-0.221
X-14.41 Z-0.23
X-13.796 Z-0.233
X-13.556 Z-0.225
X-12.9 Z-0.218
X-12.572 Z-0.232
X-11.598 Z-0.238
X-11.241 Z-0.245
X-11.027
X-10.413 Z-0.242
X-8.969 Z-0.238
X-8.597 Z-0.255
X-8.373 Z-0.246
X-7.954 Z-0.24
X-7.811 Z-0.228
X-7.003 Z-0.223
X-6.494 Z-0.244
X-6.061 Z-0.242
X-5.643 Z-0.237
X-4.586 Z-0.245
X-3.794 Z-0.25
X-3.515 Z-0.238
X-3.214 Z-0.246
X-2.607 Z-0.252
X-2.14 Z-0.247
X-1.079 Z-0.251
X-0.673 Z-0.24
X0.048
X0.765 Z-0.249
X1.331 Z-0.251
X1.582 Z-0.268
X1.834 Z-0.258
X2.545 Z-0.262
X2.959 Z-0.255
X3.747 Z-0.251
X3.99 Z-0.259
X4.882 Z-0.266
X5.66 Z-0.269
X5.974 Z-0.26
X6.409 Z-0.255
X6.868 Z-0.247
X7.647 Z-0.243
X7.824 Z-0.249
X8.545 Z-0.254
X8.959 Z-0.244
X9.647 Z-0.24
X9.868 Z-0.236
X10.852 Z-0.23
X11.452 Z-0.227
X11.686 Z-0.234
X11.861 Z-0.238
X12.882 Z-0.235
X13.087 Z-0.226
X13.566 Z-0.223
X14.586 Z-0.225
X15.248 Z-0.22
X15.864 Z-0.226
X16.035 Z-0.229
X16.255 Z-0.225
X16.722 Z-0.22
X16.918 Z-0.209
X17.894 Z-0.213
X18.001 Z-0.208
X18.982 Z-0.205
X20.194 Z-0.203
X20.649 Z-0.236
X21.626 Z-0.245
X22.05 Z-0.264
X22.321 Z-0.266
X22.512 Z-0.254
X23.247 Z-0.252
X23.5 Z-0.259
X24.148 Z-0.245
X25.161 Z-0.252
X26.228 Z-0.255
X27.618 Z-0.24
X28.256 Z-0.244
X28.653 Z-0.253
X29.866 Z-0.26
X30.005 Z-0.251
X30.461 Z-0.247
X31.35 Z-0.248
X32.847 Z-0.243
X33.154 Z-0.255
X33.352 Z-0.238
X33.856 Z-0.234
X34.804 Z-0.251
X35.275 Z-0.235
X36.468 Z-0.231
X36.918 Z-0.245
X37.358 Z-0.247
X37.887 Z-0.255
X39.456 Z-0.254
X40.149 Z-0.246
X40.49 Z-0.256
X41.148 Z-0.26
X41.692 Z-0.272
X42.131 Z-0.261
X42.629 Z-0.256
X42.881 Z-0.273
X43.248 Z-0.274
X43.554 Z-0.273
X44.255 Z-0.263
X44.769 Z-0.27
X44.996 Z-0.275
X45.738 Z-0.271
X46.216 Z-0.278
X47.329
X47.587 Z-0.292
X47.723 Z-0.288
X48.64 Z-0.279
X48.893 Z-0.273
X49.353 Z-0.268
X50.16 Z-0.271
X50.423 Z-0.264
X51.034 Z-0.257
X51.576 Z-0.275
X51.895 Z-0.277
X52.359 Z-0.284
X52.377 Z-0.28
X52.395 Z-0.276
X52.416 Y-46.24
X52.436 Y-46.235
X52.455 Y-46.226
X52.471 Y-46.214
X52.486 Y-46.2
X52.498 Y-46.183 Z-0.277
X52.507 Y-46.164
X52.512 Y-46.144
X52.514 Y-46.123
Y-45.965 Z-0.279
X52.512 Y-45.944 Z-0.28
X52.507 Y-45.924
X52.498 Y-45.905
X52.486 Y-45.888
X52.471 Y-45.874
X52.455 Y-45.862
X52.436 Y-45.853 Z-0.281
X52.416 Y-45.848
X52.395 Y-45.846
X52.378 Z-0.285
X52.359 Z-0.289
X51.705 Z-0.272
X51.206 Z-0.257
X50.403 Z-0.262
X50.299 Z-0.27
X49.14 Z-0.269
X48.822 Z-0.279
X47.969 Z-0.285
X47.746 Z-0.301
X47.376 Z-0.291
X47.12 Z-0.278
X46.385 Z-0.284
X46.276 Z-0.288
X45.841 Z-0.273
X45.121 Z-0.276
X44.774
X44.632 Z-0.263
X43.557 Z-0.269
X43.065 Z-0.272
X42.84 Z-0.256
X41.964 Z-0.26
X41.749 Z-0.265
X40.679 Z-0.256
X40.305 Z-0.246
X38.798 Z-0.251
X37.93 Z-0.254
X36.923 Z-0.251
X36.223 Z-0.231
X35.548 Z-0.241
X35.336 Z-0.251
X34.404 Z-0.248
X33.674 Z-0.238
X33.208 Z-0.249
X32.98 Z-0.255
X32.588 Z-0.245
X32.004 Z-0.252
X31.756 Z-0.255
X31.521 Z-0.249
X31.323 Z-0.244
X30.191 Z-0.251
X29.994 Z-0.265
X29.433 Z-0.255
X28.328 Z-0.25
X27.635 Z-0.24
X26.96 Z-0.245
X26.559 Z-0.256
X24.979 Z-0.251
X24.006 Z-0.253
X23.347 Z-0.261
X22.981 Z-0.252
X22.627 Z-0.259
X22.369 Z-0.271
X21.839 Z-0.245
X21.595 Z-0.243
X21.141 Z-0.219
X20.508 Z-0.217
X20.308 Z-0.202
X19.135 Z-0.207
X18.995 Z-0.208
X18.044 Z-0.205
X17.483 Z-0.213
X16.708 Z-0.22
X16.158 Z-0.224
X15.968 Z-0.228
X15.735 Z-0.22
X14.907 Z-0.224
X14.403 Z-0.23
X13.83
X13.645 Z-0.222
X12.912 Z-0.225
X12.691 Z-0.235
X12.061 Z-0.238
X11.645 Z-0.245
X11.38 Z-0.233
X10.075 Z-0.236
X9.804 Z-0.244
X9.113
X8.703 Z-0.254
X7.706 Z-0.249
X7.333 Z-0.243
X7.02 Z-0.249
X6.568 Z-0.255
X6.127 Z-0.262
X5.922 Z-0.269
X5.366 Z-0.265
X3.963 Z-0.259
X3.335 Z-0.251
X2.964 Z-0.261
X2.018 Z-0.269
X1.858 Z-0.27
X1.353 Z-0.233
X0.545 Z-0.239
X0.345 Z-0.231
X0.15 Z-0.219
X-0.601 Z-0.224
X-1.012 Z-0.231
X-1.43 Z-0.235
X-1.681 Z-0.246
X-2.372 Z-0.254
X-3.184 Z-0.247
X-3.75 Z-0.245
X-4.88 Z-0.24
X-5.286 Z-0.241
X-5.793 Z-0.24
X-6.068 Z-0.245
X-6.894 Z-0.234
X-7.27 Z-0.223
X-7.609 Z-0.228
X-7.813 Z-0.249
X-8.661 Z-0.243
X-8.952 Z-0.238
X-10.219 Z-0.242
X-10.376 Z-0.232
X-11.108 Z-0.237
X-11.425 Z-0.245
X-12.208 Z-0.234
X-12.477 Z-0.227
X-12.7 Z-0.218
X-13.162 Z-0.215
X-13.534 Z-0.209
X-14.039 Z-0.213
X-14.475 Z-0.239
X-14.712 Z-0.226
X-15.185 Z-0.233
X-15.502 Z-0.231
X-16.025 Z-0.227
X-16.562 Z-0.224
X-16.859 Z-0.248
X-17.183 Z-0.252
X-17.475 Z-0.244
X-17.866 Z-0.249
X-18.646 Z-0.271
X-19.466 Z-0.294
X-21.225 Z-0.306
X-21.661 Z-0.309
X-22.061 Z-0.29
X-22.444 Z-0.261
X-22.582 Z-0.254
X-23.008 Z-0.245
X-23.539 Z-0.23
X-23.88 Z-0.217
X-25.038
X-25.432 Z-0.237
X-25.565 Z-0.248
X-25.688 Z-0.285
X-25.77 Z-0.315
X-26.047 Z-0.319
X-26.126 Z-0.403
X-26.228 Z-0.576
X-26.44 Z-0.67
X-26.457 Z-0.705
X-26.752 Z-1.706
X-26.83 Z-1.82
X-26.835 Z-1.827
X-27.138 Z-0.709
X-27.44 Z-0.294
X-27.862 Z-0.283
X-28.227 Z-0.281
X-28.394 Z-0.27
X-29.356 Z-0.266
X-30.056 Z-0.244
X-30.373 Z-0.249
X-30.72 Z-0.266
X-31.059 Z-0.267
X-31.23 Z-0.258
X-32.123 Z-0.251
X-32.77 Z-0.234
X-33.216 Z-0.241
X-34.019 Z-0.246
X-34.346 Z-0.256
X-34.921 Z-0.248
X-35.719 Z-0.251
X-36.172 Z-0.262
X-36.747 Z-0.246
X-37.421 Z-0.243
X-38.446 Z-0.242
X-38.989 Z-0.207
X-39.622 Z-0.21
X-39.85 Z-0.223
X-40.76 Z-0.211
X-41.49 Z-0.209
X-42.056 Z-0.223
X-42.543 Z-0.222
X-43.409 Z-0.21
X-43.689
X-43.943 Z-0.187
X-44.64 Z-0.191
X-45.588 Z-0.19
X-46.273 Z-0.2
X-46.79 Z-0.207
X-47.108 Z-0.229
X-47.38 Z-0.239
X-47.637 Z-0.244
X-48.176 Z-0.272
X-48.427 Z-0.258
X-50.289
X-50.989 Z-0.291
X-51.449 Z-0.319
X-51.763 Z-0.324
X-52.359
X-52.377 Z-0.32
X-52.394 Z-0.316
X-52.401
X-52.438 Y-45.84
X-52.471 Y-45.823
X-52.497 Y-45.797
X-52.514 Y-45.764
X-52.52 Y-45.727
Y-45.568
X-52.514 Y-45.532
X-52.497 Y-45.499
X-52.471 Y-45.472
X-52.438 Y-45.455
X-52.401 Y-45.45
X-52.383 Z-0.32
X-52.377 Z-0.323
X-52.359 Z-0.327
X-51.829 Z-0.32
X-51.038 Z-0.278
X-50.647 Z-0.273
X-50.387 Z-0.261
X-50.049 Z-0.257
X-49.923 Z-0.252
X-48.87 Z-0.248
X-48.383 Z-0.256
X-48.088 Z-0.28
X-47.933 Z-0.277
X-47.647 Z-0.243
X-47.211 Z-0.239
X-47.14 Z-0.235
X-46.827 Z-0.215
X-45.689 Z-0.19
X-44.881 Z-0.184
X-44.729 Z-0.188
X-43.894 Z-0.187
X-43.643 Z-0.211
X-43.117 Z-0.209
X-42.317 Z-0.225
X-41.972 Z-0.206
X-41.323 Z-0.202
X-41.013 Z-0.209
X-40.735 Z-0.207
X-40.334 Z-0.216
X-39.613 Z-0.228
X-39.177 Z-0.256
X-38.721 Z-0.261
X-38.309 Z-0.255
X-37.739 Z-0.25
X-37.063 Z-0.27
X-36.084 Z-0.254
X-34.874 Z-0.247
X-34.572 Z-0.267
X-34.193 Z-0.253
X-33.634 Z-0.244
X-33.09 Z-0.249
X-32.594 Z-0.251
X-31.303 Z-0.255
X-31.136 Z-0.262
X-31. Z-0.261
X-30.562 Z-0.233
X-29.699 Z-0.232
X-29.219 Z-0.258
X-28.673 Z-0.265
X-27.719 Z-0.274
X-27.391 Z-0.294
X-27.041 Z-0.339
X-26.948 Z-0.472
X-26.742 Z-0.746
X-26.443 Z-1.794
X-26.386 Z-1.894
X-26.364 Z-1.867
X-26.059 Z-0.761
X-25.981 Z-0.617
X-25.913 Z-0.515
X-25.832 Z-0.443
X-25.72 Z-0.345
X-25.467 Z-0.306
X-25.444 Z-0.291
X-25.158 Z-0.239
X-24.632 Z-0.221
X-23.881 Z-0.217
X-23.239 Z-0.239
X-22.605 Z-0.257
X-21.842 Z-0.302
X-21.389 Z-0.312
X-20.408 Z-0.306
X-19.857 Z-0.311
X-19.643 Z-0.303
X-19.065 Z-0.295
X-18.862 Z-0.277
X-17.97 Z-0.269
X-17.778 Z-0.255
X-17.375 Z-0.23
X-16.976 Z-0.236
X-16.602 Z-0.234
X-16.327 Z-0.249
X-14.826 Z-0.241
X-14.752 Z-0.236
X-14.381 Z-0.216
X-13.342 Z-0.209
X-12.793 Z-0.23
X-11.762 Z-0.235
X-11.655 Z-0.243
X-11.15 Z-0.236
X-10.31 Z-0.232
X-10.126 Z-0.244
X-9.348 Z-0.24
X-8.785 Z-0.245
X-8.273
X-7.291 Z-0.253
X-7.069 Z-0.243
X-6.49 Z-0.226
X-6.117 Z-0.236
X-5.934 Z-0.233
X-5.429 Z-0.225
X-5.096 Z-0.239
X-3.713 Z-0.235
X-3.588 Z-0.247
X-2.588 Z-0.252
X-2.066 Z-0.274
X-1.796 Z-0.254
X-1.494 Z-0.235
X-1.047 Z-0.231
X-0.697 Z-0.224
X0.229 Z-0.219
X0.542 Z-0.237
X1.406 Z-0.233
X1.777 Z-0.26
X2.194 Z-0.272
X2.364 Z-0.269
X3.542 Z-0.268
X5.302 Z-0.263
X5.767 Z-0.276
X5.987 Z-0.268
X6.43 Z-0.263
X6.679 Z-0.256
X8.398 Z-0.254
X8.725 Z-0.236
X9.42 Z-0.232
X9.866 Z-0.246
X10.212 Z-0.234
X11.298 Z-0.235
X11.784 Z-0.258
X11.946 Z-0.254
X13.002 Z-0.241
X13.093 Z-0.237
X13.391 Z-0.228
X13.67 Z-0.241
X14.58 Z-0.245
X15.255 Z-0.225
X15.72 Z-0.228
X16.083 Z-0.23
X16.38 Z-0.226
X16.986 Z-0.225
X17.68 Z-0.213
X17.986 Z-0.197
X18.837 Z-0.194
X19.222 Z-0.206
X20.066 Z-0.205
X20.404 Z-0.217
X21.205 Z-0.219
X21.375 Z-0.228
X22.289 Z-0.269
X22.438 Z-0.265
X22.693 Z-0.256
X24.544 Z-0.251
X25.577 Z-0.263
X25.811 Z-0.259
X27.061 Z-0.254
X27.357 Z-0.245
X27.903 Z-0.255
X28.815 Z-0.248
X29.257 Z-0.258
X29.788 Z-0.264
X30.135 Z-0.255
X30.801 Z-0.253
X31.987 Z-0.247
X32.191 Z-0.262
X32.301 Z-0.263
X33.242 Z-0.262
X33.707 Z-0.246
X34.297 Z-0.261
X34.693 Z-0.257
X35.44 Z-0.256
X36.364 Z-0.255
X36.649 Z-0.263
X36.919 Z-0.251
X37.725 Z-0.249
X38.351 Z-0.266
X38.622 Z-0.26
X39.286 Z-0.252
X40.675
X41.133 Z-0.256
X41.92 Z-0.268
X42.354 Z-0.259
X42.903 Z-0.268
X43.761 Z-0.258
X45.255 Z-0.279
X46.691 Z-0.285
X46.848 Z-0.299
X47.369 Z-0.307
X47.903 Z-0.3
X48.325 Z-0.28
X48.679 Z-0.275
X49.107 Z-0.268
X50.421 Z-0.278
X50.738 Z-0.263
X51.805 Z-0.28
X52.359 Z-0.29
X52.377 Z-0.286
X52.395 Z-0.282
X52.404
X52.44 Y-45.444
X52.473 Y-45.427
X52.5 Y-45.401
X52.517 Y-45.367
X52.522 Y-45.331
Y-45.172
X52.517 Y-45.135
X52.5 Y-45.102
X52.473 Y-45.076
X52.44 Y-45.059
X52.404 Y-45.053
X52.386 Z-0.286
X52.377 Z-0.291
X52.359 Z-0.295
X51.678 Z-0.285
X50.425 Z-0.279
X49.89 Z-0.272
X49.708 Z-0.263
X48.902 Z-0.266
X48.696 Z-0.275
X47.903 Z-0.284
X47.444 Z-0.306
X46.831 Z-0.296
X46.606 Z-0.285
X46.032 Z-0.282
X45.46 Z-0.273
X44.816
X44.331 Z-0.257
X43.163 Z-0.261
X43.078 Z-0.265
X42.259 Z-0.264
X41.932 Z-0.255
X39.362 Z-0.251
X38.427 Z-0.252
X38.318 Z-0.256
X37.782 Z-0.252
X37.004 Z-0.251
X36.493 Z-0.274
X36.09 Z-0.265
X35.76 Z-0.273
X35.431 Z-0.286
X33.962 Z-0.254
X33.394 Z-0.258
X32.064 Z-0.254
X31.863 Z-0.247
X31.255 Z-0.252
X31.076 Z-0.26
X30.807 Z-0.248
X29.432 Z-0.249
X28.934 Z-0.243
X27.332 Z-0.257
X27.14 Z-0.263
X26.576 Z-0.261
X25.903 Z-0.264
X25.725 Z-0.278
X24.738 Z-0.248
X23.916 Z-0.252
X22.587 Z-0.259
X22.293 Z-0.274
X21.48 Z-0.251
X20.99 Z-0.226
X20.522 Z-0.233
X20.43 Z-0.236
X20.007 Z-0.209
X18.961 Z-0.198
X18.273 Z-0.193
X18.078 Z-0.198
X17.684 Z-0.232
X16.299 Z-0.234
X16.186 Z-0.241
X14.871 Z-0.245
X14.663 Z-0.248
X13.927 Z-0.246
X13.629 Z-0.258
X12.745 Z-0.243
X11.989 Z-0.246
X11.872 Z-0.247
X11.617 Z-0.232
X10.252 Z-0.234
X9.887 Z-0.247
X9.53 Z-0.232
X8.656 Z-0.237
X8.25 Z-0.253
X6.993 Z-0.256
X6.866 Z-0.264
X6.079 Z-0.266
X5.632 Z-0.281
X4.967 Z-0.279
X4.584 Z-0.278
X4.15 Z-0.271
X3.483 Z-0.276
X3.164 Z-0.277
X2.197 Z-0.271
X1.666 Z-0.257
X1.416 Z-0.24
X0.427
X0.134 Z-0.219
X-0.497 Z-0.223
X-0.697 Z-0.241
X-1.237 Z-0.236
X-1.671 Z-0.257
X-1.969 Z-0.272
X-2.265
X-3.068 Z-0.253
X-3.505
X-3.762 Z-0.235
X-4.811 Z-0.238
X-5.255 Z-0.221
X-6.972 Z-0.227
X-7.195 Z-0.239
X-7.269 Z-0.244
X-8.134 Z-0.248
X-8.602
X-8.775 Z-0.237
X-9.683 Z-0.242
X-10.117 Z-0.246
X-10.448 Z-0.242
X-11.567 Z-0.246
X-11.692 Z-0.244
X-11.855 Z-0.235
X-12.512 Z-0.238
X-12.674 Z-0.246
X-13.121 Z-0.225
X-13.394 Z-0.21
X-14.369 Z-0.218
X-14.65 Z-0.233
X-14.885 Z-0.247
X-15.615 Z-0.255
X-15.809 Z-0.252
X-16.129 Z-0.247
X-16.27 Z-0.229
X-16.78 Z-0.227
X-17.672 Z-0.228
X-17.98 Z-0.261
X-18.207 Z-0.269
X-18.815 Z-0.276
X-19.231 Z-0.308
X-19.885 Z-0.306
X-20.128 Z-0.307
X-20.721 Z-0.283
X-21.099 Z-0.288
X-21.466 Z-0.32
X-21.687 Z-0.302
X-22.052 Z-0.3
X-22.431 Z-0.276
X-23.071 Z-0.258
X-24.187 Z-0.23
X-24.655 Z-0.239
X-25.078 Z-0.246
X-25.489 Z-0.317
X-25.664 Z-0.346
X-25.719 Z-0.414
X-25.751 Z-0.502
X-25.906 Z-1.019
X-26.014 Z-1.465
X-26.095 Z-1.676
X-26.286 Z-0.949
X-26.344 Z-0.748
X-26.587 Z-0.379
X-26.647 Z-0.304
X-26.76 Z-0.291
X-27.006 Z-0.276
X-27.335 Z-0.274
X-27.98 Z-0.264
X-28.856 Z-0.263
X-29.309 Z-0.251
X-29.841 Z-0.229
X-30.522 Z-0.233
X-31.027 Z-0.259
X-31.501 Z-0.246
X-31.804 Z-0.229
X-32.226 Z-0.233
X-32.584 Z-0.241
X-33.039 Z-0.243
X-34.216 Z-0.247
X-34.645 Z-0.262
X-35. Z-0.247
X-36.64 Z-0.259
X-36.812 Z-0.269
X-37.59 Z-0.266
X-38.352 Z-0.261
X-38.915 Z-0.256
X-39.645 Z-0.253
X-39.907 Z-0.223
X-40.259 Z-0.203
X-41.192
X-41.897 Z-0.204
X-42.157 Z-0.22
X-42.797 Z-0.206
X-43.524 Z-0.21
X-43.622 Z-0.217
X-43.868 Z-0.213
X-44.303 Z-0.209
X-44.479
X-44.842 Z-0.184
X-45.539 Z-0.187
X-45.914 Z-0.201
X-46.498 Z-0.204
X-47.061 Z-0.235
X-47.194 Z-0.252
X-47.52 Z-0.261
X-47.881 Z-0.285
X-48.277 Z-0.249
X-49.242 Z-0.246
X-50.09 Z-0.249
X-50.347 Z-0.273
X-50.931 Z-0.276
X-51.326 Z-0.297
X-52.047 Z-0.333
X-52.359 Z-0.337
X-52.377 Z-0.333
X-52.395 Z-0.329
X-52.415 Y-45.052
X-52.435 Y-45.046
X-52.454 Y-45.037
X-52.471 Y-45.026
X-52.486 Y-45.011
X-52.498 Y-44.994 Z-0.33
X-52.506 Y-44.975
X-52.512 Y-44.955 Z-0.331
X-52.513 Y-44.934
Y-44.776 Z-0.334
X-52.512 Y-44.755 Z-0.335
X-52.506 Y-44.735
X-52.498 Y-44.717 Z-0.336
X-52.486 Y-44.7
X-52.471 Y-44.685
X-52.454 Y-44.673 Z-0.337
X-52.435 Y-44.664
X-52.415 Y-44.659
X-52.395 Y-44.657
X-52.394
X-52.377 Z-0.341
X-52.359 Z-0.345
X-51.885 Z-0.34
X-51.729 Z-0.329
X-51.457 Z-0.319
X-50.882 Z-0.289
X-50.4 Z-0.283
X-49.945 Z-0.25
X-49.549 Z-0.245
X-49.281 Z-0.255
X-49.166 Z-0.251
X-48.848 Z-0.233
X-48.176 Z-0.229
X-48.019 Z-0.241
X-47.645 Z-0.279
X-47.366
X-47.08 Z-0.242
X-46.821 Z-0.219
X-46.605 Z-0.212
X-46.342 Z-0.204
X-45.733
X-45.508 Z-0.197
X-44.891 Z-0.194
X-44.623 Z-0.209
X-43.992 Z-0.213
X-43.315 Z-0.211
X-42.95 Z-0.206
X-42.348 Z-0.22
X-41.043 Z-0.214
X-40.916 Z-0.207
X-40.549 Z-0.203
X-40.168 Z-0.216
X-39.967 Z-0.235
X-39.768 Z-0.255
X-38.581 Z-0.259
X-38.246 Z-0.263
X-37.676 Z-0.273
X-36.694 Z-0.27
X-36.48 Z-0.259
X-35.841 Z-0.257
X-34.773 Z-0.261
X-34.231 Z-0.254
X-34.069 Z-0.247
X-33.222 Z-0.242
X-32.654 Z-0.241
X-32.441 Z-0.233
X-31.543 Z-0.23
X-31.199 Z-0.255
X-31.017 Z-0.262
X-30.89 Z-0.249
X-30.379 Z-0.239
X-29.562 Z-0.247
X-28.846 Z-0.256
X-27.449 Z-0.259
X-26.819 Z-0.276
X-26.477 Z-0.296
X-26.344 Z-0.321
X-26.254 Z-0.353
X-26.204 Z-0.445
X-25.998 Z-1.072
X-25.862 Z-1.545
X-25.847 Z-1.496
X-25.771 Z-1.196
X-25.684 Z-0.827
X-25.567 Z-0.509
X-25.536 Z-0.459
X-25.444 Z-0.387
X-25.391 Z-0.364
X-25.099 Z-0.322
X-24.937 Z-0.314
X-24.859 Z-0.296
X-24.718 Z-0.27
X-24.546 Z-0.25
X-23.675 Z-0.253
X-22.452 Z-0.261
X-22.138 Z-0.28
X-21.95 Z-0.3
X-21.872 Z-0.302
X-21.633 Z-0.318
X-21.271 Z-0.286
X-20.466 Z-0.283
X-20.07 Z-0.302
X-19.846 Z-0.298
X-19.031 Z-0.294
X-18.553 Z-0.267
X-17.922 Z-0.258
X-17.545 Z-0.229
X-17.004 Z-0.226
X-16.49 Z-0.229
X-16.119 Z-0.247
X-15.507 Z-0.253
X-14.447 Z-0.244
X-13.697 Z-0.227
X-12.932 Z-0.245
X-11.991 Z-0.252
X-11.62 Z-0.257
X-10.766 Z-0.259
X-10.67 Z-0.251
X-10.1 Z-0.246
X-9.809 Z-0.243
X-8.86 Z-0.238
X-8.724 Z-0.25
X-8.44 Z-0.262
X-7.967 Z-0.248
X-7.229 Z-0.242
X-7.016 Z-0.234
X-6.544 Z-0.222
X-5.956 Z-0.23
X-5.547 Z-0.221
X-5.012 Z-0.23
X-4.405 Z-0.242
X-3.723 Z-0.252
X-2.796 Z-0.253
X-2.265 Z-0.274
X-1.592 Z-0.263
X-0.83 Z-0.268
X-0.489 Z-0.251
X-0.1 Z-0.24
X0.245 Z-0.253
X0.718 Z-0.244
X1.239 Z-0.24
X1.562 Z-0.261
X2.043 Z-0.273
X2.444 Z-0.282
X3.044 Z-0.271
X3.469 Z-0.278
X3.762 Z-0.274
X4.512 Z-0.275
X4.949 Z-0.274
X5.693 Z-0.279
X6.146 Z-0.273
X7.63 Z-0.269
X7.849 Z-0.257
X8.433 Z-0.256
X8.861 Z-0.237
X9.324 Z-0.232
X9.819 Z-0.254
X9.954 Z-0.247
X10.633 Z-0.236
X11.31 Z-0.232
X11.932 Z-0.247
X12.365 Z-0.243
X13.183 Z-0.252
X13.652 Z-0.261
X13.851 Z-0.258
X14.308 Z-0.254
X14.508 Z-0.248
X15.931 Z-0.241
X16.592 Z-0.235
X17.955 Z-0.231
X18.204 Z-0.21
X18.851 Z-0.202
X20.145 Z-0.214
X21.204 Z-0.264
X21.888 Z-0.268
X22.477 Z-0.276
X22.651 Z-0.27
X23.138 Z-0.266
X23.757 Z-0.255
X24.144 Z-0.252
X24.598 Z-0.248
X25.454 Z-0.276
X25.881 Z-0.279
X26.361 Z-0.269
X27.093 Z-0.263
X27.275 Z-0.255
X27.737 Z-0.251
X27.956 Z-0.247
X30.381 Z-0.245
X30.982 Z-0.261
X31.854 Z-0.266
X32.217 Z-0.26
X33.313
X33.646 Z-0.27
X33.754 Z-0.269
X34.338 Z-0.266
X34.75 Z-0.278
X35.572 Z-0.287
X36.642 Z-0.286
X36.993 Z-0.265
X37.953 Z-0.256
X38.317 Z-0.264
X38.496 Z-0.254
X39.012 Z-0.249
X39.378 Z-0.263
X39.624 Z-0.257
X41.991 Z-0.255
X42.237 Z-0.247
X42.787 Z-0.248
X43.354 Z-0.261
X44.03 Z-0.257
X44.957 Z-0.277
X46.027
X46.288 Z-0.29
X47.387 Z-0.302
X47.75 Z-0.283
X48.529 Z-0.278
X49.001 Z-0.269
X49.519 Z-0.263
X49.785 Z-0.277
X50.272 Z-0.291
X50.57 Z-0.292
X51.443 Z-0.289
X52.359 Z-0.303
X52.377 Z-0.299
X52.395 Z-0.295
X52.416 Y-44.655
X52.436 Y-44.65 Z-0.294
X52.455 Y-44.641
X52.472 Y-44.629
X52.486 Y-44.615 Z-0.293
X52.498 Y-44.598
X52.507 Y-44.579 Z-0.292
X52.512 Y-44.559
X52.514 Y-44.538 Z-0.291
Y-44.38 Z-0.286
X52.512 Y-44.359
X52.507 Y-44.339 Z-0.285
X52.498 Y-44.32
X52.486 Y-44.303 Z-0.284
X52.472 Y-44.289
X52.455 Y-44.277 Z-0.283
X52.436 Y-44.268
X52.416 Y-44.263
X52.395 Y-44.261
X52.378 Z-0.287
X52.359 Z-0.291
X52.049 Z-0.281
X51.037 Z-0.289
X49.85 Z-0.291
X49.287 Z-0.28
X48.904 Z-0.284
X47.673 Z-0.288
X47.328 Z-0.294
X46.773 Z-0.287
X46.346 Z-0.277
X45.633 Z-0.271
X44.951 Z-0.273
X43.644 Z-0.269
X43.482 Z-0.266
X42.996 Z-0.241
X42.46 Z-0.236
X42.011 Z-0.241
X41.77 Z-0.257
X41.321 Z-0.265
X40.714 Z-0.263
X40.178 Z-0.258
X39.617 Z-0.265
X39.151 Z-0.249
X38.43 Z-0.253
X38.236 Z-0.266
X37.525 Z-0.27
X36.941 Z-0.275
X36.541 Z-0.298
X35.886 Z-0.299
X35.481 Z-0.292
X34.851 Z-0.294
X34.2 Z-0.279
X33.504
X33.163 Z-0.266
X32.225 Z-0.271
X31.775 Z-0.274
X31.459 Z-0.27
X31.098 Z-0.255
X30.254 Z-0.245
X29.635 Z-0.241
X28.547 Z-0.245
X28.013 Z-0.255
X27.454 Z-0.256
X26.815 Z-0.266
X26.118 Z-0.279
X25.778 Z-0.277
X25.45 Z-0.266
X25.121 Z-0.263
X24.894 Z-0.244
X24.529 Z-0.229
X24.133 Z-0.238
X23.845 Z-0.251
X23.216 Z-0.27
X22.457 Z-0.264
X21.977 Z-0.271
X21.327 Z-0.266
X20.31 Z-0.218
X19.531 Z-0.214
X19.21 Z-0.235
X19.053 Z-0.243
X18.319 Z-0.232
X17.812 Z-0.24
X17.367 Z-0.238
X15.551 Z-0.244
X14.463 Z-0.248
X14.34 Z-0.254
X13.743 Z-0.259
X13.541 Z-0.262
X12.869 Z-0.255
X12.188 Z-0.253
X11.802 Z-0.247
X11.212 Z-0.228
X9.98 Z-0.236
X9.736 Z-0.243
X8.743 Z-0.244
X8.478 Z-0.259
X7.866 Z-0.263
X7.36 Z-0.275
X6.844 Z-0.271
X6.371 Z-0.275
X3.966 Z-0.277
X3.398 Z-0.261
X2.717 Z-0.264
X2.5 Z-0.275
X1.533 Z-0.271
X1.127 Z-0.261
X0.446 Z-0.271
X0.094 Z-0.279
X-0.093 Z-0.27
X-0.827 Z-0.266
X-1.065 Z-0.254
X-1.698 Z-0.256
X-2.338 Z-0.269
X-4.176 Z-0.24
X-4.566 Z-0.234
X-5.318 Z-0.233
X-5.657 Z-0.223
X-6.571 Z-0.227
X-6.783 Z-0.241
X-8.052 Z-0.247
X-8.305 Z-0.258
X-8.597 Z-0.25
X-8.801 Z-0.234
X-9.885 Z-0.239
X-10.009 Z-0.245
X-10.756 Z-0.253
X-11.707 Z-0.254
X-11.941 Z-0.259
X-12.552 Z-0.253
X-12.782 Z-0.255
X-13.804 Z-0.254
X-14.618 Z-0.255
X-14.8 Z-0.257
X-15.194 Z-0.249
X-16.268 Z-0.241
X-18.244 Z-0.251
X-18.656 Z-0.268
X-18.989 Z-0.292
X-19.759 Z-0.295
X-20.085 Z-0.317
X-20.453 Z-0.305
X-20.67 Z-0.289
X-21.086 Z-0.291
X-21.41 Z-0.311
X-21.796 Z-0.302
X-22.173 Z-0.268
X-22.292 Z-0.251
X-23.014
X-23.332 Z-0.26
X-23.834 Z-0.258
X-24.258 Z-0.256
X-24.484 Z-0.276
X-24.739 Z-0.308
X-25.13 Z-0.319
X-25.171 Z-0.346
X-25.372 Z-0.761
X-25.626 Z-1.431
X-25.857 Z-0.579
X-25.935 Z-0.484
X-26.043 Z-0.4
X-26.152 Z-0.321
X-26.447 Z-0.302
X-26.903 Z-0.271
X-28.115 Z-0.247
X-28.683 Z-0.25
X-28.985 Z-0.24
X-30.602 Z-0.245
X-30.879 Z-0.26
X-31.092
X-31.326 Z-0.244
X-32.022 Z-0.231
X-33.112 Z-0.254
X-33.322 Z-0.259
X-34.295 Z-0.254
X-34.717 Z-0.252
X-35.221 Z-0.233
X-35.918 Z-0.245
X-36.313 Z-0.257
X-36.879 Z-0.265
X-37.476 Z-0.275
X-37.578 Z-0.268
X-38.661 Z-0.267
X-39.829 Z-0.247
X-40.219 Z-0.244
X-40.613 Z-0.224
X-41.427 Z-0.217
X-41.947 Z-0.221
X-42.714 Z-0.219
X-43.147 Z-0.213
X-43.337 Z-0.204
X-44.618 Z-0.2
X-44.792 Z-0.188
X-45.588 Z-0.193
X-45.896 Z-0.214
X-46.818 Z-0.217
X-47.058 Z-0.231
X-47.322 Z-0.258
X-47.669 Z-0.266
X-48.106 Z-0.229
X-48.912 Z-0.233
X-49.328 Z-0.262
X-49.426 Z-0.267
X-50.022 Z-0.271
X-50.983 Z-0.302
X-51.447 Z-0.331
X-51.866 Z-0.324
X-52.359 Z-0.34
X-52.378 Z-0.336
X-52.381 Z-0.334
X-52.398 Z-0.33
X-52.435 Y-44.255
X-52.468 Y-44.238
X-52.494 Y-44.212
X-52.511 Y-44.179
X-52.517 Y-44.142
Y-43.984
X-52.511 Y-43.947
X-52.494 Y-43.914
X-52.468 Y-43.887
X-52.435 Y-43.87
X-52.398 Y-43.865
X-52.397
X-52.38 Z-0.334
X-52.359 Z-0.338
X-52.156 Z-0.321
X-51.286 Z-0.324
X-50.545 Z-0.303
X-49.985 Z-0.285
X-49.522 Z-0.277
X-49.028 Z-0.26
X-48.364 Z-0.245
X-47.917 Z-0.267
X-47.795 Z-0.268
X-47.257 Z-0.255
X-46.823 Z-0.217
X-46.011 Z-0.212
X-45.76 Z-0.222
X-45.503 Z-0.193
X-44.843 Z-0.188
X-44.675 Z-0.199
X-43.187 Z-0.209
X-42.584 Z-0.216
X-42.277 Z-0.23
X-41.994 Z-0.231
X-41.713 Z-0.222
X-40.908 Z-0.219
X-40.64 Z-0.232
X-40.121 Z-0.244
X-39.414 Z-0.252
X-38.538 Z-0.265
X-37.261 Z-0.267
X-36.901 Z-0.256
X-36.147 Z-0.252
X-35.735 Z-0.233
X-34.814 Z-0.23
X-34.281 Z-0.249
X-33.282 Z-0.254
X-31.275 Z-0.245
X-31.081 Z-0.259
X-30.838 Z-0.262
X-30.798 Z-0.259
X-30.305 Z-0.226
X-28.766 Z-0.246
X-27.702 Z-0.245
X-27.275 Z-0.262
X-26.695 Z-0.261
X-25.756 Z-0.308
X-25.703 Z-0.372
X-25.634 Z-0.466
X-25.465 Z-0.817
X-25.381 Z-1.147
X-25.295 Z-1.508
X-25.078 Z-0.79
X-25.037 Z-0.685
X-24.833 Z-0.37
X-24.777 Z-0.312
X-24.137 Z-0.308
X-24.087 Z-0.33
X-24.044
X-23.985 Z-0.318
X-23.862 Z-0.301
X-23.695 Z-0.293
X-23.408 Z-0.264
X-23.138 Z-0.249
X-22.267 Z-0.245
X-22.021 Z-0.28
X-21.899 Z-0.286
X-21.026 Z-0.316
X-20.691 Z-0.322
X-20.326 Z-0.353
X-20.046 Z-0.345
X-19.59 Z-0.307
X-19.202 Z-0.302
X-18.988 Z-0.287
X-18.605 Z-0.257
X-18.171 Z-0.251
X-17.122 Z-0.249
X-16.838 Z-0.241
X-15.829 Z-0.244
X-14.791 Z-0.246
X-14.445 Z-0.26
X-13.733 Z-0.263
X-13.395 Z-0.259
X-12.625 Z-0.261
X-11.666 Z-0.254
X-11.224 Z-0.251
X-9.956 Z-0.245
X-9.852 Z-0.241
X-8.865 Z-0.234
X-8.625 Z-0.251
X-8.138 Z-0.252
X-7.789 Z-0.243
X-7.123 Z-0.237
X-6.733 Z-0.241
X-6.514 Z-0.226
X-6.072 Z-0.222
X-5.021 Z-0.234
X-3.304 Z-0.249
X-2.469 Z-0.261
X-1.934 Z-0.255
X-0.987 Z-0.251
X-0.704 Z-0.265
X-0.097 Z-0.266
X0.233 Z-0.28
X1.054 Z-0.269
X1.561 Z-0.279
X2.474 Z-0.277
X2.749 Z-0.265
X3.411 Z-0.261
X3.785 Z-0.274
X4.855 Z-0.286
X5.592 Z-0.281
X6.397 Z-0.275
X6.768 Z-0.286
X7.184 Z-0.29
X7.52 Z-0.277
X8.405 Z-0.272
X8.719 Z-0.244
X9.837 Z-0.239
X10.122 Z-0.231
X11.171 Z-0.228
X11.825 Z-0.25
X12.409 Z-0.259
X13.643 Z-0.257
X13.866 Z-0.265
X15.053 Z-0.251
X15.626 Z-0.261
X15.973 Z-0.246
X16.632 Z-0.243
X17.036 Z-0.257
X17.198 Z-0.254
X17.735 Z-0.249
X18.199 Z-0.241
X19.089 Z-0.246
X19.558 Z-0.237
X20.135 Z-0.243
X20.416 Z-0.246
X21.152 Z-0.268
X22.056 Z-0.271
X22.162 Z-0.266
X23.16 Z-0.265
X23.404 Z-0.251
X23.765 Z-0.244
X24.016 Z-0.225
X24.715 Z-0.222
X25.105 Z-0.234
X25.343 Z-0.26
X25.696 Z-0.263
X25.968 Z-0.275
X26.186 Z-0.276
X26.664 Z-0.258
X27.419 Z-0.266
X27.672 Z-0.261
X28.741 Z-0.245
X29.374 Z-0.24
X29.693 Z-0.245
X30.267 Z-0.241
X31.299 Z-0.251
X31.591 Z-0.26
X31.919 Z-0.269
X32.173 Z-0.277
X33.946 Z-0.278
X34.253 Z-0.284
X34.642 Z-0.286
X35.243 Z-0.298
X35.378 Z-0.306
X35.536 Z-0.325
X36.301 Z-0.315
X36.966 Z-0.282
X37.544 Z-0.271
X38.392 Z-0.261
X38.489 Z-0.253
X39.103 Z-0.249
X39.689 Z-0.27
X40.254 Z-0.273
X40.829 Z-0.261
X41.307 Z-0.253
X41.575 Z-0.262
X41.853 Z-0.257
X42.097 Z-0.239
X42.763 Z-0.236
X43.472 Z-0.266
X44.022 Z-0.271
X45.837 Z-0.265
X46.216 Z-0.273
X46.703 Z-0.275
X46.955 Z-0.289
X47.536 Z-0.287
X48.753 Z-0.28
X49.026 Z-0.274
X49.708 Z-0.271
X50.109 Z-0.285
X50.339 Z-0.286
X51.272 Z-0.282
X52.359 Z-0.275
X52.376 Z-0.271
X52.394 Z-0.267
X52.402
X52.439 Y-43.859
X52.472 Y-43.842
X52.498 Y-43.816
X52.515 Y-43.783
X52.521 Y-43.746
Y-43.587
X52.515 Y-43.551
X52.498 Y-43.517
X52.472 Y-43.491
X52.439 Y-43.474
X52.402 Y-43.468
X52.384 Z-0.271
X52.377 Z-0.275
X52.359 Z-0.279
X51.383 Z-0.281
X50.491 Z-0.287
X49.924 Z-0.271
X49.715 Z-0.265
X48.961 Z-0.266
X48.649 Z-0.28
X48.526 Z-0.276
X47.547
X47.228 Z-0.291
X46.839 Z-0.288
X46.684 Z-0.277
X46.236 Z-0.263
X45.215 Z-0.266
X44.431
X43.866 Z-0.247
X43.307 Z-0.254
X43.127 Z-0.26
X42.431 Z-0.251
X41.774 Z-0.258
X41.352 Z-0.253
X40.768 Z-0.257
X40.118 Z-0.283
X39.308 Z-0.274
X38.837 Z-0.261
X37.854 Z-0.267
X37.577 Z-0.279
X37.418 Z-0.287
X36.989 Z-0.296
X36.192 Z-0.322
X35.523 Z-0.328
X35.246 Z-0.302
X34.937 Z-0.29
X34.274 Z-0.284
X33.94 Z-0.278
X32.406
X32.183 Z-0.287
X31.844 Z-0.27
X31.518 Z-0.264
X31.043 Z-0.243
X29.924 Z-0.244
X29.503 Z-0.257
X28.985 Z-0.238
X28.422 Z-0.248
X27.864 Z-0.254
X27.582 Z-0.264
X26.754 Z-0.257
X26.388 Z-0.263
X26.101 Z-0.281
X25.793 Z-0.275
X25.506 Z-0.263
X25.275 Z-0.261
X25.067 Z-0.239
X24.648 Z-0.222
X24.114 Z-0.228
X23.822 Z-0.244
X23.376 Z-0.248
X23.059 Z-0.267
X22.336 Z-0.265
X22.241 Z-0.27
X21.409 Z-0.276
X21.199 Z-0.281
X20.606 Z-0.274
X20.041 Z-0.253
X19.212 Z-0.254
X19.055 Z-0.25
X18.747 Z-0.239
X17.751 Z-0.245
X17.471 Z-0.248
X17.1 Z-0.252
X16.893 Z-0.262
X16.444 Z-0.255
X16.324 Z-0.245
X15.681 Z-0.25
X15.545 Z-0.255
X14.712 Z-0.258
X14.628 Z-0.262
X13.716 Z-0.261
X11.792 Z-0.256
X11.438 Z-0.232
X11.144 Z-0.222
X10.407 Z-0.228
X9.878 Z-0.248
X9.569 Z-0.239
X8.796 Z-0.247
X8.427 Z-0.288
X7.725 Z-0.285
X7.065 Z-0.299
X6.871 Z-0.296
X6.726 Z-0.286
X5.826 Z-0.285
X5.505 Z-0.298
X4.554 Z-0.295
X3.315 Z-0.281
X2.892 Z-0.284
X2.214 Z-0.282
X1.532 Z-0.281
X1.419 Z-0.272
X0.014 Z-0.271
X-0.72 Z-0.262
X-1.328 Z-0.251
X-2.282 Z-0.261
X-2.78 Z-0.249
X-3.631 Z-0.253
X-4.179 Z-0.248
X-4.366 Z-0.23
X-5.015 Z-0.234
X-5.124 Z-0.239
X-5.434 Z-0.229
X-5.921 Z-0.234
X-6.358 Z-0.247
X-7.25 Z-0.236
X-7.812 Z-0.241
X-7.94 Z-0.252
X-8.961 Z-0.251
X-10.183 Z-0.248
X-10.663 Z-0.253
X-11.814 Z-0.259
X-12.509 Z-0.26
X-12.625 Z-0.263
X-14.42 Z-0.259
X-15.128 Z-0.246
X-15.842 Z-0.249
X-16.231 Z-0.239
X-16.642 Z-0.244
X-16.741 Z-0.249
X-17.286 Z-0.253
X-18.455 Z-0.258
X-19.038 Z-0.286
X-19.69 Z-0.288
X-20.162 Z-0.334
X-20.751 Z-0.352
X-21.101 Z-0.316
X-21.679 Z-0.28
X-22.167 Z-0.261
X-22.473 Z-0.245
X-22.972 Z-0.249
X-23.283 Z-0.265
X-23.376 Z-0.274
X-23.588 Z-0.279
X-23.917 Z-0.328
X-23.929 Z-0.331
X-24.552 Z-0.334
X-24.651 Z-0.39
X-24.68 Z-0.426
X-24.783 Z-0.647
X-24.839 Z-0.837
X-25.065 Z-1.644
X-25.299 Z-0.508
X-25.355 Z-0.347
X-25.373 Z-0.334
X-25.618 Z-0.287
X-26.313 Z-0.261
X-27.474 Z-0.26
X-27.931 Z-0.245
X-28.62 Z-0.253
X-28.719 Z-0.257
X-29.412 Z-0.234
X-30.047 Z-0.226
X-30.577 Z-0.229
X-30.88 Z-0.262
X-31.076 Z-0.266
X-31.424 Z-0.245
X-32.089 Z-0.251
X-34.258 Z-0.25
X-34.674 Z-0.234
X-35.564 Z-0.231
X-36.178 Z-0.252
X-37.176 Z-0.26
X-37.325 Z-0.265
X-38.336 Z-0.271
X-39.226 Z-0.26
X-39.482 Z-0.267
X-39.69 Z-0.275
X-39.958 Z-0.243
X-40.644 Z-0.24
X-41.008 Z-0.219
X-41.597 Z-0.223
X-41.947 Z-0.237
X-42.105 Z-0.234
X-42.397 Z-0.216
X-44.304 Z-0.211
X-44.656 Z-0.202
X-45.531 Z-0.208
X-45.773 Z-0.217
X-46.088 Z-0.213
X-46.698 Z-0.216
X-47.133 Z-0.251
X-47.372 Z-0.255
X-47.798 Z-0.261
X-48.166 Z-0.273
X-49.801 Z-0.281
X-49.984 Z-0.298
X-50.8 Z-0.309
X-51.303 Z-0.328
X-51.728 Z-0.32
X-52.101 Z-0.326
X-52.359 Z-0.343
X-52.38 Z-0.339
X-52.396 Z-0.324
X-52.402 Z-0.304
Z-0.29
X-52.401 Y-43.463 Z-0.27
Y-43.449 Z-0.256
Y-43.429 Z-0.251
X-52.399 Y-43.112
Y-43.092 Z-0.256
Y-43.078 Z-0.27
Y-43.072 Z-0.29
X-52.393 Z-0.31
X-52.379 Z-0.325
X-52.359 Z-0.33
X-51.888
X-51.36 Z-0.34
X-51.179 Z-0.333
X-50.685 Z-0.292
X-49.853 Z-0.288
X-49.318 Z-0.273
X-48.313 Z-0.27
X-48.003 Z-0.261
X-47.505 Z-0.257
X-46.884 Z-0.246
X-46.803 Z-0.237
X-46.624 Z-0.224
X-46.228 Z-0.217
X-45.983 Z-0.21
X-44.587 Z-0.202
X-44.118 Z-0.214
X-43.504
X-43.094
X-42.338 Z-0.23
X-41.694 Z-0.238
X-41.378 Z-0.232
X-40.973 Z-0.237
X-40.612 Z-0.253
X-40.399 Z-0.247
X-40.016 Z-0.256
X-39.724 Z-0.258
X-39.389 Z-0.276
X-39.278 Z-0.278
X-38.931 Z-0.257
X-37.979 Z-0.261
X-36.496 Z-0.262
X-35.38 Z-0.239
X-34.7 Z-0.247
X-33.471 Z-0.258
X-33.174 Z-0.256
X-31.308 Z-0.255
X-31.064 Z-0.269
X-30.881 Z-0.273
X-30.518 Z-0.252
X-30.296 Z-0.232
X-29.713 Z-0.236
X-29.096 Z-0.267
X-28.853
X-27.939 Z-0.265
X-27.322 Z-0.262
X-26.475 Z-0.26
X-26.014 Z-0.267
X-25.6 Z-0.266
X-25.299 Z-0.277
X-25.264 Z-0.295
X-25.084 Z-0.583
X-25.005 Z-0.733
X-24.788 Z-1.521
X-24.562 Z-0.648
X-24.51 Z-0.531
X-24.45 Z-0.46
X-24.281 Z-0.34
X-23.952 Z-0.331
X-23.642 Z-0.277
X-23.253 Z-0.274
X-23.071 Z-0.265
X-22.097 Z-0.261
X-21.708 Z-0.274
X-21.331 Z-0.322
X-21.157 Z-0.341
X-20.548 Z-0.328
X-20.133 Z-0.298
X-19.551 Z-0.285
X-19.223 Z-0.281
X-18.68
X-18.365 Z-0.276
X-17.835 Z-0.271
X-17.354 Z-0.261
X-15.798 Z-0.266
X-15.322 Z-0.259
X-14.572 Z-0.255
X-14.313 Z-0.264
X-14.104
X-12.526 Z-0.265
X-11.691 Z-0.269
X-11.403 Z-0.259
X-10.312 Z-0.255
X-10.068 Z-0.253
X-8.836 Z-0.25
X-8.65 Z-0.258
X-8.228 Z-0.27
X-7.674 Z-0.24
X-7.024
X-6.098 Z-0.251
X-5.94 Z-0.243
X-5.229 Z-0.24
X-5.067 Z-0.233
X-4.289 Z-0.23
X-4.07 Z-0.253
X-3.758 Z-0.262
X-3.566 Z-0.254
X-2.787 Z-0.251
X-1.752 Z-0.272
X-1.582 Z-0.269
X-1.104 Z-0.266
X0.161 Z-0.271
X1.421
X1.611 Z-0.289
X2.322 Z-0.293
X2.735 Z-0.294
X3.709 Z-0.29
X4.187 Z-0.306
X5.342 Z-0.295
X5.667 Z-0.298
X5.851 Z-0.291
X6.802 Z-0.286
X7.111 Z-0.309
X7.496 Z-0.296
X8.774 Z-0.288
X8.95 Z-0.267
X9.237 Z-0.256
X9.633 Z-0.248
X10.187 Z-0.244
X10.495 Z-0.226
X11.31 Z-0.222
X11.978 Z-0.256
X13.218 Z-0.266
X13.881 Z-0.276
X14.056 Z-0.269
X14.772
X15.066 Z-0.258
X15.47 Z-0.266
X15.648 Z-0.248
X16.418 Z-0.245
X16.595 Z-0.262
X16.887 Z-0.264
X17.067 Z-0.26
X17.642 Z-0.25
X17.981 Z-0.245
X19.805 Z-0.232
X20.102 Z-0.249
X20.838 Z-0.277
X22.628 Z-0.27
X22.832 Z-0.278
X23.013 Z-0.284
X23.129 Z-0.269
X23.311 Z-0.262
X23.595 Z-0.253
X23.983 Z-0.247
X24.464 Z-0.241
X24.821 Z-0.251
X25.221 Z-0.276
X25.447
X26.323 Z-0.273
X26.426 Z-0.27
X26.709 Z-0.259
X27.575 Z-0.27
X27.908 Z-0.253
X28.273 Z-0.248
X28.542 Z-0.228
X29.297 Z-0.224
X29.795 Z-0.257
X30.243 Z-0.245
X30.73
X31.364 Z-0.265
X31.976 Z-0.272
X32.255 Z-0.283
X32.712 Z-0.28
X33.301 Z-0.287
X33.51 Z-0.285
X34.151 Z-0.282
X34.705 Z-0.29
X35.482 Z-0.326
X36.033 Z-0.308
X36.593 Z-0.304
X36.957 Z-0.294
X38.091 Z-0.274
X38.421 Z-0.263
X38.871 Z-0.27
X39.033 Z-0.268
X39.388 Z-0.257
X39.915 Z-0.268
X40.175 Z-0.269
X40.699 Z-0.278
X41.123 Z-0.257
X41.707 Z-0.259
X42.059 Z-0.254
X43.032
X43.244 Z-0.246
X44.29 Z-0.241
X44.536 Z-0.258
X45.052 Z-0.265
X45.292
X45.71 Z-0.261
X46.575 Z-0.268
X46.896 Z-0.285
X47.248 Z-0.289
X47.428 Z-0.279
X48.117 Z-0.27
X48.707 Z-0.274
X48.927 Z-0.265
X49.706 Z-0.262
X49.815 Z-0.271
X50.327 Z-0.293
X51.477 Z-0.28
X51.897 Z-0.276
X52.359 Z-0.301
X52.379 Z-0.297
X52.396 Z-0.293
X52.397
X52.417 Y-43.07
X52.437 Y-43.065
X52.456 Y-43.056 Z-0.292
X52.473 Y-43.044
X52.488 Y-43.03 Z-0.291
X52.5 Y-43.013
X52.508 Y-42.994 Z-0.29
X52.514 Y-42.974 Z-0.289
X52.516 Y-42.953
Y-42.795 Z-0.283
X52.514 Y-42.774 Z-0.282
X52.508 Y-42.754
X52.5 Y-42.735 Z-0.281
X52.488 Y-42.718 Z-0.28
X52.473 Y-42.704
X52.456 Y-42.692
X52.437 Y-42.683 Z-0.279
X52.417 Y-42.678
X52.397 Y-42.676
X52.379 Z-0.283
X52.359 Z-0.287
X52.05 Z-0.266
X51.369 Z-0.269
X50.973 Z-0.288
X50.829 Z-0.297
X50.463 Z-0.298
X50.317 Z-0.283
X49.927 Z-0.278
X49.456 Z-0.264
X48.788 Z-0.274
X47.88 Z-0.27
X47.304 Z-0.289
X46.945 Z-0.283
X46.269 Z-0.269
X45.439 Z-0.266
X45.2 Z-0.253
X44.566 Z-0.25
X44.288 Z-0.238
X43.306 Z-0.244
X43.126 Z-0.252
X42.373 Z-0.246
X41.61 Z-0.248
X40.961 Z-0.251
X40.677 Z-0.26
X40.08 Z-0.258
X39.862 Z-0.256
X39.018 Z-0.259
X38.791 Z-0.28
X37.957 Z-0.275
X37.694 Z-0.277
X37.377 Z-0.268
X36.939 Z-0.279
X36.669 Z-0.293
X35.803 Z-0.28
X35.535 Z-0.291
X35.292 Z-0.3
X34.949 Z-0.281
X34.592 Z-0.274
X33.649 Z-0.28
X33.351 Z-0.286
X32.445 Z-0.274
X31.352 Z-0.266
X29.77 Z-0.255
X29.319 Z-0.228
X28.576
X28.303 Z-0.248
X27.919 Z-0.261
X27.575 Z-0.279
X26.727 Z-0.269
X26.348 Z-0.275
X25.448 Z-0.277
X25.234 Z-0.283
X25.067 Z-0.268
X24.739 Z-0.258
X23.988 Z-0.262
X23.643 Z-0.273
X23.284 Z-0.28
X22.525 Z-0.279
X22.159 Z-0.272
X21.316 Z-0.278
X20.613 Z-0.275
X20.007 Z-0.227
X19.141 Z-0.23
X18.655 Z-0.236
X18.234 Z-0.242
X17.829 Z-0.255
X17.126 Z-0.258
X16.977 Z-0.27
X16.519 Z-0.263
X16.329 Z-0.264
X15.97 Z-0.257
X15.369 Z-0.287
X15.143 Z-0.271
X13.697 Z-0.276
X13.437 Z-0.258
X12.611 Z-0.262
X12.424 Z-0.27
X12.101 Z-0.263
X11.572 Z-0.245
X11.008 Z-0.233
X10.516 Z-0.24
X9.636 Z-0.237
X9.236 Z-0.256
X8.965 Z-0.277
X8.346 Z-0.293
X7.537 Z-0.295
X7.18 Z-0.308
X6.149 Z-0.28
X5.457 Z-0.277
X4.736 Z-0.282
X4.013 Z-0.302
X3.827 Z-0.29
X2.093 Z-0.292
X1.351 Z-0.287
X0.689 Z-0.274
X0.304 Z-0.277
X-0.094 Z-0.27
X-0.874 Z-0.274
X-3.173 Z-0.259
X-3.664 Z-0.279
X-4.09 Z-0.274
X-4.364 Z-0.242
X-4.799 Z-0.238
X-5.228 Z-0.256
X-5.67 Z-0.249
X-5.889 Z-0.256
X-6.838 Z-0.252
X-7.121 Z-0.243
X-7.739 Z-0.247
X-7.958 Z-0.261
X-8.393 Z-0.255
X-8.711 Z-0.257
X-9.045 Z-0.25
X-9.855 Z-0.256
X-9.967 Z-0.263
X-11.25
X-11.849 Z-0.274
X-12.122 Z-0.265
X-12.528 Z-0.267
X-12.853 Z-0.249
X-13.413 Z-0.254
X-13.701 Z-0.261
X-14.179 Z-0.268
X-14.318 Z-0.266
X-14.479 Z-0.249
X-15.387 Z-0.254
X-15.977 Z-0.267
X-16.441
X-18.072 Z-0.263
X-18.45 Z-0.273
X-19.463 Z-0.27
X-19.736 Z-0.282
X-20.38 Z-0.29
X-20.57 Z-0.305
X-21.198 Z-0.315
X-21.49 Z-0.324
X-21.748 Z-0.286
X-22.301 Z-0.272
X-22.885 Z-0.277
X-23.091 Z-0.286
X-23.286 Z-0.294
X-23.581 Z-0.339
X-23.954 Z-0.35
X-24.117 Z-0.42
X-24.179 Z-0.467
X-24.196 Z-0.514
X-24.469 Z-1.47
X-24.503 Z-1.565
X-24.542 Z-1.647
X-24.592 Z-1.553
X-24.767 Z-0.965
X-24.881 Z-0.613
X-24.941 Z-0.525
X-25.008 Z-0.44
X-25.191 Z-0.29
X-25.264 Z-0.261
X-26.087 Z-0.264
X-26.234 Z-0.267
X-26.622 Z-0.255
X-27.303 Z-0.261
X-27.607 Z-0.262
X-28.871 Z-0.268
X-29.611 Z-0.266
X-30.482 Z-0.263
X-30.632 Z-0.27
X-31.095 Z-0.265
X-31.341 Z-0.255
X-33.246 Z-0.258
X-33.472 Z-0.278
X-33.759 Z-0.272
X-34.669 Z-0.27
X-35.034 Z-0.255
X-35.705 Z-0.259
X-36.178 Z-0.274
X-36.504 Z-0.275
X-37.121 Z-0.263
X-38.046 Z-0.26
X-38.947 Z-0.259
X-39.247 Z-0.278
X-39.327 Z-0.282
X-39.769 Z-0.258
X-40.528 Z-0.26
X-40.933 Z-0.237
X-41.994 Z-0.238
X-42.394 Z-0.223
X-43.271 Z-0.228
X-44.142 Z-0.22
X-44.614 Z-0.215
X-44.973 Z-0.204
X-46.204 Z-0.207
X-46.746 Z-0.246
X-47.038 Z-0.249
X-47.299 Z-0.257
X-47.974 Z-0.261
X-48.341 Z-0.271
X-49.315 Z-0.273
X-50.005 Z-0.288
X-50.621 Z-0.292
X-51.153 Z-0.337
X-51.327 Z-0.341
X-51.821 Z-0.33
X-52.359
X-52.377 Z-0.326
X-52.394 Z-0.322
X-52.431 Y-42.67
X-52.464 Y-42.653
X-52.491 Y-42.627
X-52.507 Y-42.594
X-52.513 Y-42.557
Y-42.399
X-52.507 Y-42.362
X-52.491 Y-42.329
X-52.464 Y-42.302
X-52.431 Y-42.286
X-52.394 Y-42.28
X-52.377 Z-0.326
X-52.359 Z-0.33
X-51.567 Z-0.328
X-51.25 Z-0.337
X-50.667 Z-0.313
X-50.3 Z-0.279
X-49.874 Z-0.271
X-49.027 Z-0.268
X-48.284 Z-0.274
X-47.645 Z-0.263
X-47.194 Z-0.269
X-46.744 Z-0.252
X-46.517 Z-0.239
X-46.024 Z-0.206
X-45.489 Z-0.205
X-44.905 Z-0.207
X-44.52 Z-0.23
X-43.421 Z-0.228
X-42.563 Z-0.223
X-41.987 Z-0.247
X-41.021 Z-0.244
X-40.564 Z-0.265
X-39.955 Z-0.268
X-39.881 Z-0.275
X-39.673 Z-0.283
X-39.122 Z-0.312
X-38.729 Z-0.281
X-38.206
X-37.814 Z-0.276
X-36.742 Z-0.274
X-35.831 Z-0.275
X-34.669 Z-0.27
X-33.289 Z-0.265
X-33.152 Z-0.262
X-32.503 Z-0.253
X-31.111 Z-0.264
X-29.852 Z-0.273
X-29.539 Z-0.271
X-28.427
X-28.172 Z-0.261
X-27.728 Z-0.254
X-26.185 Z-0.25
X-25.991 Z-0.249
X-25.467 Z-0.245
X-25.308 Z-0.251
X-25.074 Z-0.301
X-24.771 Z-0.354
X-24.71 Z-0.452
X-24.476 Z-0.975
X-24.287 Z-1.651
X-24.281 Z-1.638
X-24.075 Z-0.905
X-23.923 Z-0.55
X-23.868 Z-0.44
X-23.792 Z-0.347
X-23.522 Z-0.335
X-22.724 Z-0.328
X-22.717 Z-0.325
X-22.595 Z-0.298
X-22.2 Z-0.295
X-21.745 Z-0.322
X-21.194 Z-0.3
X-20.637 Z-0.29
X-20.365 Z-0.286
X-19.572 Z-0.282
X-19.349 Z-0.272
X-18.817 Z-0.269
X-18.33 Z-0.263
X-16.735 Z-0.256
X-15.755 Z-0.257
X-15.375 Z-0.252
X-14.553 Z-0.248
X-14.321 Z-0.257
X-13.63 Z-0.256
X-13.506 Z-0.253
X-12.667 Z-0.248
X-12.454 Z-0.263
X-11.54 Z-0.267
X-10.312 Z-0.263
X-9.958 Z-0.269
X-9.724 Z-0.259
X-8.936 Z-0.262
X-8.688 Z-0.257
X-7.745 Z-0.259
X-5.24 Z-0.257
X-5.035 Z-0.266
X-4.476
X-3.552 Z-0.258
X-3.088 Z-0.267
X-2.917 Z-0.268
X-0.994 Z-0.273
X-0.485 Z-0.274
X0.211 Z-0.285
X0.526 Z-0.282
X1.328 Z-0.277
X1.486 Z-0.287
X2.22 Z-0.293
X3.604 Z-0.29
X4.428 Z-0.289
X4.732 Z-0.28
X5.473 Z-0.273
X5.838 Z-0.27
X6.265 Z-0.275
X7.017 Z-0.283
X7.388 Z-0.305
X7.678 Z-0.307
X8.444 Z-0.304
X8.543 Z-0.297
X9.331 Z-0.261
X9.632 Z-0.242
X10.089 Z-0.236
X10.389 Z-0.241
X10.914 Z-0.247
X11.322 Z-0.256
X12.534 Z-0.28
X12.758 Z-0.263
X13.241 Z-0.258
X13.778 Z-0.288
X14.621 Z-0.287
X15.077 Z-0.288
X15.564 Z-0.29
X16.031 Z-0.283
X16.222 Z-0.266
X17.046 Z-0.263
X17.255 Z-0.261
X17.658 Z-0.256
X17.973 Z-0.245
X19.26 Z-0.231
X19.85 Z-0.227
X20.298 Z-0.248
X20.542 Z-0.278
X20.675 Z-0.282
X21.318 Z-0.276
X22.451 Z-0.28
X23.255 Z-0.277
X24.091 Z-0.263
X24.586 Z-0.258
X25.097 Z-0.275
X25.349 Z-0.28
X25.708 Z-0.29
X26.348 Z-0.275
X27.128 Z-0.271
X27.483 Z-0.282
X27.869 Z-0.268
X29.01 Z-0.248
X29.26 Z-0.256
X30.759 Z-0.258
X31.265 Z-0.27
X32.362 Z-0.273
X32.848 Z-0.277
X33.231 Z-0.287
X33.382 Z-0.277
X34.437 Z-0.274
X35.212 Z-0.29
X35.379 Z-0.285
X35.715 Z-0.28
X36.165 Z-0.271
X36.825 Z-0.274
X36.918 Z-0.271
X37.712 Z-0.268
X37.864 Z-0.276
X38.385 Z-0.275
X38.909 Z-0.29
X39.158 Z-0.26
X39.689 Z-0.255
X39.89 Z-0.259
X40.702 Z-0.255
X40.857 Z-0.244
X41.238 Z-0.238
X41.645 Z-0.243
X42.654 Z-0.247
X43.448 Z-0.249
X43.599 Z-0.244
X44.085 Z-0.238
X44.507 Z-0.251
X45.17 Z-0.254
X45.711 Z-0.276
X46.027 Z-0.277
X46.615 Z-0.284
X47.357 Z-0.287
X47.79 Z-0.259
X48.392 Z-0.254
X48.796 Z-0.27
X48.911 Z-0.267
X49.73 Z-0.264
X49.964 Z-0.276
X50.328 Z-0.283
X50.464 Z-0.302
X50.741 Z-0.299
X50.946 Z-0.281
X51.154 Z-0.266
X51.697 Z-0.255
X52.359 Z-0.263
X52.377 Z-0.259
X52.395 Z-0.255
X52.415 Y-42.278
X52.435 Y-42.273
X52.454 Y-42.264 Z-0.254
X52.471 Y-42.252
X52.486 Y-42.237
X52.497 Y-42.22 Z-0.253
X52.506 Y-42.202
X52.512 Y-42.182 Z-0.252
X52.513 Y-42.161 Z-0.251
Y-42.002 Z-0.247
X52.512 Y-41.982 Z-0.246
X52.506 Y-41.962
X52.497 Y-41.943 Z-0.245
X52.486 Y-41.926
X52.471 Y-41.911 Z-0.244
X52.454 Y-41.899
X52.435 Y-41.891
X52.415 Y-41.885 Z-0.243
X52.395 Y-41.884
X52.394
X52.376 Z-0.247
X52.359 Z-0.251
X51.289 Z-0.257
X51.012 Z-0.27
X50.779 Z-0.286
X50.08 Z-0.287
X49.666 Z-0.275
X49.331 Z-0.265
X48.963 Z-0.271
X48.407 Z-0.254
X47.726 Z-0.258
X47.372 Z-0.285
X46.579 Z-0.281
X45.557 Z-0.273
X44.734 Z-0.254
X44.48 Z-0.246
X41.717 Z-0.244
X41.434 Z-0.238
X40.835 Z-0.241
X40.615 Z-0.259
X40.098 Z-0.261
X39.66 Z-0.284
X39.22 Z-0.287
X38.655 Z-0.29
X37.837 Z-0.283
X37.432 Z-0.264
X36.906 Z-0.269
X36.605 Z-0.265
X36.07 Z-0.267
X35.767 Z-0.281
X35.289 Z-0.293
X34.196 Z-0.275
X33.359 Z-0.273
X33.173 Z-0.295
X32.545 Z-0.278
X31.947 Z-0.282
X31.568 Z-0.274
X31.158 Z-0.259
X30.28 Z-0.252
X29.008 Z-0.26
X28.475 Z-0.264
X27.919 Z-0.273
X27.302 Z-0.278
X26.61 Z-0.275
X25.883 Z-0.281
X25.487 Z-0.247
X25.156 Z-0.249
X24.926 Z-0.267
X23.837 Z-0.275
X22.37 Z-0.276
X21.894 Z-0.271
X21.333 Z-0.277
X20.674 Z-0.279
X20.517 Z-0.278
X20.048 Z-0.254
X18.977 Z-0.244
X18.223 Z-0.245
X17.71 Z-0.265
X17.502 Z-0.258
X16.802 Z-0.262
X16.298 Z-0.273
X16.135 Z-0.29
X15.048 Z-0.288
X14.543 Z-0.296
X13.887 Z-0.298
X13.716 Z-0.302
X13.332 Z-0.293
X13.156 Z-0.288
X11.89 Z-0.281
X11.159 Z-0.27
X10.517 Z-0.263
X9.556 Z-0.269
X8.822 Z-0.292
X7.672 Z-0.299
X7.114 Z-0.283
X6.398 Z-0.276
X6.012 Z-0.27
X5.374 Z-0.273
X4.529 Z-0.288
X3.631 Z-0.295
X3.408 Z-0.304
X2.79 Z-0.306
X2.298 Z-0.299
X1.551 Z-0.284
X1.392 Z-0.277
X0.613 Z-0.28
X0.127 Z-0.293
X-0.519 Z-0.28
X-1.44 Z-0.273
X-1.988 Z-0.267
X-2.536 Z-0.26
X-3.268 Z-0.248
X-3.898 Z-0.252
X-4.122 Z-0.259
X-4.302 Z-0.246
X-5.032 Z-0.249
X-5.209 Z-0.262
X-6.246 Z-0.259
X-6.614 Z-0.271
X-6.871 Z-0.268
X-7.305 Z-0.26
X-7.92 Z-0.263
X-8.398 Z-0.257
X-8.869 Z-0.273
X-9.818 Z-0.27
X-10.021 Z-0.28
X-10.472 Z-0.267
X-10.87 Z-0.262
X-11.942 Z-0.264
X-12.542
X-12.732 Z-0.25
X-13.491 Z-0.254
X-14.416 Z-0.255
X-15.11 Z-0.252
X-15.624 Z-0.26
X-16.414 Z-0.253
X-17.301 Z-0.248
X-18.298 Z-0.253
X-18.536 Z-0.264
X-19.477 Z-0.265
X-19.804 Z-0.279
X-21.242 Z-0.284
X-21.884 Z-0.31
X-22.246 Z-0.338
X-22.311 Z-0.33
X-23.391 Z-0.333
X-23.59 Z-0.396
X-23.634 Z-0.426
X-23.684 Z-0.512
X-23.898 Z-1.113
X-23.958 Z-1.322
X-24.061 Z-1.568
X-24.131 Z-1.324
X-24.38 Z-0.488
X-24.425 Z-0.446
X-24.592 Z-0.362
X-24.679 Z-0.322
X-24.988 Z-0.304
X-25.273 Z-0.245
X-25.856 Z-0.242
X-26.741 Z-0.245
X-27.219 Z-0.257
X-27.716 Z-0.243
X-28.355 Z-0.256
X-28.614 Z-0.273
X-29.373 Z-0.277
X-29.551 Z-0.28
X-29.967 Z-0.273
X-32.398 Z-0.266
X-33.056
X-34.256 Z-0.271
X-35.872 Z-0.274
X-36.154 Z-0.28
X-37.229 Z-0.282
X-37.37 Z-0.285
X-37.808 Z-0.284
X-38.087 Z-0.307
X-38.398 Z-0.322
X-38.878 Z-0.337
X-39.091 Z-0.344
X-39.48 Z-0.335
X-39.864 Z-0.286
X-40.091 Z-0.271
X-40.586 Z-0.268
X-40.897 Z-0.244
X-41.972 Z-0.249
X-42.102 Z-0.258
X-42.309 Z-0.253
X-42.542 Z-0.236
X-43.591 Z-0.228
X-44.39 Z-0.23
X-44.772 Z-0.207
X-45.587 Z-0.212
X-46.043 Z-0.237
X-46.479 Z-0.245
X-46.934 Z-0.265
X-47.199 Z-0.275
X-47.442 Z-0.273
X-48.298 Z-0.275
X-49.583 Z-0.266
X-50.373 Z-0.278
X-50.618 Z-0.302
X-51.335 Z-0.329
X-52.359 Z-0.328
X-52.377 Z-0.324
X-52.394 Z-0.32
X-52.396
X-52.416 Y-41.882
X-52.436 Y-41.876 Z-0.321
X-52.455 Y-41.868
X-52.472 Y-41.856
X-52.487 Y-41.841 Z-0.322
X-52.499 Y-41.824
X-52.507 Y-41.805 Z-0.323
X-52.513 Y-41.785
X-52.514 Y-41.765 Z-0.324
Y-41.606 Z-0.329
X-52.513 Y-41.585 Z-0.33
X-52.507 Y-41.565
X-52.499 Y-41.547 Z-0.331
X-52.487 Y-41.53
X-52.472 Y-41.515 Z-0.332
X-52.455 Y-41.503
X-52.436 Y-41.494
X-52.416 Y-41.489 Z-0.333
X-52.396 Y-41.487
X-52.378 Z-0.337
X-52.359 Z-0.341
X-52.059 Z-0.329
X-51.334 Z-0.333
X-50.911 Z-0.312
X-50.288 Z-0.298
X-50.19 Z-0.29
X-49.627 Z-0.281
X-48.379 Z-0.274
X-48.198 Z-0.271
X-47.376 Z-0.275
X-47.117 Z-0.278
X-47.041 Z-0.272
X-46.709 Z-0.268
X-45.967 Z-0.249
X-45.389 Z-0.214
X-44.756 Z-0.217
X-44.36 Z-0.233
X-44.148 Z-0.241
X-44.05 Z-0.232
X-43.189
X-42.675 Z-0.234
X-42.474 Z-0.256
X-42.011 Z-0.258
X-41.29 Z-0.251
X-40.692 Z-0.268
X-40.035 Z-0.278
X-39.673 Z-0.308
X-39.31 Z-0.32
X-38.884 Z-0.354
X-38.46 Z-0.342
X-38.023 Z-0.328
X-37.463 Z-0.303
X-37.298 Z-0.295
X-36.963 Z-0.282
X-36.217 Z-0.277
X-35.841 Z-0.284
X-35.472 Z-0.278
X-34.888 Z-0.279
X-34.765 Z-0.271
X-33.761 Z-0.265
X-33.466 Z-0.273
X-33.324 Z-0.269
X-32.962 Z-0.256
X-32.438 Z-0.264
X-31.653 Z-0.265
X-31.296 Z-0.281
X-30.708 Z-0.277
X-29.561 Z-0.283
X-29.381 Z-0.278
X-28.88 Z-0.273
X-28.652 Z-0.263
X-28.331 Z-0.244
X-27.411 Z-0.239
X-27.012 Z-0.259
X-26.686 Z-0.246
X-26.269 Z-0.241
X-25.321 Z-0.251
X-24.989 Z-0.29
X-24.717 Z-0.304
X-24.281 Z-0.335
X-24.14 Z-0.462
X-23.983 Z-0.674
X-23.767 Z-1.486
X-23.555 Z-0.974
X-23.298 Z-0.419
X-23.01 Z-0.333
X-22.304 Z-0.332
X-22.03 Z-0.326
X-21.786 Z-0.304
X-21.216 Z-0.284
X-19.787 Z-0.279
X-19.444 Z-0.264
X-18.485 Z-0.265
X-18.234 Z-0.252
X-16.544 Z-0.25
X-16.107 Z-0.269
X-15.54 Z-0.266
X-14.518 Z-0.258
X-14.361 Z-0.255
X-13.659 Z-0.251
X-13.512 Z-0.256
X-12.989 Z-0.258
X-12.65 Z-0.273
X-12.575 Z-0.271
X-11.182 Z-0.254
X-10.179 Z-0.279
X-9.969 Z-0.274
X-9.428 Z-0.265
X-8.74 Z-0.271
X-7.893 Z-0.276
X-7.725 Z-0.268
X-6.977 Z-0.267
X-6.057 Z-0.264
X-5.21 Z-0.263
X-5.039 Z-0.251
X-4.351 Z-0.246
X-4.142 Z-0.259
X-3.917 Z-0.254
X-3.408 Z-0.248
X-2.546 Z-0.257
X-1.889
X-1.465 Z-0.277
X-0.966 Z-0.296
X-0.712 Z-0.286
X0.025 Z-0.284
X0.252 Z-0.302
X0.398 Z-0.304
X0.897 Z-0.288
X1.275 Z-0.291
X1.732 Z-0.295
X2.44 Z-0.305
X3.505 Z-0.306
X3.722 Z-0.297
X4.434 Z-0.29
X4.612 Z-0.284
X5.597 Z-0.278
X7.639 Z-0.283
X7.85 Z-0.29
X8.417 Z-0.286
X9.439 Z-0.281
X9.827 Z-0.294
X9.961 Z-0.287
X10.336 Z-0.283
X10.56 Z-0.275
X11.874 Z-0.288
X12.416 Z-0.286
X13.733 Z-0.29
X13.822 Z-0.299
X13.925 Z-0.303
X14.927 Z-0.295
X15.065 Z-0.288
X16.183 Z-0.287
X16.298 Z-0.282
X16.819 Z-0.262
X17.56 Z-0.258
X17.913 Z-0.279
X18.359 Z-0.262
X18.87 Z-0.256
X19.543 Z-0.252
X20.597 Z-0.266
X22.412
X22.531 Z-0.274
X23.128 Z-0.277
X23.449 Z-0.285
X23.905 Z-0.281
X24.635 Z-0.264
X24.928 Z-0.239
X25.731 Z-0.236
X25.953 Z-0.277
X26.264 Z-0.274
X27.286 Z-0.272
X28.279
X29.378 Z-0.257
X30.775 Z-0.252
X31.333 Z-0.265
X32.002 Z-0.268
X32.236 Z-0.277
X32.603 Z-0.283
X33.107 Z-0.3
X33.417 Z-0.281
X33.975 Z-0.278
X34.516 Z-0.273
X34.965 Z-0.26
X35.373 Z-0.269
X35.97 Z-0.262
X36.755 Z-0.265
X36.875 Z-0.261
X37.707 Z-0.256
X37.928 Z-0.273
X38.128 Z-0.283
X39.072 Z-0.293
X39.411 Z-0.306
X39.649 Z-0.299
X40.119 Z-0.287
X40.506 Z-0.277
X40.916 Z-0.253
X41.321 Z-0.244
X41.915 Z-0.263
X42.059 Z-0.26
X42.619 Z-0.249
X44.551 Z-0.246
X45.28 Z-0.278
X46.157 Z-0.284
X46.375 Z-0.281
X47.029 Z-0.268
X47.427 Z-0.283
X47.68 Z-0.272
X48.094 Z-0.258
X48.632 Z-0.269
X49.416
X49.806 Z-0.283
X50.78 Z-0.28
X51.275 Z-0.256
X52.359 Z-0.251
X52.376 Z-0.246
X52.394 Z-0.242
X52.395
X52.415 Y-41.486
X52.435 Y-41.48 Z-0.243
X52.454 Y-41.471
X52.471 Y-41.46
X52.486 Y-41.445
X52.497 Y-41.428
X52.506 Y-41.409
X52.512 Y-41.389 Z-0.244
X52.513 Y-41.368
Y-41.21 Z-0.246
X52.512 Y-41.189
X52.506 Y-41.169 Z-0.247
X52.497 Y-41.151
X52.486 Y-41.134
X52.471 Y-41.119
X52.454 Y-41.107 Z-0.248
X52.435 Y-41.098
X52.415 Y-41.093
X52.395 Y-41.091
X52.377 Z-0.252
X52.359 Z-0.256
X51.887 Z-0.251
X51.413 Z-0.259
X50.899 Z-0.28
X50.004 Z-0.282
X49.656 Z-0.267
X48.534 Z-0.274
X47.925 Z-0.282
X47.712 Z-0.289
X47.334 Z-0.268
X46.482 Z-0.271
X46.227 Z-0.28
X45.149 Z-0.278
X44.927 Z-0.261
X42.922 Z-0.267
X42.603 Z-0.277
X41.45 Z-0.28
X41.121 Z-0.277
X40.681 Z-0.282
X40.039
X39.632 Z-0.305
X38.748 Z-0.277
X37.842 Z-0.276
X37.62 Z-0.257
X36.994 Z-0.261
X36.716 Z-0.268
X34.554 Z-0.26
X34.288 Z-0.277
X33.454 Z-0.286
X33.172 Z-0.291
X32.44 Z-0.28
X32.187 Z-0.277
X31.7 Z-0.268
X31.116 Z-0.267
X30.511 Z-0.263
X30.193 Z-0.252
X28.893 Z-0.254
X28.571 Z-0.272
X27.805 Z-0.27
X27.682 Z-0.264
X27.02 Z-0.27
X26.036 Z-0.275
X25.599 Z-0.236
X25.058 Z-0.24
X24.74 Z-0.264
X24.046 Z-0.282
X23.985 Z-0.286
X23.394 Z-0.298
X23.138 Z-0.282
X22.598
X22.252 Z-0.266
X20.812 Z-0.259
X20.346 Z-0.229
X20.121 Z-0.222
X19.547 Z-0.226
X19.292 Z-0.239
X18.989 Z-0.265
X18.506 Z-0.27
X17.88 Z-0.28
X17.072 Z-0.271
X16.237 Z-0.272
X16.123 Z-0.286
X14.918 Z-0.293
X14.237 Z-0.3
X14.024 Z-0.31
X13.475 Z-0.288
X12.662 Z-0.29
X12.387 Z-0.3
X11.603 Z-0.296
X10.143 Z-0.295
X9.203 Z-0.281
X7.788 Z-0.292
X7.5 Z-0.283
X6.956 Z-0.288
X6.153 Z-0.297
X5.324 Z-0.285
X4.758 Z-0.291
X4.246 Z-0.302
X3.03 Z-0.306
X2.159
X1.344 Z-0.309
X0.439 Z-0.303
X0.245 Z-0.282
X-0.443 Z-0.278
X-0.879 Z-0.265
X-1.403 Z-0.27
X-1.48 Z-0.272
X-1.691 Z-0.253
X-2.433 Z-0.255
X-3.503 Z-0.253
X-4.174 Z-0.264
X-4.3 Z-0.263
X-4.721 Z-0.254
X-5.005 Z-0.266
X-5.172 Z-0.275
X-5.501 Z-0.267
X-6.942 Z-0.273
X-7.108 Z-0.276
X-7.634 Z-0.277
X-7.816 Z-0.278
X-8.537 Z-0.274
X-8.79 Z-0.264
X-9.74 Z-0.269
X-9.978 Z-0.277
X-10.951 Z-0.254
X-11.949 Z-0.26
X-12.606 Z-0.275
X-12.798 Z-0.286
X-13.421 Z-0.272
X-13.758 Z-0.256
X-15.318 Z-0.264
X-15.43 Z-0.269
X-16.209 Z-0.267
X-16.425 Z-0.255
X-17.356 Z-0.263
X-18.07 Z-0.264
X-19.113 Z-0.273
X-19.506 Z-0.287
X-20.586
X-21.241 Z-0.291
X-21.513 Z-0.302
X-21.783 Z-0.306
X-22.433 Z-0.348
X-22.75 Z-0.39
X-22.878 Z-0.432
X-22.904 Z-0.454
X-22.983 Z-0.586
X-23.303 Z-1.197
X-23.427 Z-1.463
X-23.585 Z-0.851
X-23.863 Z-0.358
X-23.883 Z-0.332
X-24.238 Z-0.316
X-24.769 Z-0.306
X-25.137 Z-0.287
X-26.251 Z-0.253
X-27.085 Z-0.252
X-27.6 Z-0.239
X-28.322 Z-0.247
X-28.753 Z-0.28
X-28.898
X-29.468 Z-0.276
X-30.069 Z-0.264
X-30.759 Z-0.272
X-31.214 Z-0.278
X-32.062 Z-0.272
X-32.551 Z-0.256
X-33.309 Z-0.26
X-33.608 Z-0.273
X-33.9 Z-0.265
X-34.675 Z-0.273
X-34.999 Z-0.316
X-35.367 Z-0.311
X-35.483 Z-0.309
X-36.111 Z-0.28
X-36.739 Z-0.281
X-36.973 Z-0.311
X-37.373 Z-0.32
X-37.647 Z-0.329
X-38.312 Z-0.324
X-38.679 Z-0.311
X-40.017 Z-0.313
X-40.33 Z-0.299
X-40.57 Z-0.288
X-41.007 Z-0.265
X-42.413 Z-0.259
X-42.705 Z-0.236
X-44.09
X-44.258 Z-0.245
X-44.452 Z-0.242
X-44.798 Z-0.23
X-45.4 Z-0.234
X-45.801 Z-0.26
X-46.149 Z-0.266
X-46.963 Z-0.261
X-47.384 Z-0.272
X-47.563 Z-0.278
X-48.128
X-48.293 Z-0.282
X-48.697 Z-0.274
X-49.192 Z-0.281
X-49.877 Z-0.305
X-50.948 Z-0.32
X-51.335 Z-0.338
X-51.901 Z-0.345
X-52.359 Z-0.35
X-52.377 Z-0.346
X-52.394 Z-0.342
X-52.415 Y-41.089
X-52.435 Y-41.084
X-52.454 Y-41.075 Z-0.341
X-52.471 Y-41.063
X-52.486 Y-41.049 Z-0.34
X-52.497 Y-41.032
X-52.506 Y-41.013 Z-0.339
X-52.512 Y-40.993 Z-0.338
X-52.513 Y-40.972 Z-0.337
Y-40.814 Z-0.331
X-52.512 Y-40.793 Z-0.33
X-52.506 Y-40.773 Z-0.329
X-52.497 Y-40.754
X-52.486 Y-40.737 Z-0.328
X-52.471 Y-40.723 Z-0.327
X-52.454 Y-40.711
X-52.435 Y-40.702
X-52.415 Y-40.697 Z-0.326
X-52.394 Y-40.695
X-52.377 Z-0.33
X-52.359 Z-0.334
X-51.609 Z-0.332
X-51.087 Z-0.322
X-49.665 Z-0.308
X-49.158 Z-0.283
X-48.403 Z-0.281
X-48.263 Z-0.291
X-47.778 Z-0.294
X-47.36 Z-0.266
X-46.275 Z-0.261
X-45.642 Z-0.281
X-45.375 Z-0.271
X-44.971 Z-0.263
X-44.591 Z-0.252
X-44.065 Z-0.246
X-43.813 Z-0.236
X-43.357 Z-0.239
X-42.99 Z-0.241
X-42.371 Z-0.264
X-41.577 Z-0.268
X-41.035 Z-0.281
X-40.348 Z-0.336
X-39.961 Z-0.316
X-37.764 Z-0.312
X-37.503 Z-0.3
X-37.172 Z-0.302
X-36.564 Z-0.312
X-36.287 Z-0.304
X-35.692 Z-0.309
X-34.697 Z-0.305
X-34.486 Z-0.288
X-33.748 Z-0.289
X-33.571 Z-0.271
X-33.305 Z-0.262
X-32.575 Z-0.258
X-32.312 Z-0.271
X-31.051 Z-0.284
X-30.588 Z-0.267
X-29.637 Z-0.266
X-29.382 Z-0.275
X-29.063 Z-0.278
X-28.66 Z-0.286
X-28.469 Z-0.279
X-27.837 Z-0.248
X-27.212 Z-0.26
X-26.954 Z-0.258
X-26.273 Z-0.255
X-25.976 Z-0.271
X-25.295 Z-0.283
X-25.046 Z-0.303
X-24.674 Z-0.307
X-24.188 Z-0.301
X-23.807 Z-0.309
X-23.505 Z-0.377
X-23.261 Z-1.254
X-23.035 Z-0.677
X-22.949 Z-0.565
X-22.749 Z-0.37
X-22.713 Z-0.351
X-22.141 Z-0.307
X-21.302 Z-0.302
X-20.978 Z-0.298
X-20.273 Z-0.297
X-19.628
X-19.222 Z-0.271
X-18.669 Z-0.265
X-18.55 Z-0.259
X-17.966 Z-0.252
X-17.264 Z-0.256
X-16.236 Z-0.257
X-14.446 Z-0.262
X-13.824 Z-0.271
X-13.094 Z-0.292
X-12.505 Z-0.279
X-11.468 Z-0.257
X-10.884 Z-0.26
X-10.247 Z-0.271
X-9.868 Z-0.263
X-9.041 Z-0.262
X-8.603 Z-0.265
X-8.429 Z-0.272
X-7.632 Z-0.27
X-7.166 Z-0.284
X-6.477 Z-0.269
X-5.916 Z-0.281
X-5.799 Z-0.28
X-5.35 Z-0.278
X-4.697 Z-0.279
X-4.196 Z-0.262
X-3.074 Z-0.252
X-2.395 Z-0.257
X-1.58 Z-0.253
X-1.472 Z-0.263
X-1.118 Z-0.265
X-0.534 Z-0.27
X-0.133 Z-0.276
X0.436 Z-0.301
X1.298 Z-0.303
X1.477 Z-0.309
X1.69 Z-0.312
X2.8 Z-0.305
X3.808 Z-0.313
X3.907 Z-0.309
X4.423 Z-0.299
X4.798 Z-0.288
X5.435 Z-0.285
X6.264 Z-0.297
X6.573 Z-0.304
X6.916 Z-0.291
X7.837
X9.42 Z-0.282
X10.158 Z-0.303
X10.233 Z-0.302
X10.719 Z-0.293
X11.741 Z-0.297
X12.364 Z-0.304
X12.761 Z-0.312
X13.193 Z-0.305
X14.264 Z-0.316
X15.43 Z-0.291
X16.185 Z-0.289
X16.266 Z-0.284
X16.527 Z-0.271
X16.98 Z-0.277
X18.902 Z-0.272
X19.11 Z-0.262
X19.246 Z-0.236
X19.422 Z-0.227
X20.329 Z-0.222
X20.932 Z-0.26
X21.726 Z-0.265
X22.173 Z-0.282
X22.8 Z-0.292
X23.206 Z-0.3
X23.556 Z-0.291
X24.14 Z-0.286
X24.59 Z-0.276
X25.919 Z-0.274
X26.232 Z-0.283
X26.93 Z-0.269
X27.83 Z-0.264
X27.953 Z-0.273
X28.499 Z-0.269
X28.767 Z-0.254
X29.711 Z-0.253
X30.28 Z-0.261
X31.874 Z-0.275
X33.119 Z-0.288
X33.335 Z-0.274
X34.284 Z-0.272
X34.661 Z-0.262
X35.619 Z-0.266
X36.203 Z-0.265
X36.648 Z-0.271
X36.908 Z-0.264
X37.681 Z-0.26
X37.947 Z-0.275
X38.747 Z-0.277
X39.398 Z-0.291
X39.767 Z-0.28
X40.448 Z-0.269
X40.824 Z-0.283
X41.025 Z-0.278
X41.918 Z-0.274
X42.421 Z-0.254
X43.324 Z-0.251
X43.81 Z-0.242
X44.51 Z-0.261
X45.113 Z-0.275
X46.349 Z-0.278
X46.577 Z-0.274
X47.19 Z-0.27
X47.679 Z-0.287
X48.132 Z-0.289
X48.872 Z-0.269
X49.807
X50.112 Z-0.287
X50.782 Z-0.281
X51.256 Z-0.289
X51.447 Z-0.279
X51.821 Z-0.271
X52.359 Z-0.287
X52.378 Z-0.283
X52.395 Z-0.279
X52.416 Y-40.693
X52.436 Y-40.688
X52.455 Y-40.679 Z-0.28
X52.472 Y-40.667
X52.486 Y-40.652 Z-0.281
X52.498 Y-40.635 Z-0.282
X52.507 Y-40.617 Z-0.283
X52.512 Y-40.597 Z-0.284
X52.514 Y-40.576 Z-0.285
Y-40.417 Z-0.292
X52.512 Y-40.397 Z-0.293
X52.507 Y-40.377 Z-0.294
X52.498 Y-40.358 Z-0.295
X52.486 Y-40.341 Z-0.296
X52.472 Y-40.326
X52.455 Y-40.315 Z-0.297
X52.436 Y-40.306
X52.416 Y-40.3
X52.395 Y-40.299 Z-0.298
X52.377 Z-0.302
X52.359 Z-0.306
X51.754 Z-0.296
X51.172 Z-0.307
X50.573 Z-0.286
X50.079 Z-0.299
X49.533 Z-0.272
X48.82 Z-0.279
X48.149 Z-0.289
X47.614 Z-0.288
X46.902 Z-0.281
X45.358 Z-0.274
X45.117 Z-0.266
X44.875 Z-0.263
X44.291 Z-0.236
X42.306 Z-0.242
X41.717 Z-0.267
X39.711 Z-0.269
X39.333 Z-0.283
X38.796 Z-0.277
X38.518 Z-0.267
X37.985 Z-0.271
X37.593 Z-0.26
X36.912 Z-0.264
X36.694 Z-0.269
X35.76 Z-0.268
X35.358 Z-0.277
X34.628 Z-0.273
X33.361
X33.079 Z-0.292
X32.128 Z-0.295
X31.259 Z-0.274
X31.031 Z-0.266
X30.885 Z-0.263
X29.729 Z-0.26
X29.507 Z-0.262
X29.035 Z-0.265
X28.496 Z-0.275
X27.834 Z-0.28
X27.341 Z-0.272
X26.382 Z-0.288
X25.447 Z-0.28
X25.216 Z-0.285
X24.465 Z-0.293
X23.848 Z-0.292
X23.274 Z-0.298
X22.075 Z-0.274
X21.222 Z-0.273
X21.04 Z-0.277
X20.108 Z-0.236
X19.789 Z-0.23
X19.389 Z-0.232
X18.884 Z-0.261
X18.543 Z-0.266
X18.161 Z-0.254
X17.614 Z-0.272
X17.34 Z-0.277
X16.832 Z-0.281
X16.401 Z-0.297
X15.609 Z-0.3
X14.895 Z-0.313
X14.369 Z-0.31
X12.82 Z-0.309
X12.528 Z-0.31
X11.793 Z-0.295
X11.244 Z-0.289
X10.234 Z-0.299
X10.177 Z-0.302
X10.132 Z-0.29
X9.409 Z-0.288
X7.893
X6.948 Z-0.291
X6.779 Z-0.297
X6.273 Z-0.292
X5.775 Z-0.298
X5.1 Z-0.291
X4.216 Z-0.296
X4.02 Z-0.312
X3.477 Z-0.316
X3.076 Z-0.305
X2.249 Z-0.311
X1.713 Z-0.31
X1.102 Z-0.294
X0.384
X0.23 Z-0.273
X-0.789 Z-0.27
X-1.616 Z-0.269
X-2.264 Z-0.251
X-3.844 Z-0.26
X-3.959 Z-0.269
X-4.591 Z-0.274
X-5.007 Z-0.276
X-5.335 Z-0.27
X-6.048 Z-0.275
X-6.507 Z-0.288
X-7.059 Z-0.295
X-7.288 Z-0.271
X-8.361 Z-0.274
X-8.607 Z-0.265
X-9.045 Z-0.262
X-9.887 Z-0.264
X-10.23 Z-0.268
X-10.903 Z-0.273
X-11.487 Z-0.271
X-12.094 Z-0.28
X-13.141 Z-0.284
X-13.284 Z-0.271
X-14.355 Z-0.266
X-14.703 Z-0.26
X-16.966 Z-0.263
X-17.172 Z-0.246
X-18.071 Z-0.25
X-18.233 Z-0.255
X-18.543 Z-0.259
X-18.644 Z-0.265
X-19.159 Z-0.269
X-19.451 Z-0.292
X-21.282 Z-0.294
X-21.401 Z-0.303
X-22.443 Z-0.31
X-22.681 Z-0.344
X-22.725 Z-0.374
X-22.806 Z-0.509
X-22.953 Z-0.768
X-23.001 Z-0.897
X-23.06 Z-1.113
X-23.108 Z-0.928
X-23.226 Z-0.621
X-23.294 Z-0.505
X-23.391 Z-0.352
X-23.775 Z-0.296
X-24.589 Z-0.293
X-25.416
X-26.055 Z-0.27
X-26.25 Z-0.26
X-27.247 Z-0.267
X-27.427 Z-0.27
X-28.285 Z-0.274
X-28.854 Z-0.297
X-29.342 Z-0.28
X-29.518 Z-0.269
X-30.54 Z-0.27
X-30.887 Z-0.29
X-31.135 Z-0.289
X-31.664 Z-0.273
X-31.991 Z-0.271
X-32.376 Z-0.264
X-33.367 Z-0.269
X-34.015 Z-0.288
X-34.557 Z-0.307
X-35.72 Z-0.302
X-36.118 Z-0.307
X-36.427 Z-0.313
X-36.638 Z-0.306
X-37.004 Z-0.287
X-37.758 Z-0.29
X-37.909 Z-0.304
X-38.787 Z-0.311
X-39.289 Z-0.323
X-40.004 Z-0.341
X-40.352 Z-0.348
X-40.854 Z-0.295
X-41.85 Z-0.288
X-43.037 Z-0.267
X-43.231 Z-0.262
X-43.742 Z-0.255
X-44.374 Z-0.261
X-45.297 Z-0.271
X-45.441 Z-0.28
X-46.52 Z-0.273
X-47.18 Z-0.276
X-47.547 Z-0.294
X-48.909 Z-0.295
X-49.195 Z-0.31
X-50.039 Z-0.311
X-50.475 Z-0.322
X-51.523 Z-0.328
X-51.733 Z-0.334
X-52.359
X-52.377 Z-0.33
X-52.394 Z-0.326
X-52.395
X-52.416 Y-40.297
X-52.436 Y-40.291 Z-0.327
X-52.454 Y-40.283
X-52.471 Y-40.271
X-52.486 Y-40.256 Z-0.328
X-52.498 Y-40.239 Z-0.329
X-52.507 Y-40.22 Z-0.33
X-52.512 Y-40.2
X-52.514 Y-40.18 Z-0.331
Y-40.021 Z-0.338
X-52.512 Y-40.001 Z-0.339
X-52.507 Y-39.981 Z-0.34
X-52.498 Y-39.962 Z-0.341
X-52.486 Y-39.945
X-52.471 Y-39.93 Z-0.342
X-52.454 Y-39.918 Z-0.343
X-52.436 Y-39.91
X-52.416 Y-39.904
X-52.395 Y-39.902
X-52.378 Z-0.347
X-52.359 Z-0.351
X-52.328
X-51.775 Z-0.346
X-51.244 Z-0.329
X-50.595 Z-0.324
X-50.033 Z-0.293
X-49.432 Z-0.288
X-48.926 Z-0.314
X-48.769 Z-0.298
X-48.489 Z-0.292
X-48.156 Z-0.268
X-47.602 Z-0.264
X-47.379 Z-0.289
X-46.802 Z-0.28
X-45.326 Z-0.279
X-45.165 Z-0.27
X-44.119 Z-0.263
X-43.424 Z-0.258
X-43.117 Z-0.279
X-42.192 Z-0.282
X-41.783 Z-0.308
X-41.201 Z-0.311
X-40.587 Z-0.329
X-39.786 Z-0.339
X-39.605 Z-0.331
X-38.941 Z-0.324
X-38.633 Z-0.311
X-37.81 Z-0.304
X-37.673 Z-0.291
X-37.114 Z-0.287
X-36.715 Z-0.306
X-36.494 Z-0.295
X-35.595 Z-0.289
X-35.43 Z-0.302
X-34.883 Z-0.311
X-34.741 Z-0.307
X-34.396 Z-0.3
X-34.093 Z-0.285
X-33.672 Z-0.275
X-33.403 Z-0.271
X-32.483 Z-0.264
X-32.078 Z-0.272
X-31.366 Z-0.279
X-31.173 Z-0.291
X-30.803 Z-0.278
X-29.695 Z-0.28
X-29.199 Z-0.299
X-28.773 Z-0.289
X-27.182 Z-0.278
X-26.41 Z-0.271
X-26.084 Z-0.287
X-25.5 Z-0.29
X-24.268 Z-0.293
X-23.899 Z-0.296
X-23.576 Z-0.335
X-23.157 Z-0.366
X-23.124 Z-0.407
X-23.041 Z-0.548
X-22.906 Z-0.901
X-22.863 Z-1.043
X-22.861 Z-1.036
X-22.736 Z-0.619
X-22.697 Z-0.54
X-22.629 Z-0.471
X-22.319 Z-0.312
X-21.283 Z-0.303
X-21.148 Z-0.293
X-19.874 Z-0.292
X-19.703 Z-0.283
X-19.158 Z-0.278
X-19.084 Z-0.273
X-18.422 Z-0.271
X-17.902 Z-0.25
X-17.329 Z-0.246
X-17.024 Z-0.261
X-15.923 Z-0.272
X-15.747 Z-0.263
X-14.936 Z-0.255
X-14.649 Z-0.27
X-14.414 Z-0.273
X-13.383 Z-0.271
X-12.818 Z-0.276
X-11.755 Z-0.28
X-10.628 Z-0.272
X-9.127 Z-0.267
X-8.442 Z-0.285
X-8.226 Z-0.276
X-7.096 Z-0.269
X-6.884 Z-0.283
X-6.595 Z-0.291
X-6.152 Z-0.274
X-5.47 Z-0.264
X-5.303 Z-0.257
X-4.705 Z-0.252
X-4.312 Z-0.266
X-3.76 Z-0.27
X-3.478 Z-0.254
X-2.484 Z-0.251
X-1.454 Z-0.268
X0.596 Z-0.274
X0.867 Z-0.282
X1.257 Z-0.285
X1.768 Z-0.298
X1.99 Z-0.299
X3.237 Z-0.309
X3.709 Z-0.295
X6.955 Z-0.294
X7.311 Z-0.299
X7.77 Z-0.294
X8.035 Z-0.292
X9.966 Z-0.29
X10.136 Z-0.3
X10.235 Z-0.301
X10.988 Z-0.289
X12.05 Z-0.296
X12.603 Z-0.317
X12.991 Z-0.308
X14.931 Z-0.31
X15.349 Z-0.305
X15.594 Z-0.301
X16.637 Z-0.297
X16.908 Z-0.276
X17.408 Z-0.271
X17.691 Z-0.257
X18.929 Z-0.254
X19.22 Z-0.23
X20.043 Z-0.227
X20.531 Z-0.263
X20.92 Z-0.266
X21.397 Z-0.275
X22.424 Z-0.274
X22.627 Z-0.288
X23.394 Z-0.3
X24.838 Z-0.292
X25.009 Z-0.289
X27.128 Z-0.288
X27.692 Z-0.283
X27.962 Z-0.28
X28.92 Z-0.277
X29.224 Z-0.266
X30.254 Z-0.258
X30.88 Z-0.266
X31.585 Z-0.269
X31.777 Z-0.284
X32.128 Z-0.289
X32.765 Z-0.286
X33.027 Z-0.298
X33.3 Z-0.287
X34.083 Z-0.284
X34.286 Z-0.269
X35.068 Z-0.268
X36.953 Z-0.274
X38.898 Z-0.266
X39.201 Z-0.28
X39.518 Z-0.282
X39.783 Z-0.27
X41.601 Z-0.264
X42.197 Z-0.244
X44.151 Z-0.236
X44.783 Z-0.265
X45.41 Z-0.263
X46.514 Z-0.277
X46.926 Z-0.271
X47.514 Z-0.284
X47.822 Z-0.298
X48.326 Z-0.283
X49.509
X49.871 Z-0.294
X50.07 Z-0.29
X50.9 Z-0.286
X51.286 Z-0.297
X52.135 Z-0.299
X52.262 Z-0.315
X52.359 Z-0.321
X52.379 Z-0.317
X52.397 Z-0.313
X52.417 Y-39.901
X52.437 Y-39.895
X52.456 Y-39.886
X52.473 Y-39.875
X52.488 Y-39.86 Z-0.312
X52.5 Y-39.843
X52.508 Y-39.824
X52.514 Y-39.804 Z-0.311
X52.515 Y-39.784
Y-39.625 Z-0.308
X52.514 Y-39.604
X52.508 Y-39.584 Z-0.307
X52.5 Y-39.566
X52.488 Y-39.549
X52.473 Y-39.534 Z-0.306
X52.456 Y-39.522
X52.437 Y-39.513
X52.417 Y-39.508
X52.397 Y-39.506
X52.395
X52.378 Z-0.31
X52.359 Z-0.314
X51.938 Z-0.3
X51.34 Z-0.297
X50.806 Z-0.287
X50.254 Z-0.292
X50.075 Z-0.297
X49.604 Z-0.283
X48.887 Z-0.272
X48.169 Z-0.273
X47.034 Z-0.257
X46.531 Z-0.262
X46.411 Z-0.263
X45.031 Z-0.264
X44.58 Z-0.266
X43.945 Z-0.243
X42.312 Z-0.241
X41.612 Z-0.278
X41.288 Z-0.264
X40.737 Z-0.271
X40.21 Z-0.264
X39.674 Z-0.267
X39.552 Z-0.275
X39.308 Z-0.271
X37.825 Z-0.269
X37.573 Z-0.266
X37.252 Z-0.259
X36.798 Z-0.273
X35.665 Z-0.265
X35.297 Z-0.27
X34.433 Z-0.264
X34.238 Z-0.268
X34.116 Z-0.283
X33.264
X32.203 Z-0.281
X31.967 Z-0.29
X31.733 Z-0.269
X30.81 Z-0.265
X29.96 Z-0.261
X29.362 Z-0.28
X28.522 Z-0.285
X28.408 Z-0.291
X27.659 Z-0.294
X25.715 Z-0.289
X24.996 Z-0.293
X24.315 Z-0.297
X24.172 Z-0.307
X23.695 Z-0.304
X23.166 Z-0.31
X22.723 Z-0.3
X22.249 Z-0.276
X21.617 Z-0.275
X21.04 Z-0.266
X20.554 Z-0.264
X20.25 Z-0.253
X20.013 Z-0.23
X19.26 Z-0.232
X19.062 Z-0.245
X17.752 Z-0.261
X17.494 Z-0.271
X16.837 Z-0.274
X16.627 Z-0.297
X15.017 Z-0.307
X14.011 Z-0.306
X13.252 Z-0.313
X13.091 Z-0.321
X12.337 Z-0.318
X11.932 Z-0.301
X10.899 Z-0.291
X10.153 Z-0.299
X9.783 Z-0.301
X9.285 Z-0.289
X8.162 Z-0.294
X7.493 Z-0.299
X7.222 Z-0.302
X6.353 Z-0.291
X5.814 Z-0.301
X5.109 Z-0.293
X4.827 Z-0.305
X4.611 Z-0.302
X4.337 Z-0.291
X3.547 Z-0.296
X3.194 Z-0.306
X1.831 Z-0.297
X1.338 Z-0.285
X1.046 Z-0.284
X0.737 Z-0.274
X-1.236 Z-0.273
X-2.51 Z-0.256
X-3.094 Z-0.249
X-3.581 Z-0.253
X-3.811 Z-0.268
X-4.138 Z-0.272
X-4.317 Z-0.258
X-4.853 Z-0.252
X-5.407 Z-0.256
X-5.529 Z-0.261
X-6.277 Z-0.268
X-6.739 Z-0.282
X-6.976 Z-0.269
X-8.134 Z-0.275
X-8.526 Z-0.281
X-9.006 Z-0.272
X-9.682 Z-0.277
X-9.934 Z-0.283
X-10.73 Z-0.276
X-11.773 Z-0.284
X-12.655 Z-0.274
X-13.266 Z-0.269
X-14.401 Z-0.272
X-14.863 Z-0.255
X-16.416 Z-0.257
X-16.583 Z-0.266
X-17.732 Z-0.268
X-17.909 Z-0.272
X-18.274 Z-0.269
X-18.615
X-18.755 Z-0.272
X-19.769 Z-0.281
X-19.913 Z-0.29
X-20.645 Z-0.296
X-20.91 Z-0.313
X-21.315 Z-0.316
X-21.631 Z-0.322
X-21.838 Z-0.336
X-21.907 Z-0.38
X-21.968 Z-0.45
X-22.4 Z-0.455
X-22.447 Z-0.488
X-22.63 Z-0.69
X-22.735 Z-0.841
X-22.759 Z-0.931
X-22.884 Z-0.486
X-22.915 Z-0.425
X-23.032 Z-0.393
X-23.218 Z-0.357
X-23.648 Z-0.353
X-24.383 Z-0.288
X-27.531
X-27.741 Z-0.281
X-28.817 Z-0.287
X-29.153 Z-0.295
X-29.833 Z-0.275
X-30.908 Z-0.279
X-31.164 Z-0.29
X-31.287 Z-0.282
X-31.921 Z-0.277
X-32.213 Z-0.263
X-33.278 Z-0.266
X-33.512 Z-0.275
X-34.003 Z-0.287
X-34.286 Z-0.3
X-34.76 Z-0.304
X-34.869 Z-0.316
X-35.247 Z-0.309
X-35.491 Z-0.289
X-36.568 Z-0.294
X-36.811 Z-0.322
X-37.412 Z-0.306
X-37.57 Z-0.307
X-38.595 Z-0.306
X-38.856 Z-0.316
X-39.48 Z-0.324
X-39.691 Z-0.332
X-40.644 Z-0.326
X-40.933 Z-0.314
X-41.831 Z-0.32
X-42.018 Z-0.331
X-42.187 Z-0.341
X-42.434 Z-0.329
X-42.67 Z-0.286
X-43.51 Z-0.29
X-44.008 Z-0.278
X-44.701 Z-0.282
X-45.588 Z-0.283
X-45.767 Z-0.284
X-46.49 Z-0.277
X-47.262 Z-0.286
X-47.479 Z-0.264
X-48.274 Z-0.268
X-48.891 Z-0.313
X-49.277 Z-0.288
X-50.089 Z-0.292
X-50.644 Z-0.33
X-51.096 Z-0.335
X-51.851 Z-0.339
X-52.098 Z-0.354
X-52.359
X-52.377 Z-0.35
X-52.394 Z-0.346
X-52.431 Y-39.5
X-52.464 Y-39.483
X-52.49 Y-39.457
X-52.507 Y-39.424
X-52.513 Y-39.387
Y-39.229
X-52.507 Y-39.192
X-52.49 Y-39.159
X-52.464 Y-39.133
X-52.431 Y-39.116
X-52.394 Y-39.11
X-52.377 Z-0.35
X-52.359 Z-0.354
X-52.094
X-51.84 Z-0.337
X-51.298 Z-0.334
X-51.001 Z-0.341
X-50.778
X-49.956 Z-0.305
X-49.604 Z-0.295
X-49.182 Z-0.31
X-48.962 Z-0.329
X-48.852 Z-0.312
X-48.499 Z-0.308
X-48.173 Z-0.297
X-48.03 Z-0.287
X-47.74 Z-0.275
X-47.308 Z-0.291
X-46.762 Z-0.285
X-46.017 Z-0.296
X-45.675 Z-0.29
X-45.232 Z-0.28
X-44.621 Z-0.284
X-44.16 Z-0.282
X-43.521 Z-0.304
X-43.344 Z-0.3
X-42.998 Z-0.292
X-42.729 Z-0.302
X-42.34 Z-0.357
X-42.118 Z-0.342
X-41.716 Z-0.318
X-41. Z-0.314
X-40.649 Z-0.325
X-40.259 Z-0.328
X-39.246 Z-0.3
X-38.88 Z-0.307
X-38.683 Z-0.303
X-37.592 Z-0.304
X-37.301 Z-0.321
X-37.14 Z-0.319
X-36.426 Z-0.303
X-36.256 Z-0.297
X-35.827 Z-0.292
X-35.421 Z-0.302
X-34.857 Z-0.32
X-34.719 Z-0.312
X-34.29 Z-0.304
X-34.004 Z-0.292
X-33.238 Z-0.269
X-32.233 Z-0.263
X-31.973 Z-0.276
X-31.415 Z-0.283
X-31.083 Z-0.296
X-30.52 Z-0.275
X-29.621 Z-0.278
X-28.911 Z-0.303
X-28.775 Z-0.294
X-28.479 Z-0.282
X-27.505 Z-0.279
X-27.258 Z-0.292
X-27.041 Z-0.291
X-26.366 Z-0.297
X-26.08 Z-0.294
X-24.473 Z-0.292
X-24.147 Z-0.315
X-23.831 Z-0.323
X-23.644 Z-0.335
X-23.357 Z-0.347
X-22.87 Z-0.349
X-22.816 Z-0.403
X-22.612 Z-0.828
X-22.568 Z-0.976
X-22.435 Z-0.534
X-22.399 Z-0.452
X-21.7 Z-0.451
X-21.554 Z-0.341
X-21.52 Z-0.323
X-20.935 Z-0.312
X-20.622 Z-0.293
X-19.704 Z-0.289
X-18.962 Z-0.261
X-18.105 Z-0.256
X-17.9 Z-0.268
X-17.726 Z-0.274
X-17.534 Z-0.27
X-16.597 Z-0.271
X-16.418 Z-0.256
X-15.123 Z-0.26
X-14.512 Z-0.274
X-14.094 Z-0.271
X-13.275 Z-0.269
X-12.739 Z-0.272
X-12.29 Z-0.295
X-11.822 Z-0.292
X-11.671 Z-0.284
X-11.251 Z-0.275
X-9.881 Z-0.289
X-9.621 Z-0.277
X-8.971 Z-0.272
X-8.504 Z-0.281
X-8.143 Z-0.275
X-7.122 Z-0.271
X-6.792 Z-0.282
X-6.226 Z-0.265
X-5.07 Z-0.259
X-4.389 Z-0.267
X-3.385 Z-0.268
X-3.171 Z-0.26
X-2.548 Z-0.267
X-1.304 Z-0.277
X-0.036
X0.205 Z-0.279
X1.033 Z-0.282
X1.696 Z-0.297
X1.963 Z-0.311
X2.192 Z-0.308
X3.421 Z-0.311
X3.679 Z-0.296
X4.361 Z-0.294
X4.657 Z-0.311
X5.294 Z-0.315
X6.598 Z-0.313
X7.263 Z-0.312
X7.51 Z-0.311
X7.905 Z-0.297
X9.501 Z-0.296
X9.63 Z-0.304
X10.066 Z-0.302
X10.3 Z-0.296
X11.288 Z-0.291
X11.496 Z-0.303
X12.476 Z-0.305
X13.15 Z-0.318
X13.243 Z-0.313
X13.924 Z-0.308
X14.958 Z-0.304
X15.396 Z-0.307
X15.555 Z-0.302
X16.363 Z-0.295
X16.677 Z-0.286
X17.384 Z-0.253
X17.745 Z-0.254
X17.992 Z-0.259
X18.282 Z-0.249
X19.463 Z-0.241
X19.999 Z-0.243
X20.425 Z-0.24
X20.768 Z-0.266
X21.351 Z-0.27
X22.616 Z-0.308
X23.307 Z-0.311
X23.918 Z-0.3
X25.07
X25.408 Z-0.312
X25.645 Z-0.316
X25.975 Z-0.307
X26.658
X27.116 Z-0.297
X27.746 Z-0.304
X28.488 Z-0.291
X29.426 Z-0.286
X30.215 Z-0.273
X31.43 Z-0.274
X31.929 Z-0.293
X32.151 Z-0.284
X33.003 Z-0.279
X33.459 Z-0.288
X33.589 Z-0.285
X34.19 Z-0.28
X34.432 Z-0.273
X35.283 Z-0.271
X35.571 Z-0.254
X36.739 Z-0.261
X36.912 Z-0.25
X37.723 Z-0.246
X38.058 Z-0.267
X38.924
X40.689
X40.824 Z-0.259
X41.392 Z-0.256
X41.782 Z-0.262
X42.104 Z-0.281
X42.417 Z-0.262
X42.775 Z-0.25
X43.413 Z-0.263
X43.769 Z-0.257
X44.56 Z-0.281
X44.938 Z-0.267
X45.911 Z-0.262
X46.908 Z-0.257
X48.253 Z-0.273
X49.713 Z-0.27
X49.932 Z-0.289
X50.293 Z-0.301
X50.493 Z-0.297
X52.099 Z-0.296
X52.359 Z-0.309
X52.379 Z-0.305
X52.396 Z-0.301
X52.417 Y-39.108
X52.437 Y-39.103
X52.455 Y-39.094 Z-0.3
X52.472 Y-39.082
X52.487 Y-39.068
X52.499 Y-39.051 Z-0.299
X52.508 Y-39.032 Z-0.298
X52.513 Y-39.012
X52.515 Y-38.991 Z-0.297
Y-38.833 Z-0.293
X52.513 Y-38.812 Z-0.292
X52.508 Y-38.792
X52.499 Y-38.773 Z-0.291
X52.487 Y-38.756
X52.472 Y-38.742 Z-0.29
X52.455 Y-38.73
X52.437 Y-38.721
X52.417 Y-38.716 Z-0.289
X52.396 Y-38.714
X52.394
X52.377 Z-0.293
X52.359 Z-0.297
X51.544 Z-0.295
X51.079 Z-0.299
X50.271 Z-0.302
X49.979 Z-0.292
X49.621 Z-0.27
X48.601 Z-0.276
X48.322 Z-0.28
X47.913 Z-0.271
X47.399 Z-0.267
X47.125 Z-0.258
X45.502 Z-0.274
X44.918 Z-0.291
X43.656 Z-0.277
X43.366 Z-0.274
X42.991 Z-0.262
X42.335 Z-0.266
X42.027 Z-0.278
X41.462 Z-0.256
X40.939 Z-0.259
X40.733 Z-0.271
X39.878 Z-0.264
X38.902 Z-0.267
X38.611 Z-0.271
X38.228 Z-0.266
X37.576 Z-0.246
X36.994 Z-0.25
X36.853 Z-0.257
X35.424 Z-0.253
X34.759 Z-0.277
X33.864 Z-0.28
X33.679 Z-0.286
X33.5 Z-0.294
X32.713 Z-0.284
X32.15 Z-0.296
X31.872 Z-0.283
X31.263 Z-0.288
X28.665
X28.498 Z-0.302
X27.395 Z-0.306
X27.213 Z-0.311
X27.06 Z-0.299
X26.52 Z-0.304
X25.847 Z-0.307
X25.191
X24.651 Z-0.297
X23.532 Z-0.302
X22.854 Z-0.306
X22.144 Z-0.285
X21.508 Z-0.28
X21.08 Z-0.268
X20.953 Z-0.263
X20.576 Z-0.231
X19.851 Z-0.232
X19.533 Z-0.237
X19.024 Z-0.243
X18.42 Z-0.25
X18.151 Z-0.265
X17.932 Z-0.249
X17.117 Z-0.253
X16.906 Z-0.283
X16.395 Z-0.291
X15.582 Z-0.3
X15.205 Z-0.307
X14.522 Z-0.313
X13.603 Z-0.314
X13.336
X12.651 Z-0.304
X11.873 Z-0.299
X11.016 Z-0.303
X10.687 Z-0.305
X9.976 Z-0.306
X9.745 Z-0.311
X9.331 Z-0.292
X7.374 Z-0.295
X7.138 Z-0.304
X6.941 Z-0.295
X5.498 Z-0.3
X5.206 Z-0.309
X4.574 Z-0.308
X4.292 Z-0.298
X3.272 Z-0.306
X2.973 Z-0.316
X2.41 Z-0.318
X2.092 Z-0.297
X1.655 Z-0.293
X1.064 Z-0.282
X0.113 Z-0.285
X-0.266 Z-0.281
X-0.703 Z-0.273
X-0.922 Z-0.271
X-1.113 Z-0.253
X-1.655 Z-0.258
X-1.986 Z-0.288
X-2.476 Z-0.272
X-3.189 Z-0.275
X-3.347 Z-0.277
X-3.82 Z-0.27
X-4.143 Z-0.254
X-4.547 Z-0.252
X-4.806 Z-0.244
X-5.289 Z-0.249
X-5.472 Z-0.264
X-6.774 Z-0.279
X-7.001 Z-0.292
X-7.56 Z-0.276
X-8.033 Z-0.284
X-8.34 Z-0.292
X-8.682 Z-0.287
X-8.89 Z-0.272
X-9.485 Z-0.275
X-9.612 Z-0.282
X-9.954 Z-0.288
X-10.515 Z-0.279
X-11.352 Z-0.269
X-11.674 Z-0.277
X-11.771 Z-0.283
X-12.789 Z-0.285
X-13.329 Z-0.278
X-14.394 Z-0.276
X-14.568 Z-0.283
X-14.994 Z-0.277
X-15.245 Z-0.283
X-15.981 Z-0.273
X-16.496 Z-0.281
X-16.846 Z-0.285
X-17.499 Z-0.283
X-17.785 Z-0.273
X-18.242 Z-0.256
X-18.839 Z-0.26
X-19.192 Z-0.279
X-19.421 Z-0.29
X-20.315 Z-0.293
X-20.639 Z-0.306
X-20.967 Z-0.308
X-21.118 Z-0.324
X-21.55 Z-0.351
X-21.808 Z-0.496
X-22.151 Z-0.499
X-22.266 Z-0.594
X-22.32 Z-0.668
X-22.415 Z-0.823
X-22.446 Z-0.906
X-22.525 Z-0.609
X-22.562 Z-0.498
X-22.604 Z-0.461
X-22.746 Z-0.384
X-22.871 Z-0.351
X-23.349 Z-0.342
X-23.531 Z-0.339
X-23.798 Z-0.325
X-24.39 Z-0.318
X-24.955 Z-0.297
X-25.876 Z-0.301
X-26.659 Z-0.314
X-26.93 Z-0.306
X-27.358 Z-0.275
X-28.501 Z-0.281
X-28.93 Z-0.307
X-29.386 Z-0.284
X-30.344 Z-0.283
X-30.623 Z-0.292
X-30.743 Z-0.301
X-31.895 Z-0.287
X-32.336 Z-0.268
X-32.928 Z-0.273
X-33.306 Z-0.28
X-34.081 Z-0.288
X-34.689 Z-0.319
X-34.969 Z-0.306
X-35.938 Z-0.307
X-36.212 Z-0.294
X-37.092 Z-0.297
X-37.533 Z-0.313
X-37.695 Z-0.304
X-38.584
X-39.289 Z-0.298
X-39.689 Z-0.304
X-40.251 Z-0.325
X-40.437 Z-0.33
X-40.845 Z-0.326
X-41.429 Z-0.321
X-42.125 Z-0.337
X-42.362 Z-0.352
X-42.975 Z-0.322
X-43.177 Z-0.316
X-43.381 Z-0.308
X-44.015 Z-0.3
X-44.506 Z-0.279
X-45.657 Z-0.284
X-46.165 Z-0.304
X-46.328 Z-0.298
X-46.946 Z-0.296
X-47.195 Z-0.308
X-47.49 Z-0.301
X-47.899 Z-0.308
X-48.075 Z-0.316
X-48.274 Z-0.308
X-48.741 Z-0.311
X-48.943 Z-0.345
X-49.115 Z-0.329
X-49.32 Z-0.326
X-49.761 Z-0.319
X-50.216 Z-0.327
X-50.905 Z-0.329
X-51.118 Z-0.338
X-51.922 Z-0.344
X-52.169 Z-0.356
X-52.359 Z-0.358
X-52.377 Z-0.354
X-52.395 Z-0.35
X-52.396
X-52.417 Y-38.712
