(WOLF-IN-MOON-ABSOLUTE-5.5-LINES)
(T3  D=0.792 CR=0.396 - ZMIN=0.184 - BALL END MILL)
G0 G90 G94 G17
G21
G53 G0 Z0.

(PARALLEL2)
M5
M9
T3 M6
S16500 M3
G4 P4.
G55
G0 X52.489 Y-49.708
Z20.089
Z6.79
G1 Z4.869 F356.
X52.482 Z4.837
X52.463 Z4.81
X52.435 Z4.794
X52.403 Z4.79
X51.774 Z4.839
X51.126 Z4.796
X50.452 Z4.787
X50.262 Z4.793
X49.926 Z4.815
X49.683 Z4.822
X49.352 Z4.845
X48.745 Z4.843
X48.363 Z4.787
X48.134 Z4.744
X47.939 Z4.737
X47.664 Z4.787
X46.902 Z4.853
X46.655 Z4.861
X46.373 Z4.815
X45.5 Z4.842
X45.361 Z4.821
X45.162 Z4.775
X44.73 Z4.795
X44.543 Z4.799
X44.313 Z4.786
X44.046 Z4.822
X43.662 Z4.843
X43.408 Z4.833
X43.083 Z4.87
X42.505 Z4.892
X41.825 Z4.85
X41.6 Z4.821
X41.328 Z4.87
X40.95 Z4.848
X40.602 Z4.861
X40.355 Z4.871
X40.011 Z4.844
X39.785 Z4.798
X39.502 Z4.831
X39.113 Z4.855
X38.286 Z4.882
X38. Z4.913
X37.654 Z4.883
X37.044 Z4.882
X36.802 Z4.843
X36.401 Z4.84
X35.866 Z4.854
X35.291 Z4.835
X34.655 Z4.855
X34.377 Z4.824
X34.085 Z4.833
X33.988 Z4.817
X33.715 Z4.721
X33.575 Z4.67
X33.456 Z4.755
X33.332 Z4.815
X33.218 Z4.837
X32.575 Z4.865
X32.396 Z4.83
X32.285 Z4.806
X32.048 Z4.829
X31.903 Z4.822
X31.628 Z4.792
X31.37 Z4.784
X30.637 Z4.841
X30.152 Z4.876
X29.86 Z4.878
X29.531 Z4.823
X29.317 Z4.815
X29. Z4.852
X28.903 Z4.84
X28.799 Z4.797
X28.615 Z4.692
X28.585 Z4.7
X28.38 Z4.818
X28.251 Z4.866
X28.125 Z4.889
X28.003 Z4.879
X27.818 Z4.852
X27.547 Z4.912
X27.146 Z4.919
X26.74 Z4.872
X26.588 Z4.85
X26.274 Z4.867
X25.624 Z4.828
X25.123 Z4.82
X24.838 Z4.864
X24.371 Z4.915
X24.176 Z4.927
X23.826 Z4.913
X23.579 Z4.867
X22.272 Z4.88
X21.98 Z4.879
X21.741 Z4.877
X21.473 Z4.884
X20.893 Z4.871
X20.158 Z4.894
X19.664 Z4.923
X19.116 Z4.882
X18.8 Z4.927
X18.362 Z4.908
X18.126 Z4.9
X17.619 Z4.815
X17.36 Z4.851
X16.7 Z4.894
X16.405 Z4.851
X16.133 Z4.9
X15.744 Z4.911
X15.411 Z4.892
X14.874 Z4.811
X14.496 Z4.828
X14.302 Z4.834
X14.018 Z4.858
X13.69 Z4.833
X13.358 Z4.805
X13.087 Z4.792
X12.784 Z4.814
X12.542 Z4.812
X12.241 Z4.868
X12.103 Z4.862
X11.892 Z4.839
X11.651 Z4.858
X11.334 Z4.93
X11.155 Z4.919
X10.736 Z4.868
X10.661 Z4.861
X10.347 Z4.867
X10.112 Z4.847
X9.829 Z4.888
X9.217 Z4.852
X8.935 Z4.897
X8.456 Z4.898
X7.92 Z4.896
X7.724 Z4.888
X7.438 Z4.932
X6.966 Z4.911
X6.816 Z4.899
X6.512 Z4.939
X6.135 Z4.929
X5.84 Z4.87
X5.63 Z4.867
X5.345 Z4.917
X5.105 Z4.908
X4.694 Z4.868
X4.4 Z4.892
X4.019 Z4.845
X3.822 Z4.835
X3.5 Z4.882
X3.181 Z4.845
X2.803 Z4.852
X2.316 Z4.832
X1.844 Z4.876
X1.701 Z4.889
X1.411 Z4.866
X0.826 Z4.936
X0.418 Z4.921
X0.18 Z4.902
X-0.445 Z4.926
X-1.069 Z4.909
X-1.298 Z4.866
X-1.556 Z4.915
X-2.26 Z4.93
X-2.508 Z4.943
X-2.689 Z4.912
X-2.831 Z4.882
X-3.119 Z4.885
X-3.409 Z4.899
X-3.715 Z4.86
X-4.829 Z4.923
X-4.957
X-5.211 Z4.893
X-5.538 Z4.909
X-5.88 Z4.883
X-6.248 Z4.88
X-6.467 Z4.877
X-6.706 Z4.849
X-7.022 Z4.86
X-7.151 Z4.834
X-7.468 Z4.739
X-7.564 Z4.676
X-7.763 Z4.49
X-7.784 Z4.493
X-7.978 Z4.619
X-8.061 Z4.659
X-8.173 Z4.684
X-8.434 Z4.717
X-8.746 Z4.807
X-9.063 Z4.869
X-9.879 Z4.847
X-10.037 Z4.842
X-10.345 Z4.852
X-10.592 Z4.835
X-10.893 Z4.873
X-11.297 Z4.883
X-11.643 Z4.885
X-12.158 Z4.887
X-12.45 Z4.873
X-12.742 Z4.88
X-13.299 Z4.826
X-13.493 Z4.846
X-13.763 Z4.893
X-13.93 Z4.901
X-14.291 Z4.89
X-14.476 Z4.874
X-14.756 Z4.932
X-14.897 Z4.927
X-15.23 Z4.89
X-15.46 Z4.854
X-15.679 Z4.846
X-15.987 Z4.882
X-16.547 Z4.9
X-16.9 Z4.936
X-17.193 Z4.925
X-17.837 Z4.963
X-18.196 Z4.929
X-18.417 Z4.901
X-18.746 Z4.913
X-19.002 Z4.889
X-19.323 Z4.912
X-19.588 Z4.887
X-19.85 Z4.943
X-19.945
X-20.269 Z4.887
X-20.561 Z4.878
X-20.841 Z4.885
X-21.415 Z4.834
X-21.804 Z4.842
X-21.999
X-22.254 Z4.88
X-22.643 Z4.894
X-22.985 Z4.863
X-23.237 Z4.857
X-23.683 Z4.884
X-23.878 Z4.879
X-24.134 Z4.861
X-24.593 Z4.881
X-25.08 Z4.867
X-25.288 Z4.857
X-25.618 Z4.889
X-26.098 Z4.884
X-26.584 Z4.867
X-26.795 Z4.857
X-27.436 Z4.893
X-27.789 Z4.88
X-28.009 Z4.859
X-28.301 Z4.873
X-28.621 Z4.827
X-28.947 Z4.839
X-29.197 Z4.81
X-29.5 Z4.846
X-29.597 Z4.834
X-29.68 Z4.803
X-29.792 Z4.724
X-30.081 Z4.487
X-30.141 Z4.409
X-30.184 Z4.307
X-30.506 Z3.167
X-30.803 Z1.947
X-30.984 Z1.031
X-31.022 Z1.127
X-31.063 Z1.329
X-31.33 Z3.649
X-31.367 Z3.861
X-31.692 Z4.525
X-31.768 Z4.61
X-31.842 Z4.658
X-31.972 Z4.705
X-32.11 Z4.744
X-32.279 Z4.807
X-32.418 Z4.832
X-32.789 Z4.848
X-33.104 Z4.894
X-33.368 Z4.89
X-33.649 Z4.94
X-33.797 Z4.938
X-34.323 Z4.899
X-34.761 Z4.892
X-35.005 Z4.885
X-35.248 Z4.884
X-35.577 Z4.856
X-36.161 Z4.835
X-36.371 Z4.822
X-36.664 Z4.876
X-37.057 Z4.878
X-37.307 Z4.841
X-37.617 Z4.872
X-38.149 Z4.878
X-38.832 Z4.914
X-39.185 Z4.881
X-39.549 Z4.87
X-40.29 Z4.847
X-40.631 Z4.87
X-40.898 Z4.855
X-41.5 Z4.885
X-41.93 Z4.842
X-42.076 Z4.833
X-42.546 Z4.916
X-42.7 Z4.936
X-43.089 Z4.915
X-43.429 Z4.906
X-43.898 Z4.874
X-44.206 Z4.91
X-44.474
X-44.749 Z4.961
X-44.995 Z4.957
X-45.189 Z4.943
X-45.462 Z4.898
X-45.754 Z4.878
X-46.324 Z4.886
X-46.459 Z4.858
X-46.647 Z4.808
X-46.863 Z4.81
X-47.143 Z4.866
X-47.253 Z4.867
X-47.492 Z4.839
X-47.83 Z4.854
X-48.112 Z4.834
X-48.433 Z4.857
X-48.684 Z4.844
X-48.976 Z4.845
X-49.071 Z4.839
X-49.397 Z4.837
X-49.834 Z4.82
X-50.315 Z4.793
X-50.828 Z4.744
X-51.148 Z4.759
X-51.548 Z4.755
X-51.743
X-52.098 Z4.679
X-52.202 Z4.636
X-52.276 Z4.58
X-52.303 Z4.551
X-52.316 Z4.541
X-52.332 Z4.538
X-52.339
X-52.36 Y-49.706
X-52.38 Y-49.701
X-52.398 Y-49.692 Z4.537
X-52.415 Y-49.68 Z4.536
X-52.43 Y-49.666
X-52.442 Y-49.649 Z4.535
X-52.451 Y-49.63 Z4.534
X-52.456 Y-49.61 Z4.533
X-52.458 Y-49.589 Z4.532
Y-49.43 Z4.523
X-52.456 Y-49.41 Z4.522
X-52.451 Y-49.39 Z4.521
X-52.442 Y-49.371 Z4.52
X-52.43 Y-49.354 Z4.519
X-52.415 Y-49.34 Z4.518
X-52.398 Y-49.328 Z4.517
X-52.38 Y-49.319
X-52.36 Y-49.314
X-52.339 Y-49.312
X-52.323 Z4.52
X-52.309 Z4.53
X-52.284 Z4.558
X-52.214 Z4.615
X-52.134 Z4.655
X-51.839 Z4.752
X-51.724 Z4.776
X-51.397 Z4.746
X-51.088 Z4.694
X-50.897 Z4.713
X-50.519 Z4.777
X-50.342 Z4.79
X-50.16 Z4.802
X-49.904 Z4.82
X-49.348 Z4.856
X-49.008 Z4.843
X-48.747 Z4.901
X-48.328 Z4.9
X-48.047 Z4.879
X-47.858 Z4.901
X-47.712 Z4.907
X-47.494 Z4.886
X-47.066 Z4.865
X-46.877 Z4.838
X-46.711 Z4.846
X-46.389 Z4.884
X-46.242 Z4.892
X-46. Z4.91
X-45.715 Z4.872
X-45.473 Z4.907
X-45.133 Z4.936
X-44.809 Z4.918
X-44.743 Z4.924
X-44.481 Z4.914
X-44.398 Z4.901
X-44.303 Z4.88
X-44.147 Z4.86
X-44.001 Z4.865
X-43.681 Z4.915
X-43.56 Z4.922
X-43.297 Z4.897
X-43.055 Z4.921
X-42.714 Z4.923
X-42.524 Z4.901
X-42.107 Z4.85
X-42.056 Z4.858
X-41.618 Z4.88
X-41.197 Z4.887
X-40.746 Z4.903
X-40.498 Z4.908
X-40.283 Z4.883
X-39.973 Z4.866
X-39.769 Z4.887
X-39.55 Z4.895
X-39.147 Z4.897
X-38.853 Z4.922
X-38.585 Z4.918
X-38.305 Z4.904
X-37.92 Z4.912
X-37.787 Z4.932
X-37.546 Z4.931
X-37.273 Z4.874
X-37.032 Z4.895
X-36.694 Z4.885
X-36.332 Z4.851
X-36.131 Z4.853
X-35.479 Z4.882
X-35.159 Z4.891
X-34.674 Z4.875
X-34.491 Z4.886
X-34.199 Z4.882
X-33.647 Z4.917
X-33.347 Z4.906
X-32.933 Z4.891
X-32.682 Z4.854
X-32.585 Z4.85
X-32.165 Z4.855
X-31.975 Z4.84
X-31.57 Z4.739
X-31.446 Z4.682
X-31.343 Z4.599
X-31.294 Z4.534
X-31.265 Z4.47
X-31.131 Z4.013
X-31.094 Z4.003
X-31.045 Z3.972
X-31.005 Z3.911
X-30.97 Z3.801
X-30.819 Z2.817
X-30.565 Z1.896
X-30.33 Z2.843
X-29.94 Z4.205
X-29.89 Z4.278
X-29.686 Z4.443
X-29.646 Z4.528
X-29.591 Z4.607
X-29.552 Z4.64
X-29.474 Z4.685
X-29.344 Z4.721
X-29.225 Z4.727
X-29.13 Z4.735
X-28.712 Z4.794
X-28.624 Z4.818
X-28.326 Z4.872
X-28.06 Z4.873
X-27.731 Z4.892
X-27.329 Z4.861
X-27.004 Z4.868
X-26.573 Z4.873
X-26.094 Z4.884
X-25.607 Z4.899
X-25.522 Z4.892
X-25.256 Z4.86
X-24.969 Z4.846
X-24.643 Z4.877
X-24.343 Z4.897
X-24.088 Z4.871
X-23.984 Z4.879
X-23.558 Z4.908
X-23.365 Z4.91
X-23.192 Z4.878
X-22.908 Z4.902
X-22.763 Z4.885
X-22.643 Z4.892
X-22.117 Z4.875
X-21.983 Z4.876
X-21.742 Z4.885
X-21.402 Z4.869
X-21.169 Z4.893
X-20.925 Z4.905
X-19.866 Z4.93
X-19.504 Z4.871
X-19.041 Z4.861
X-18.861 Z4.878
X-18.4 Z4.918
X-18.171 Z4.948
X-17.809 Z4.967
X-17.177 Z4.938
X-16.893 Z4.905
X-16.65 Z4.911
X-16.022 Z4.884
X-15.912 Z4.896
X-15.704 Z4.888
X-15.373 Z4.847
X-15.197 Z4.885
X-15.1 Z4.897
X-14.811 Z4.925
X-14.694 Z4.912
X-14.444 Z4.838
X-14.198 Z4.849
X-13.976 Z4.893
X-13.582 Z4.913
X-13.44 Z4.901
X-13.255 Z4.855
X-13.103 Z4.864
X-12.797 Z4.876
X-12.531 Z4.879
X-12.158 Z4.913
X-11.976 Z4.915
X-11.678 Z4.863
X-11.445 Z4.841
X-11.21 Z4.832
X-10.638 Z4.863
X-10.543 Z4.861
X-10.458 Z4.85
X-10.19 Z4.844
X-9.983 Z4.821
X-9.788 Z4.825
X-9.402 Z4.872
X-9.123 Z4.851
X-8.799 Z4.82
X-8.656 Z4.829
X-8.499 Z4.813
X-8.231 Z4.804
X-8.092 Z4.779
X-7.829 Z4.693
X-7.7 Z4.644
X-7.623 Z4.591
X-7.56 Z4.65
X-7.466 Z4.717
X-7.382 Z4.747
X-7.256 Z4.761
X-7.151 Z4.817
X-7.023 Z4.849
X-6.795 Z4.874
X-6.651 Z4.879
X-6.312 Z4.884
X-6.069 Z4.871
X-5.834 Z4.872
X-5.494 Z4.91
X-5.194 Z4.903
X-4.314 Z4.92
X-4.22 Z4.912
X-3.993 Z4.873
X-3.864 Z4.864
X-3.672 Z4.872
X-3.444 Z4.917
X-3.197 Z4.92
X-2.776 Z4.912
X-2.575 Z4.928
X-2.235 Z4.943
X-1.738 Z4.917
X-1.547 Z4.88
X-1.401 Z4.873
X-1.039 Z4.902
X-0.692 Z4.893
X-0.433 Z4.903
X0.225 Z4.877
X0.791 Z4.913
X0.977
X1.461 Z4.882
X2.094 Z4.861
X2.605 Z4.853
X2.885 Z4.823
X2.933 Z4.827
X3.147 Z4.831
X3.329 Z4.848
X3.513 Z4.862
X3.887 Z4.826
X4.059 Z4.821
X4.354 Z4.876
X4.733 Z4.865
X5.015 Z4.846
X5.228 Z4.86
X5.423 Z4.866
X6.49 Z4.917
X7.067 Z4.91
X7.303 Z4.936
X7.438 Z4.943
X7.711 Z4.902
X8.003 Z4.885
X8.58 Z4.896
X8.906 Z4.875
X9.198 Z4.872
X9.448 Z4.891
X9.787 Z4.885
X10.116 Z4.859
X10.603 Z4.839
X10.956 Z4.846
X11.213 Z4.895
X11.311 Z4.904
X11.382 Z4.898
X11.632 Z4.854
X11.827 Z4.849
X12.257 Z4.853
X12.863 Z4.813
X13.063 Z4.811
X13.488 Z4.849
X13.713 Z4.832
X13.848 Z4.862
X13.981 Z4.888
X14.176 Z4.884
X14.828 Z4.84
X14.917 Z4.842
X15.476 Z4.877
X15.628 Z4.864
X16.051 Z4.85
X16.115 Z4.858
X16.33 Z4.872
X16.65 Z4.908
X16.988 Z4.902
X17.129 Z4.911
X17.567 Z4.906
X17.755 Z4.882
X17.819 Z4.886
X18.13 Z4.924
X18.288 Z4.929
X18.529 Z4.897
X18.786 Z4.894
X19.108 Z4.861
X19.54 Z4.879
X19.961 Z4.907
X20.301 Z4.892
X20.946 Z4.918
X21.488 Z4.898
X21.768 Z4.932
X22.065 Z4.914
X22.26 Z4.92
X22.747 Z4.918
X23.031 Z4.899
X23.477 Z4.896
X23.901 Z4.927
X24.628 Z4.919
X24.911 Z4.874
X25.179 Z4.82
X25.39 Z4.838
X25.701 Z4.82
X26.333 Z4.845
X26.758 Z4.879
X27.151 Z4.898
X27.605 Z4.888
X27.879 Z4.856
X28.073 Z4.85
X28.158 Z4.859
X28.424 Z4.858
X28.537 Z4.834
X28.64 Z4.777
X28.835 Z4.618
X29.011 Z4.715
X29.124 Z4.768
X29.229 Z4.803
X29.542 Z4.838
X29.775 Z4.839
X30.116
X30.528 Z4.816
X30.855 Z4.756
X30.964 Z4.724
X31.093 Z4.64
X31.123 Z4.654
X31.307 Z4.716
X31.591 Z4.777
X31.712 Z4.791
X31.868 Z4.804
X32.511 Z4.868
X32.9 Z4.89
X33.076 Z4.871
X33.404 Z4.818
X33.554 Z4.767
X33.647 Z4.786
X34.003 Z4.854
X34.118 Z4.866
X34.409 Z4.843
X34.603 Z4.871
X34.7 Z4.882
X35.009 Z4.863
X35.608 Z4.884
X35.991 Z4.88
X36.568 Z4.883
X37.052 Z4.9
X37.73 Z4.878
X37.986 Z4.882
X38.312 Z4.854
X38.489 Z4.856
X39.024 Z4.839
X39.8 Z4.804
X40.035 Z4.836
X40.424 Z4.855
X40.658 Z4.838
X40.902 Z4.836
X41.235 Z4.854
X41.344 Z4.856
X41.606 Z4.823
X41.903 Z4.853
X42.126 Z4.855
X42.418 Z4.865
X42.822 Z4.864
X43.709 Z4.796
X44.292 Z4.829
X44.591 Z4.793
X44.806 Z4.788
X45.174
X45.446 Z4.812
X46.059 Z4.81
X46.716 Z4.837
X46.91 Z4.835
X47.118 Z4.831
X47.445 Z4.816
X47.694 Z4.82
X48.155 Z4.804
X48.308 Z4.783
X48.405 Z4.761
X48.467 Z4.762
X48.694 Z4.792
X48.835 Z4.808
X49.149 Z4.806
X49.359 Z4.82
X49.918 Z4.803
X50.556 Z4.77
X51.131
X51.449 Z4.801
X51.546 Z4.804
X51.833 Z4.819
X52.186 Z4.789
X52.409 Z4.754
X52.432 Z4.756
X52.449 Z4.771
X52.455 Z4.793
Z4.795
Y-49.306 Z4.815
Y-49.292 Z4.83
Y-49.272 Z4.835
X52.452 Y-48.955
Y-48.935 Z4.83
Y-48.921 Z4.815
Y-48.916 Z4.795
X52.446 Z4.775
X52.43 Z4.76
X52.409 Z4.756
X52.069 Z4.781
X51.436 Z4.784
X51.194 Z4.763
X50.852 Z4.777
X50.306 Z4.76
X49.625 Z4.786
X49.351 Z4.819
X49.2 Z4.815
X48.987 Z4.795
X48.771 Z4.811
X48.564 Z4.788
X48.508 Z4.778
X48.359 Z4.805
X47.855 Z4.818
X47.611 Z4.81
X47.284 Z4.836
X46.937 Z4.834
X46.297 Z4.789
X46.005 Z4.8
X45.776 Z4.824
X45.387 Z4.829
X45.253 Z4.809
X45.17 Z4.791
X44.979 Z4.78
X44.787 Z4.768
X44.502 Z4.815
X44.3 Z4.836
X44.108 Z4.826
X43.541 Z4.834
X43.39 Z4.828
X42.65 Z4.874
X42.328 Z4.867
X41.954 Z4.84
X41.69 Z4.8
X41.588 Z4.789
X41.203 Z4.805
X41.063 Z4.835
X40.603 Z4.85
X40.367 Z4.836
X40.175 Z4.862
X40.056 Z4.867
X39.801 Z4.842
X39.254 Z4.835
X38.572 Z4.856
X38.276 Z4.854
X37.979 Z4.882
X37.055 Z4.912
X36.495 Z4.862
X36.303 Z4.856
X36.2 Z4.849
X36.005 Z4.859
X35.519 Z4.85
X35.421 Z4.845
X35.283 Z4.851
X35.137 Z4.854
X34.914 Z4.872
X34.592 Z4.867
X34.221 Z4.897
X34.078 Z4.907
X33.665 Z4.868
X33.495 Z4.844
X33.287 Z4.853
X33.008 Z4.871
X32.521 Z4.857
X32.152 Z4.829
X31.972 Z4.808
X31.808 Z4.817
X31.657 Z4.824
X31.33 Z4.777
X31.016 Z4.774
X30.833 Z4.779
X30.524 Z4.82
X30.355 Z4.824
X30.111 Z4.825
X29.89 Z4.818
X29.564 Z4.837
X29.484 Z4.83
X29.294 Z4.848
X29.179 Z4.829
X28.888 Z4.803
X28.759 Z4.799
X28.581 Z4.843
X28.444 Z4.872
X28.326 Z4.867
X28.121 Z4.86
X27.98 Z4.87
X27.736 Z4.873
X27.384 Z4.887
X27.161 Z4.872
X26.901 Z4.897
X26.603 Z4.869
X25.825 Z4.852
X25.63 Z4.849
X25.29 Z4.867
X25.12 Z4.862
X24.957 Z4.88
X24.709 Z4.881
X24.469 Z4.905
X24.128 Z4.917
X23.795 Z4.898
X23.551 Z4.904
X23.271 Z4.928
X22.882 Z4.946
X22.684 Z4.931
X22.468 Z4.926
X22.22 Z4.908
X22.031 Z4.919
X21.8 Z4.936
X21.434 Z4.898
X21.039 Z4.895
X20.408 Z4.871
X20.082 Z4.895
X19.955 Z4.899
X19.67 Z4.896
X19.393 Z4.924
X19.114 Z4.903
X18.733 Z4.928
X18.579 Z4.957
X18.461 Z4.966
X18.302 Z4.95
X17.912 Z4.901
X17.618 Z4.947
X17.29 Z4.942
X16.95 Z4.926
X16.653 Z4.929
X16.159 Z4.899
X15.923 Z4.89
X15.787 Z4.887
X15.481 Z4.904
X15.134 Z4.877
X14.876 Z4.873
X14.485 Z4.896
X14.204 Z4.881
X14.039 Z4.867
X13.821 Z4.841
X13.639 Z4.817
X13.503 Z4.791
X13.312 Z4.793
X12.932 Z4.82
X11.764 Z4.851
X11.442 Z4.876
X11.249 Z4.878
X11.158 Z4.87
X10.637 Z4.884
X10.501 Z4.868
X10.377 Z4.845
X9.652 Z4.893
X9.061 Z4.887
X8.714 Z4.899
X8.519 Z4.895
X8.245 Z4.908
X7.992 Z4.886
X7.638 Z4.907
X7.349 Z4.911
X7.094 Z4.879
X6.78 Z4.904
X5.729 Z4.874
X4.775 Z4.841
X4.344
X4.097 Z4.813
X3.905 Z4.826
X3.723 Z4.839
X3.482 Z4.854
X3.348 Z4.839
X3.2 Z4.855
X2.906 Z4.838
X2.441 Z4.88
X2.346 Z4.891
X1.988 Z4.919
X1.697 Z4.898
X1.567 Z4.9
X1.394 Z4.882
X1.067 Z4.897
X0.72 Z4.882
X0.471 Z4.864
X-0.134 Z4.923
X-0.572 Z4.914
X-0.756 Z4.901
X-1.065 Z4.894
X-1.302 Z4.931
X-1.447 Z4.928
X-1.616 Z4.899
X-1.905 Z4.887
X-2.083 Z4.899
X-2.462 Z4.873
X-2.657 Z4.874
X-3.076 Z4.905
X-3.4 Z4.908
X-3.654 Z4.89
X-3.992 Z4.892
X-4.19 Z4.916
X-4.737 Z4.909
X-4.93 Z4.924
X-5.325 Z4.896
X-5.52 Z4.904
X-5.78 Z4.881
X-5.915 Z4.879
X-6.207 Z4.872
X-6.393 Z4.894
X-6.588 Z4.892
X-6.875 Z4.838
X-7.088 Z4.823
X-7.327 Z4.85
X-7.577 Z4.89
X-7.675 Z4.884
X-7.903 Z4.846
X-8.05 Z4.854
X-8.295 Z4.839
X-8.587 Z4.829
X-8.675 Z4.827
X-8.835 Z4.841
X-9.005 Z4.872
X-9.146 Z4.89
X-9.459 Z4.888
X-9.746 Z4.86
X-10.055 Z4.881
X-10.289 Z4.868
X-10.479 Z4.882
X-10.731 Z4.871
X-10.944 Z4.879
X-11.337 Z4.873
X-11.506 Z4.841
X-11.789 Z4.879
X-11.9 Z4.876
X-12.089 Z4.903
X-12.272 Z4.886
X-12.409 Z4.869
X-12.613 Z4.875
X-13.195 Z4.874
X-13.487 Z4.87
X-13.716 Z4.86
X-13.943 Z4.87
X-14.285 Z4.85
X-14.479 Z4.855
X-14.788 Z4.895
X-15.082 Z4.916
X-15.393 Z4.912
X-15.555 Z4.918
X-16.002 Z4.888
X-16.367 Z4.886
X-16.659 Z4.879
X-16.759
X-17.044 Z4.908
X-17.287 Z4.916
X-17.5 Z4.942
X-17.695 Z4.933
X-18.035 Z4.926
X-18.536 Z4.924
X-18.897 Z4.879
X-19.091 Z4.844
X-19.279 Z4.875
X-19.613 Z4.892
X-19.774 Z4.906
X-20.139 Z4.908
X-20.453 Z4.91
X-21.165 Z4.912
X-21.416 Z4.887
X-21.754 Z4.89
X-21.825 Z4.88
X-22.31 Z4.889
X-22.777 Z4.93
X-22.96 Z4.931
X-23.255 Z4.891
X-23.492 Z4.931
X-23.961 Z4.919
X-24.216 Z4.916
X-24.628 Z4.882
X-24.974 Z4.889
X-25.182 Z4.893
X-25.322 Z4.898
X-25.484 Z4.904
X-26.084 Z4.882
X-26.833 Z4.872
X-27.108 Z4.852
X-27.4 Z4.857
X-27.62 Z4.879
X-27.766 Z4.88
X-28.007 Z4.855
X-28.361 Z4.829
X-28.447 Z4.804
X-28.526 Z4.759
X-28.655 Z4.636
X-28.79 Z4.505
X-28.868 Z4.463
X-28.937 Z4.391
X-29.02 Z4.294
X-29.235 Z4.266
X-29.298 Z4.243
X-29.373 Z4.184
X-29.456 Z4.069
X-29.557 Z3.857
X-29.798 Z3.242
X-29.874 Z2.96
X-30.095 Z1.978
X-30.266 Z3.229
X-30.434 Z3.951
X-30.573 Z4.45
X-30.606 Z4.514
X-30.66 Z4.575
X-30.731 Z4.625
X-30.859 Z4.677
X-31.268 Z4.765
X-31.583 Z4.84
X-31.724 Z4.851
X-32.114 Z4.854
X-32.357 Z4.85
X-32.588 Z4.874
X-32.79 Z4.907
X-33.013 Z4.913
X-33.256 Z4.912
X-33.445 Z4.921
X-33.801 Z4.92
X-34.014 Z4.899
X-34.213 Z4.898
X-34.486 Z4.86
X-34.716 Z4.865
X-35.05 Z4.898
X-35.247 Z4.906
X-35.578 Z4.876
X-35.853 Z4.848
X-36.209 Z4.859
X-36.771 Z4.909
X-37.034 Z4.923
X-37.26 Z4.916
X-37.397 Z4.942
X-37.553 Z4.944
X-37.677 Z4.931
X-37.904 Z4.895
X-38.147 Z4.885
X-38.442 Z4.916
X-38.816 Z4.942
X-38.983 Z4.934
X-39.258 Z4.932
X-39.679 Z4.907
X-40.02 Z4.899
X-40.652 Z4.91
X-41.113 Z4.899
X-41.307 Z4.894
X-41.612 Z4.891
X-41.807 Z4.907
X-42.138 Z4.875
X-42.422 Z4.886
X-42.835 Z4.915
X-43.069 Z4.91
X-43.207 Z4.913
X-43.499 Z4.918
X-43.669 Z4.911
X-43.918 Z4.88
X-44.203 Z4.915
X-44.367 Z4.926
X-44.805 Z4.895
X-45.024 Z4.899
X-45.377 Z4.884
X-45.475 Z4.876
X-45.6 Z4.857
X-45.68 Z4.863
X-45.976 Z4.915
X-46.047 Z4.916
X-46.28 Z4.955
X-46.445 Z4.939
X-46.686 Z4.896
X-47.24 Z4.898
X-47.527 Z4.915
X-47.694 Z4.9
X-47.842 Z4.877
X-48.316 Z4.883
X-48.746 Z4.894
X-48.954 Z4.868
X-49.049 Z4.86
X-49.359 Z4.863
X-49.758 Z4.846
X-49.957 Z4.843
X-50.271 Z4.8
X-50.711 Z4.722
X-51.058 Z4.705
X-51.243 Z4.732
X-51.433 Z4.759
X-51.656 Z4.81
X-51.752 Z4.809
X-52.146 Z4.708
X-52.225 Z4.664
X-52.309 Z4.584
X-52.316 Z4.577
X-52.329 Z4.569
X-52.343 Z4.566
X-52.38 Y-48.91
X-52.413 Y-48.893
X-52.44 Y-48.867
X-52.456 Y-48.833
X-52.462 Y-48.797
Y-48.638
X-52.456 Y-48.601
X-52.44 Y-48.568
X-52.413 Y-48.542
X-52.38 Y-48.525
X-52.343 Y-48.519
X-52.336
X-52.322 Z4.569
X-52.309 Z4.577
X-52.23 Z4.652
X-52.151 Z4.696
X-52.06 Z4.722
X-51.918 Z4.738
X-51.771 Z4.763
X-51.655 Z4.767
X-51.336 Z4.702
X-51.125 Z4.689
X-50.947 Z4.696
X-50.709 Z4.719
X-50.248 Z4.795
X-49.686 Z4.875
X-49.321 Z4.891
X-49.029 Z4.877
X-48.839 Z4.916
X-48.7 Z4.936
X-48.376 Z4.919
X-48.082 Z4.857
X-47.443 Z4.911
X-46.424 Z4.925
X-46.289 Z4.932
X-46.143 Z4.92
X-45.411 Z4.838
X-45.159 Z4.868
X-44.783 Z4.893
X-44.492 Z4.891
X-44.285 Z4.897
X-43.934
X-43.684 Z4.929
X-43.587 Z4.937
X-43.305 Z4.903
X-43. Z4.893
X-42.722 Z4.917
X-42.422 Z4.896
X-42.178
X-41.935 Z4.884
X-41.78 Z4.878
X-41.526 Z4.845
X-41.263 Z4.869
X-41.066 Z4.904
X-40.6 Z4.969
X-40.285 Z4.928
X-40.066 Z4.916
X-39.774
X-39.489 Z4.935
X-39.102 Z4.942
X-38.913 Z4.916
X-38.501 Z4.861
X-38.217 Z4.868
X-37.973 Z4.901
X-37.706 Z4.906
X-37.326 Z4.918
X-36.331 Z4.873
X-35.912 Z4.867
X-34.987 Z4.884
X-34.624 Z4.872
X-34.303 Z4.901
X-34.043 Z4.876
X-33.897 Z4.874
X-33.552 Z4.896
X-33.151 Z4.897
X-32.8 Z4.904
X-32.481 Z4.871
X-32.335 Z4.869
X-32.043 Z4.858
X-31.352 Z4.825
X-31.004 Z4.788
X-30.664 Z4.774
X-30.556 Z4.749
X-30.408 Z4.673
X-30.304 Z4.59
X-30.221 Z4.489
X-30.175 Z4.39
X-30.143 Z4.256
X-29.87 Z3.223
X-29.628 Z1.544
X-29.46 Z2.234
X-29.419 Z2.364
X-29.182 Z3.607
X-29.155 Z3.706
X-29.125 Z3.756
X-28.854 Z4.086
X-28.798 Z4.189
X-28.581 Z4.492
X-28.485 Z4.591
X-28.377 Z4.671
X-28.255 Z4.721
X-28.104 Z4.748
X-27.864 Z4.853
X-27.732 Z4.883
X-27.488 Z4.891
X-27.002 Z4.88
X-26.597 Z4.865
X-26.217 Z4.86
X-25.944 Z4.843
X-25.652 Z4.855
X-25.431 Z4.891
X-25.051 Z4.921
X-24.808 Z4.911
X-24.476 Z4.898
X-24.087 Z4.915
X-23.907 Z4.892
X-23.695 Z4.877
X-23.403
X-23.216 Z4.867
X-22.972 Z4.919
X-22.393 Z4.94
X-21.981 Z4.938
X-21.676 Z4.88
X-21.481 Z4.887
X-21.132 Z4.925
X-20.586 Z4.896
X-20.278 Z4.888
X-19.919 Z4.9
X-19.697 Z4.882
X-19.391 Z4.86
X-19.019 Z4.855
X-18.828 Z4.873
X-18.471 Z4.902
X-17.765 Z4.921
X-17.197 Z4.898
X-16.901 Z4.929
X-16.605 Z4.901
X-16.352 Z4.894
X-16.057 Z4.914
X-15.719 Z4.911
X-15.612 Z4.922
X-15.381 Z4.943
X-14.791 Z4.921
X-14.495 Z4.869
X-14.236 Z4.84
X-13.974 Z4.859
X-13.731 Z4.857
X-13.506 Z4.853
X-13.019 Z4.885
X-12.415 Z4.859
X-12.091 Z4.871
X-11.787 Z4.851
X-11.395 Z4.846
X-11.247 Z4.851
X-10.904 Z4.842
X-10.651 Z4.818
X-10.397 Z4.862
X-10.009 Z4.861
X-9.709 Z4.832
X-9.575 Z4.848
X-9.197 Z4.884
X-9.056 Z4.885
X-8.774 Z4.838
X-8.234 Z4.869
X-7.893 Z4.862
X-7.653 Z4.882
X-7.239
X-6.926 Z4.859
X-6.676 Z4.805
X-6.555 Z4.794
X-6.511 Z4.803
X-6.251 Z4.847
X-6.109 Z4.842
X-5.525 Z4.882
X-4.943 Z4.883
X-4.315 Z4.866
X-4.099 Z4.884
X-3.686 Z4.903
X-3.323 Z4.88
X-3.134 Z4.854
X-2.814 Z4.844
X-2.557 Z4.865
X-2.261 Z4.901
X-1.639 Z4.923
X-1.355 Z4.906
X-1.12 Z4.917
X-0.906 Z4.913
X-0.15 Z4.908
X0.168 Z4.892
X0.383 Z4.902
X0.713 Z4.906
X1.005 Z4.892
X1.358 Z4.879
X1.617 Z4.943
X1.997 Z4.978
X2.138 Z4.961
X2.545 Z4.905
X2.788 Z4.885
X3.201 Z4.87
X3.511 Z4.836
X3.588 Z4.841
X4.365 Z4.879
X4.688 Z4.868
X4.883 Z4.876
X5.223 Z4.882
X5.856 Z4.86
X6.411 Z4.883
X6.838 Z4.873
X7.074 Z4.847
X7.144 Z4.864
X7.336 Z4.904
X7.953 Z4.912
X8.3 Z4.955
X8.586 Z4.925
X8.878 Z4.919
X9.214 Z4.889
X9.775 Z4.905
X10.025 Z4.882
X10.402 Z4.848
X10.702 Z4.873
X10.951 Z4.896
X11.584 Z4.892
X11.92 Z4.859
X12.308 Z4.864
X12.745 Z4.886
X13.085 Z4.883
X13.367 Z4.853
X13.72 Z4.836
X13.996 Z4.82
X14.219 Z4.868
X14.548 Z4.912
X14.83 Z4.903
X15.073 Z4.905
X15.477 Z4.935
X15.779 Z4.91
X16.013 Z4.897
X16.894 Z4.921
X17.223 Z4.944
X17.646 Z4.959
X17.918 Z4.905
X18.159 Z4.884
X18.423 Z4.919
X18.668 Z4.934
X18.83 Z4.926
X19.291 Z4.904
X19.583 Z4.917
X20.016
X20.289 Z4.877
X20.56 Z4.852
X20.754
X21.177 Z4.85
X21.455 Z4.829
X21.743 Z4.869
X22.378 Z4.875
X22.983 Z4.937
X24.166 Z4.921
X24.489 Z4.897
X24.827 Z4.893
X25.102 Z4.848
X25.291 Z4.86
X25.805 Z4.873
X26.226 Z4.868
X26.823 Z4.906
X27.164
X27.781 Z4.848
X27.955 Z4.862
X28.432 Z4.879
X28.716 Z4.839
X29.278 Z4.87
X29.9 Z4.818
X30.74 Z4.817
X31.056 Z4.829
X31.396 Z4.824
X31.667 Z4.849
X31.983 Z4.829
X32.282 Z4.848
X32.791 Z4.838
X33.181 Z4.85
X33.477 Z4.837
X34.097 Z4.883
X34.408 Z4.844
X34.505 Z4.845
X34.691
X34.947 Z4.857
X35.078 Z4.851
X35.58 Z4.797
X35.773 Z4.813
X36.145 Z4.854
X36.466 Z4.867
X37.016 Z4.91
X37.373 Z4.916
X38.005 Z4.876
X38.314 Z4.834
X38.415 Z4.836
X38.707 Z4.833
X39.155 Z4.814
X39.301 Z4.821
X39.681 Z4.84
X40.003 Z4.882
X40.1 Z4.891
X40.397 Z4.857
X40.631 Z4.89
X40.984 Z4.896
X41.126 Z4.885
X41.349 Z4.838
X41.632 Z4.794
X41.837 Z4.805
X42.124 Z4.844
X42.455 Z4.858
X43.367 Z4.826
X43.669 Z4.843
X44.343 Z4.806
X44.913 Z4.763
X45.034 Z4.775
X45.318 Z4.815
X45.5 Z4.84
X45.76 Z4.812
X46.082 Z4.8
X46.363 Z4.838
X46.7 Z4.821
X46.948 Z4.835
X47.256 Z4.83
X47.402 Z4.82
X48.155 Z4.744
X48.435 Z4.74
X48.699 Z4.792
X48.794 Z4.806
X49.045 Z4.835
X49.466 Z4.822
X49.724 Z4.772
X50.478 Z4.757
X50.798 Z4.766
X51.167 Z4.767
X51.423 Z4.796
X51.772 Z4.823
X52.126 Z4.797
X52.409 Z4.764
X52.431 Z4.767
X52.447 Z4.782
X52.453 Z4.803
Z4.864
Y-48.514 Z4.884
Y-48.5 Z4.899
Y-48.48 Z4.904
X52.449 Y-48.163
Y-48.143 Z4.899
X52.448 Y-48.128 Z4.884
Y-48.123 Z4.864
X52.443 Z4.845
X52.429 Z4.83
X52.409 Z4.825
X52.117 Z4.821
X51.735 Z4.798
X51.189 Z4.752
X50.88 Z4.782
X50.559 Z4.774
X50.121 Z4.79
X49.988 Z4.802
X49.753 Z4.807
X49.522 Z4.828
X49.283 Z4.812
X49.015 Z4.786
X48.267 Z4.776
X47.768 Z4.784
X47.32 Z4.779
X47.056 Z4.807
X46.935 Z4.803
X46.714 Z4.776
X46.446 Z4.832
X46.351 Z4.831
X46.112 Z4.809
X45.766 Z4.834
X45.479 Z4.821
X45.198 Z4.797
X44.868 Z4.82
X44.305 Z4.824
X43.932 Z4.858
X43.645 Z4.868
X43.062 Z4.86
X42.677 Z4.858
X42.433 Z4.85
X42.2 Z4.832
X41.869 Z4.851
X41.625 Z4.854
X41.353 Z4.903
X40.985 Z4.9
X40.595 Z4.851
X40.449 Z4.849
X40.196 Z4.894
X40.052 Z4.896
X39.805 Z4.875
X39.464 Z4.896
X38.89 Z4.864
X38.552 Z4.877
X38.287 Z4.851
X37.852 Z4.872
X37.4 Z4.925
X37.012 Z4.889
X36.797 Z4.86
X36.48 Z4.876
X36.243 Z4.905
X36.098 Z4.901
X35.939 Z4.89
X35.827 Z4.886
X35.624 Z4.852
X35.271 Z4.845
X35. Z4.866
X34.617 Z4.832
X34.471 Z4.834
X34.199 Z4.882
X34.006 Z4.892
X33.731
X33.101 Z4.873
X32.768 Z4.889
X32.568 Z4.902
X32.003 Z4.864
X31.711 Z4.872
X31.322 Z4.86
X31.173 Z4.853
X30.92 Z4.855
X30.822 Z4.853
X30.634 Z4.878
X30.354 Z4.873
X29.898 Z4.837
X29.683 Z4.854
X29.522 Z4.865
X29.292 Z4.885
X28.753 Z4.864
X28.677 Z4.858
X28.346 Z4.88
X28.005 Z4.881
X27.698 Z4.87
X27.219 Z4.848
X27.011 Z4.855
X26.687 Z4.841
X26.327 Z4.835
X25.796 Z4.834
X25.519 Z4.854
X25.434 Z4.867
X25.243 Z4.884
X25.106 Z4.879
X24.832 Z4.898
X24.342 Z4.888
X23.956 Z4.874
X23.599 Z4.92
X23.209 Z4.923
X22.966 Z4.925
X22.593 Z4.9
X22.35 Z4.892
X22.025 Z4.863
X21.732 Z4.854
X21.463 Z4.814
X21.094 Z4.846
X20.755 Z4.882
X20.321 Z4.876
X20.002 Z4.867
X19.724 Z4.905
X19.627 Z4.899
X19.48 Z4.877
X19.193 Z4.898
X18.834 Z4.966
X18.396 Z4.965
X17.881 Z4.933
X17.364 Z4.984
X16.939 Z4.971
X16.367 Z4.904
X15.564 Z4.927
X15.451 Z4.93
X15.307 Z4.923
X15.043 Z4.93
X14.786 Z4.919
X14.591 Z4.911
X14.214 Z4.901
X14.025 Z4.894
X13.619 Z4.886
X13.411 Z4.865
X13.186 Z4.909
X12.944
X12.749 Z4.9
X12.244 Z4.847
X11.92 Z4.835
X11.677 Z4.866
X11.58 Z4.872
X11.337 Z4.904
X10.933 Z4.895
X10.676 Z4.857
X10.42 Z4.828
X10.232 Z4.859
X9.787 Z4.889
X9.483 Z4.846
X8.945 Z4.888
X8.603 Z4.883
X8.275 Z4.908
X7.923 Z4.889
X7.626 Z4.841
X7.478 Z4.832
X7.197 Z4.856
X6.969 Z4.882
X6.494 Z4.864
X6.23 Z4.869
X5.908 Z4.865
X5.725 Z4.888
X5.581 Z4.898
X5.241 Z4.902
X4.895 Z4.89
X4.408 Z4.91
X4.048 Z4.884
X3.558 Z4.83
X3.207 Z4.835
X2.845 Z4.874
X2.657 Z4.898
X2.102 Z4.955
X1.959 Z4.962
X1.62 Z4.938
X1.441 Z4.91
X0.895 Z4.93
X0.457 Z4.92
X0.198 Z4.892
X-0.086 Z4.927
X-0.294 Z4.911
X-0.409 Z4.9
X-0.749 Z4.912
X-1.203 Z4.907
X-1.523 Z4.933
X-1.62 Z4.93
X-1.897 Z4.964
X-2.279 Z4.944
X-2.663 Z4.873
X-2.839 Z4.842
X-3.056 Z4.839
X-3.238 Z4.87
X-3.569 Z4.91
X-4.02 Z4.917
X-4.323 Z4.869
X-4.651 Z4.879
X-4.891 Z4.857
X-5.227 Z4.887
X-5.531 Z4.907
X-5.977 Z4.878
X-6.247 Z4.85
X-6.392 Z4.834
X-6.966 Z4.918
X-7.187 Z4.906
X-7.579 Z4.88
X-7.825 Z4.904
X-8.233 Z4.915
X-8.708 Z4.887
X-9.097 Z4.901
X-9.374 Z4.868
X-9.604 Z4.842
X-10.019 Z4.829
X-10.279 Z4.863
X-10.352 Z4.86
X-10.519 Z4.815
X-10.61 Z4.789
X-10.84 Z4.823
X-11.2 Z4.852
X-11.502 Z4.827
X-11.794 Z4.838
X-12.057 Z4.879
X-12.393 Z4.872
X-13.14 Z4.85
X-13.237 Z4.844
X-13.554 Z4.899
X-13.941 Z4.898
X-14.211 Z4.852
X-14.429 Z4.87
X-14.703 Z4.949
X-14.8 Z4.961
X-15.141 Z4.938
X-15.449 Z4.869
X-15.741 Z4.884
X-16.005 Z4.921
X-16.289 Z4.904
X-16.52 Z4.928
X-16.666 Z4.927
X-16.892 Z4.915
X-17.276 Z4.887
X-17.513 Z4.883
X-17.723 Z4.902
X-17.82 Z4.9
X-18.058 Z4.878
X-18.564 Z4.883
X-18.771 Z4.877
X-18.88 Z4.868
X-19.051 Z4.869
X-19.272 Z4.85
X-19.458 Z4.888
X-19.599 Z4.906
X-19.938 Z4.91
X-20.205 Z4.87
X-20.664 Z4.918
X-20.859 Z4.921
X-21.129 Z4.894
X-21.414 Z4.857
X-21.701 Z4.88
X-22.042 Z4.894
X-22.285 Z4.887
X-22.618 Z4.912
X-22.953 Z4.914
X-23.477 Z4.862
X-23.708 Z4.902
X-24.168 Z4.891
X-24.32 Z4.875
X-24.618 Z4.887
X-24.691 Z4.885
X-24.923 Z4.905
X-25.41 Z4.89
X-26.183 Z4.846
X-26.274 Z4.848
X-26.537 Z4.864
X-27.033 Z4.825
X-27.514 Z4.793
X-27.646 Z4.761
X-27.726 Z4.722
X-27.808 Z4.655
X-27.863 Z4.598
X-28.036 Z4.518
X-28.081 Z4.491
X-28.141 Z4.427
X-28.198 Z4.362
X-28.413 Z4.171
X-28.495 Z4.053
X-28.557 Z3.92
X-28.623 Z3.697
X-28.771 Z2.961
X-28.996 Z1.691
X-29.067 Z1.324
X-29.102 Z1.194
X-29.161 Z1.375
X-29.472 Z3.571
X-29.787 Z4.425
X-29.85 Z4.525
X-29.913 Z4.582
X-30.034 Z4.644
X-30.386 Z4.748
X-30.538 Z4.77
X-30.724 Z4.76
X-30.981 Z4.774
X-31.248 Z4.775
X-31.557 Z4.856
X-32.038 Z4.861
X-32.22 Z4.847
X-32.389 Z4.846
X-32.535 Z4.859
X-32.755 Z4.897
X-33.266 Z4.889
X-33.461 Z4.888
X-33.707 Z4.876
X-33.982 Z4.879
X-34.211 Z4.907
X-34.353 Z4.91
X-34.64 Z4.883
X-35.159 Z4.904
X-35.769 Z4.895
X-36.472 Z4.885
X-36.763 Z4.888
X-37.004 Z4.874
X-37.249 Z4.904
X-37.37 Z4.901
X-37.577 Z4.882
X-37.9 Z4.928
X-38.225 Z4.892
X-38.465 Z4.896
X-38.738 Z4.937
X-39.028 Z4.954
X-39.515 Z4.932
X-40.022 Z4.934
X-40.314
X-40.592 Z4.949
X-40.897 Z4.919
X-41.124 Z4.934
X-41.239 Z4.939
X-41.785 Z4.9
X-41.835 Z4.898
X-42.1 Z4.922
X-42.365 Z4.903
X-42.626 Z4.958
X-42.744 Z4.964
X-42.895 Z4.965
X-43.007 Z4.977
X-43.296 Z4.951
X-43.476 Z4.971
X-43.659 Z4.972
X-43.945 Z4.941
X-44.162 Z4.943
X-44.211 Z4.939
X-44.516 Z4.959
X-44.823 Z4.914
X-45.139 Z4.925
X-45.44 Z4.884
X-45.857 Z4.883
X-46.23 Z4.923
X-46.523 Z4.943
X-46.912 Z4.932
X-47.2 Z4.952
X-47.297 Z4.941
X-47.484 Z4.903
X-47.76 Z4.867
X-47.893 Z4.855
X-48.091 Z4.849
X-48.37 Z4.907
X-49.097 Z4.885
X-49.315 Z4.869
X-49.652 Z4.876
X-49.974 Z4.838
X-50.624 Z4.782
X-51.123 Z4.725
X-51.406 Z4.671
X-51.68 Z4.708
X-51.924 Z4.716
X-52.102 Z4.694
X-52.185 Z4.661
X-52.26 Z4.609
X-52.309 Z4.559
X-52.322 Z4.55
X-52.338 Z4.546
X-52.339
X-52.359 Y-48.121 Z4.547
X-52.379 Y-48.116
X-52.398 Y-48.107
X-52.415 Y-48.095 Z4.548
X-52.43 Y-48.081
X-52.442 Y-48.064 Z4.549
X-52.45 Y-48.045 Z4.55
X-52.456 Y-48.025
X-52.458 Y-48.004 Z4.551
Y-47.846 Z4.557
X-52.456 Y-47.825 Z4.558
X-52.45 Y-47.805 Z4.559
X-52.442 Y-47.786
X-52.43 Y-47.769 Z4.56
X-52.415 Y-47.755 Z4.561
X-52.398 Y-47.743
X-52.379 Y-47.734
X-52.359 Y-47.729 Z4.562
X-52.339 Y-47.727
X-52.323 Z4.565
X-52.309 Z4.575
X-52.281 Z4.607
X-52.208 Z4.665
X-52.127 Z4.703
X-51.989 Z4.733
X-51.775 Z4.768
X-51.468 Z4.773
X-51.159 Z4.742
X-50.967 Z4.746
X-50.797 Z4.769
X-50.346 Z4.811
X-50.142 Z4.836
X-49.632 Z4.874
X-49.325 Z4.858
X-49.054 Z4.898
X-48.385 Z4.889
X-48.089 Z4.852
X-47.871 Z4.881
X-47.658 Z4.89
X-47.573 Z4.903
X-47.195 Z4.93
X-47.002 Z4.922
X-46.906 Z4.913
X-46.829 Z4.923
X-46.3 Z4.957
X-45.767 Z4.91
X-45.508 Z4.892
X-45.295 Z4.898
X-45.056 Z4.909
X-44.774 Z4.864
X-44.522 Z4.876
X-44.222 Z4.921
X-43.647 Z4.985
X-43.211 Z4.972
X-42.981 Z4.989
X-42.562 Z4.941
X-42.371 Z4.913
X-41.963 Z4.935
X-41.791 Z4.93
X-41.565 Z4.948
X-41.297 Z4.959
X-41.152 Z4.962
X-40.974 Z4.928
X-40.605 Z4.879
X-40.365 Z4.915
X-39.924 Z4.946
X-39.724 Z4.954
X-39.146 Z4.907
X-38.872 Z4.94
X-38.726 Z4.945
X-38.506 Z4.932
X-38.217
X-37.939 Z4.959
X-37.845 Z4.957
X-37.562 Z4.914
X-37.372 Z4.871
X-37.213 Z4.884
X-37.019 Z4.887
X-36.894 Z4.903
X-36.7 Z4.921
X-36.488 Z4.901
X-36.135 Z4.886
X-35.563 Z4.915
X-35.206 Z4.913
X-34.904 Z4.875
X-34.614 Z4.863
X-34.504 Z4.874
X-34.205 Z4.899
X-34.022 Z4.892
X-33.87 Z4.894
X-33.432 Z4.883
X-33.107 Z4.858
X-32.851 Z4.88
X-32.625 Z4.874
X-32.484 Z4.857
X-32.081 Z4.859
X-31.9 Z4.88
X-31.516 Z4.846
X-31.238 Z4.763
X-31.131 Z4.765
X-30.73 Z4.779
X-30.633 Z4.775
X-30.539 Z4.766
X-30.448 Z4.777
X-30.236 Z4.77
X-30.077 Z4.741
X-29.757 Z4.671
X-29.648 Z4.633
X-29.552 Z4.573
X-29.461 Z4.482
X-29.396 Z4.377
X-29.294 Z4.111
X-29.184 Z3.811
X-29.082 Z3.395
X-28.939 Z2.317
X-28.788 Z1.282
X-28.688 Z1.602
X-28.585 Z2.177
X-28.382 Z3.145
X-28.349 Z3.232
X-28.275 Z3.34
X-28.121 Z3.843
X-28.034 Z4.118
X-27.991 Z4.198
X-27.645 Z4.611
X-27.568 Z4.666
X-27.473 Z4.7
X-27.191 Z4.726
X-27.036 Z4.777
X-26.837 Z4.802
X-26.679 Z4.798
X-26.51 Z4.822
X-26.327 Z4.838
X-26.198 Z4.825
X-25.972 Z4.864
X-24.42 Z4.937
X-23.8 Z4.893
X-23.477 Z4.896
X-22.918 Z4.926
X-22.308 Z4.898
X-22.162 Z4.904
X-21.87 Z4.903
X-21.439 Z4.882
X-21.249 Z4.87
X-21.092 Z4.89
X-20.696 Z4.934
X-20.522 Z4.928
X-20.424 Z4.932
X-20.241 Z4.934
X-20.012 Z4.906
X-19.948 Z4.912
X-19.461 Z4.916
X-19.207 Z4.893
X-19.046 Z4.898
X-18.714 Z4.897
X-18.013 Z4.91
X-17.818 Z4.912
X-17.453 Z4.903
X-17.312 Z4.88
X-17.155 Z4.887
X-16.923 Z4.909
X-16.759 Z4.926
X-16.399 Z4.913
X-15.957 Z4.918
X-15.691 Z4.874
X-15.606 Z4.884
X-15.452 Z4.896
X-15.263 Z4.909
X-15.218 Z4.921
X-15.081 Z4.943
X-14.8 Z4.965
X-14.61 Z4.949
X-14.455 Z4.925
X-14.192 Z4.89
X-13.908 Z4.908
X-13.719 Z4.89
X-13.455 Z4.888
X-13.286 Z4.868
X-13.057 Z4.887
X-12.712 Z4.862
X-12.527 Z4.846
X-12.137 Z4.876
X-12.041 Z4.873
X-11.766 Z4.829
X-11.566 Z4.823
X-11.297 Z4.844
X-10.976 Z4.842
X-10.619 Z4.792
X-10.349 Z4.82
X-9.921 Z4.811
X-9.666 Z4.844
X-9.424 Z4.857
X-9.197 Z4.886
X-9.1 Z4.897
X-8.92 Z4.884
X-8.491 Z4.861
X-8.044 Z4.88
X-7.856 Z4.894
X-7.68 Z4.905
X-7.436 Z4.892
X-6.977 Z4.91
X-6.703 Z4.872
X-6.434 Z4.829
X-6.306 Z4.863
X-5.852 Z4.915
X-5.706 Z4.916
X-5.5 Z4.918
X-5.19 Z4.901
X-4.966 Z4.905
X-4.606 Z4.915
X-4.308 Z4.888
X-4.058 Z4.916
X-3.912 Z4.917
X-3.624 Z4.918
X-3.27 Z4.916
X-3.04 Z4.896
X-2.664 Z4.871
X-2.552 Z4.886
X-2.434
X-2.143 Z4.92
X-1.703 Z4.914
X-1.485 Z4.879
X-1.383 Z4.895
X-1.249 Z4.912
X-1.014 Z4.907
X-0.896 Z4.915
X-0.409 Z4.9
X-0.294 Z4.911
X-0.082 Z4.927
X0.096 Z4.896
X0.261 Z4.879
X0.496 Z4.905
X0.981 Z4.926
X1.322 Z4.924
X1.734 Z4.885
X1.969 Z4.875
X2.294 Z4.855
X2.489 Z4.858
X2.676 Z4.864
X3.071 Z4.872
X3.476 Z4.853
X3.761 Z4.82
X3.907 Z4.824
X4.339 Z4.87
X4.668 Z4.874
X4.911 Z4.866
X5.006 Z4.857
X5.23 Z4.871
X5.57 Z4.868
X5.898 Z4.839
X6.017 Z4.847
X6.316 Z4.883
X6.473
X6.745 Z4.913
X7.027 Z4.912
X7.242
X7.434 Z4.896
X7.713 Z4.842
X7.958 Z4.868
X8.288 Z4.864
X8.561 Z4.83
X8.697 Z4.816
X8.885 Z4.828
X9.24 Z4.789
X9.511 Z4.731
X9.675 Z4.757
X9.965 Z4.789
X10.362 Z4.81
X10.727 Z4.85
X11.009 Z4.871
X11.252 Z4.863
X11.697 Z4.81
X11.818 Z4.811
X11.944 Z4.833
X12.409 Z4.869
X12.7 Z4.856
X13.218 Z4.882
X13.394 Z4.878
X13.64 Z4.908
X13.767
X14.102 Z4.894
X14.278 Z4.889
X14.604 Z4.904
X14.838 Z4.938
X15.006 Z4.942
X15.16 Z4.951
X15.362 Z4.945
X15.835 Z4.905
X16.176 Z4.913
X16.421 Z4.918
X16.657 Z4.941
X16.903 Z4.936
X17.233 Z4.932
X17.362 Z4.936
X17.588 Z4.946
X17.877 Z4.937
X18.209 Z4.989
X18.469 Z5.026
X18.85 Z5.009
X19.117 Z4.939
X19.269 Z4.951
X19.413 Z4.942
X20.018 Z4.848
X20.24 Z4.858
X20.386 Z4.863
X20.618 Z4.881
X20.851 Z4.893
X21.141 Z4.876
X21.503 Z4.817
X21.778 Z4.86
X22.087 Z4.862
X22.303 Z4.879
X22.463 Z4.883
X22.658
X23.019 Z4.923
X23.203 Z4.937
X23.376 Z4.934
X23.717 Z4.922
X23.906 Z4.899
X24.047 Z4.904
X24.24 Z4.902
X24.426 Z4.862
X24.709 Z4.851
X25.308 Z4.894
X25.452 Z4.896
X25.678 Z4.862
X25.809 Z4.854
X26.001 Z4.842
X26.057 Z4.849
X26.288 Z4.869
X26.603 Z4.838
X27.074 Z4.848
X27.443 Z4.878
X28.099 Z4.881
X28.647 Z4.863
X28.731 Z4.869
X28.935 Z4.898
X29.332 Z4.919
X29.886 Z4.861
X29.995 Z4.854
X30.615 Z4.892
X30.797 Z4.896
X30.961 Z4.874
X31.07 Z4.87
X31.257 Z4.86
X31.859 Z4.856
X32.187 Z4.875
X32.6 Z4.914
X32.905 Z4.898
X33.433 Z4.913
X33.778 Z4.899
X34.023 Z4.884
X34.692 Z4.852
X35. Z4.882
X35.309 Z4.858
X35.415 Z4.862
X35.873 Z4.897
X36.036 Z4.884
X36.466 Z4.823
X36.718 Z4.85
X37.334 Z4.883
X37.577 Z4.886
X37.851 Z4.853
X38.043 Z4.82
X38.619 Z4.859
X38.758 Z4.831
X38.885 Z4.82
X39.237 Z4.854
X39.529 Z4.864
X39.796 Z4.835
X40.176 Z4.851
X40.39 Z4.856
X40.711 Z4.83
X40.923 Z4.848
X41.25 Z4.879
X41.433 Z4.881
X41.627 Z4.861
X41.853 Z4.859
X42.185 Z4.842
X42.605 Z4.882
X42.768 Z4.887
X43.253 Z4.867
X43.773 Z4.859
X44.294 Z4.817
X44.538 Z4.815
X45.01 Z4.826
X45.192 Z4.816
X45.457 Z4.846
X45.629 Z4.838
X45.819 Z4.841
X46.093 Z4.806
X46.379 Z4.796
X46.537 Z4.81
X46.693 Z4.802
X47.014 Z4.816
X47.503 Z4.798
X47.877 Z4.795
X48.308 Z4.772
X48.505 Z4.751
X48.639 Z4.77
X49.039 Z4.782
X49.23 Z4.781
X49.463 Z4.831
X49.66 Z4.851
X49.988 Z4.838
X50.29 Z4.804
X50.937 Z4.796
X51.223 Z4.752
X51.766 Z4.784
X51.938 Z4.781
X52.05 Z4.791
X52.217 Z4.793
X52.409 Z4.806
X52.428 Z4.812
X52.441 Z4.826
X52.446 Z4.845
Y-47.722 Z4.865
Y-47.707 Z4.88
X52.447 Y-47.687 Z4.885
X52.452 Y-47.37
Y-47.35 Z4.88
Y-47.336 Z4.865
Y-47.331 Z4.845
Z4.782
X52.446 Z4.761
X52.43 Z4.746
X52.409 Z4.742
X52.08 Z4.77
X51.825 Z4.815
X51.435 Z4.814
X51.206 Z4.794
X50.874 Z4.827
X50.532 Z4.818
X50.298 Z4.806
X49.873 Z4.826
X49.629 Z4.813
X49.451 Z4.782
X49.356 Z4.775
X49.044 Z4.789
X48.703 Z4.783
X48.085 Z4.807
X47.423 Z4.803
X46.616 Z4.784
X46.402 Z4.774
X46.118 Z4.811
X45.639 Z4.817
X45.381 Z4.79
X45.092 Z4.799
X44.587 Z4.841
X43.613 Z4.854
X43.386 Z4.827
X42.769 Z4.87
X42.38 Z4.852
X42.171 Z4.84
X41.812 Z4.854
X41.49 Z4.838
X41.123 Z4.828
X40.564 Z4.837
X40.079 Z4.839
X39.758 Z4.83
X39.441
X39.117 Z4.771
X38.926 Z4.764
X38.647 Z4.821
X38.324 Z4.815
X38.086 Z4.861
X37.934 Z4.869
X37.483 Z4.854
X37.288 Z4.849
X37.048 Z4.832
X36.756 Z4.847
X36.513 Z4.879
X36.242 Z4.931
X36.072 Z4.924
X35.789 Z4.897
X35.557 Z4.862
X35.265 Z4.867
X34.959 Z4.883
X34.676 Z4.865
X34.307 Z4.885
X33.875 Z4.886
X33.47 Z4.898
X33.129 Z4.875
X32.837 Z4.896
X32.629 Z4.925
X32.369 Z4.904
X32.141 Z4.873
X31.983 Z4.845
X31.674 Z4.871
X31.336 Z4.852
X31.138 Z4.847
X30.856 Z4.917
X30.761 Z4.92
X30.428 Z4.885
X29.772 Z4.883
X29.577 Z4.877
X28.952 Z4.881
X28.654 Z4.844
X28.243 Z4.854
X27.711 Z4.867
X26.873 Z4.923
X26.446 Z4.882
X26.225 Z4.847
X25.94 Z4.855
X25.683 Z4.823
X25.417 Z4.854
X25.365 Z4.853
X25.032 Z4.887
X24.759 Z4.9
X24.5 Z4.869
X24.168 Z4.887
X23.442 Z4.901
X22.696 Z4.846
X22.46 Z4.887
X22.343 Z4.888
X21.767 Z4.864
X21.472 Z4.865
X21.169 Z4.892
X20.78 Z4.88
X20.588 Z4.866
X20.253 Z4.889
X19.923 Z4.918
X19.643 Z4.936
X19.4 Z4.957
X19.123 Z4.932
X18.852 Z4.992
X18.466 Z5.013
X17.886 Z4.952
X17.153 Z4.971
X16.958 Z4.976
X16.528 Z4.951
X16.236 Z4.935
X15.469 Z4.921
X15.223 Z4.907
X15.087
X14.894 Z4.918
X14.505 Z4.901
X13.973 Z4.855
X13.706 Z4.859
X13.52 Z4.853
X13.207 Z4.85
X12.792 Z4.831
X12.511 Z4.856
X12.141
X11.898 Z4.832
X11.609 Z4.857
X11.3 Z4.902
X10.948 Z4.901
X10.576 Z4.862
X10.308 Z4.837
X10.027 Z4.78
X9.741 Z4.755
X9.586 Z4.752
X9.3 Z4.795
X9.144 Z4.824
X8.958 Z4.861
X8.716 Z4.856
X8.266 Z4.85
X7.75 Z4.867
X7.455 Z4.938
X7.272 Z4.937
X6.729 Z4.914
X6.4 Z4.886
X6.064 Z4.871
X5.902 Z4.857
X5.269 Z4.896
X4.98 Z4.859
X4.356 Z4.891
X3.763 Z4.857
X3.214 Z4.871
X2.884 Z4.851
X2.407 Z4.818
X2.261 Z4.815
X2.01 Z4.835
X1.738 Z4.886
X1.145 Z4.917
X0.909 Z4.905
X0.629 Z4.877
X0.429 Z4.854
X0.233 Z4.849
X-0.049 Z4.912
X-0.538 Z4.915
X-0.782 Z4.927
X-1. Z4.945
X-1.108 Z4.93
X-1.33 Z4.876
X-1.66 Z4.889
X-1.785 Z4.873
X-1.996 Z4.835
X-2.48 Z4.84
X-3.248 Z4.89
X-3.54 Z4.894
X-3.734 Z4.897
X-4.003 Z4.927
X-4.436 Z4.945
X-4.68 Z4.952
X-5.644 Z4.919
X-6.056 Z4.889
X-6.385 Z4.873
X-6.717 Z4.911
X-7.046 Z4.923
X-7.341 Z4.902
X-7.631 Z4.909
X-8.003 Z4.856
X-8.205 Z4.842
X-8.643 Z4.853
X-8.832 Z4.856
X-9.392 Z4.89
X-9.521 Z4.875
X-9.741 Z4.835
X-10.017 Z4.855
X-10.394 Z4.824
X-10.565 Z4.819
X-10.862 Z4.87
X-11.242 Z4.881
X-11.509 Z4.854
X-11.775 Z4.871
X-12.072 Z4.918
X-12.17 Z4.913
X-12.443 Z4.875
X-12.721 Z4.863
X-13.146 Z4.888
X-13.652 Z4.919
X-14.215 Z4.9
X-14.562 Z4.919
X-14.771 Z4.945
X-15.189 Z4.924
X-15.492 Z4.861
X-15.729 Z4.87
X-16.106
X-16.299 Z4.858
X-16.62 Z4.881
X-16.899 Z4.853
X-17.273 Z4.902
X-17.531 Z4.925
X-18.237 Z4.9
X-18.773 Z4.905
X-19.002 Z4.88
X-19.447 Z4.883
X-19.739 Z4.89
X-19.915 Z4.892
X-20.23 Z4.895
X-20.424 Z4.902
X-20.561 Z4.901
X-21.063 Z4.843
X-21.152 Z4.84
X-21.311 Z4.837
X-21.432 Z4.823
X-21.635 Z4.829
X-21.85 Z4.831
X-22.008 Z4.851
X-22.112 Z4.845
X-22.304 Z4.865
X-22.532 Z4.918
X-22.94 Z4.936
X-23.559 Z4.885
X-23.799 Z4.891
X-24.098 Z4.93
X-24.511 Z4.926
X-24.949 Z4.911
X-25.629 Z4.927
X-26.021 Z4.892
X-26.361 Z4.834
X-26.558 Z4.78
X-26.69 Z4.772
X-26.817 Z4.74
X-26.935 Z4.68
X-26.974 Z4.651
X-27.267 Z4.499
X-27.627 Z4.166
X-27.677 Z4.072
X-27.985 Z3.128
X-28.264 Z1.309
X-28.322 Z1.155
X-28.399 Z0.975
X-28.669 Z2.809
X-28.778 Z3.349
X-28.925 Z4.044
X-28.982 Z4.272
X-29.008 Z4.336
X-29.054 Z4.401
X-29.153 Z4.488
X-29.274 Z4.551
X-29.566 Z4.691
X-29.699 Z4.73
X-30.307 Z4.804
X-30.449 Z4.811
X-30.723 Z4.784
X-31.258 Z4.81
X-31.542 Z4.872
X-31.966 Z4.885
X-32.299 Z4.905
X-32.85 Z4.916
X-33.12 Z4.868
X-33.715 Z4.903
X-34.12 Z4.879
X-34.619 Z4.826
X-35.186 Z4.878
X-35.578 Z4.882
X-36.383 Z4.883
X-36.7 Z4.913
X-37.279 Z4.876
X-37.516 Z4.889
X-37.662 Z4.905
X-37.888 Z4.938
X-38.246 Z4.92
X-38.538 Z4.935
X-38.813 Z4.963
X-39.13 Z4.934
X-39.746 Z4.948
X-40.162 Z4.919
X-40.356 Z4.917
X-40.656 Z4.926
X-40.886 Z4.904
X-41.196 Z4.934
X-41.628 Z4.938
X-41.841 Z4.946
X-42.148 Z4.933
X-42.496 Z4.94
X-42.7 Z4.934
X-43.633 Z4.962
X-43.914 Z4.934
X-44.226 Z4.96
X-44.784 Z4.932
X-45.1 Z4.973
X-45.576 Z4.913
X-45.725 Z4.9
X-45.996 Z4.905
X-46.425 Z4.94
X-46.6 Z4.959
X-46.92 Z4.92
X-47.264 Z4.925
X-47.59 Z4.901
X-48.076 Z4.886
X-48.349 Z4.939
X-48.47 Z4.937
X-48.775 Z4.912
X-49.071 Z4.902
X-49.34 Z4.865
X-49.947 Z4.869
X-50.292 Z4.815
X-50.616 Z4.786
X-50.847 Z4.744
X-51.145 Z4.751
X-51.502 Z4.764
X-51.78 Z4.743
X-52.09 Z4.698
X-52.173 Z4.668
X-52.253 Z4.616
X-52.309 Z4.559
X-52.329 Z4.548
X-52.352 Z4.55
X-52.37 Z4.565
X-52.377 Z4.587
Y-47.325 Z4.607
Y-47.311 Z4.621
Y-47.291 Z4.626
X-52.379 Y-46.974
Y-46.954 Z4.621
Y-46.94 Z4.607
Y-46.934 Z4.587
Z4.521
X-52.372 Z4.498
X-52.353 Z4.484
X-52.329 Z4.483
X-52.309 Z4.496
X-52.293 Z4.515
X-52.223 Z4.577
X-52.143 Z4.619
X-52.028 Z4.65
X-51.859 Z4.712
X-51.775 Z4.738
X-51.699 Z4.745
X-51.472 Z4.77
X-51.375 Z4.775
X-51.091 Z4.741
X-50.846 Z4.739
X-50.656 Z4.799
X-50.53 Z4.828
X-50.198 Z4.835
X-49.923 Z4.867
X-49.622 Z4.864
X-49.446 Z4.882
X-49.101 Z4.899
X-48.692 Z4.95
X-48.409 Z4.959
X-48.242 Z4.937
X-48.015 Z4.868
X-47.82 Z4.859
X-47.282 Z4.938
X-47.179 Z4.945
X-46.902 Z4.91
X-46.579 Z4.941
X-46.342 Z4.956
X-46.009 Z4.947
X-45.686 Z4.914
X-45.591 Z4.921
X-45.176 Z4.972
X-45.034 Z4.978
X-44.794 Z4.948
X-44.502 Z4.946
X-44.2 Z4.982
X-44.109 Z4.975
X-43.876 Z4.934
X-43.663 Z4.966
X-43.325 Z4.971
X-42.387 Z4.962
X-42.096 Z4.948
X-41.215 Z4.988
X-40.89 Z4.953
X-40.06 Z4.927
X-39.432 Z4.968
X-39.124 Z4.952
X-38.856 Z4.982
X-38.741 Z4.981
X-38.45 Z4.926
X-38.167 Z4.897
X-37.958 Z4.904
X-37.577 Z4.895
X-37.303 Z4.861
X-37.039 Z4.848
X-36.457 Z4.884
X-35.971 Z4.887
X-35.241 Z4.896
X-34.854 Z4.883
X-34.76 Z4.871
X-34.572 Z4.837
X-34.367 Z4.858
X-33.734 Z4.904
X-33.444 Z4.884
X-33.152 Z4.878
X-32.869 Z4.898
X-32.232 Z4.925
X-32.069 Z4.915
X-31.842 Z4.872
X-31.625 Z4.884
X-31.242 Z4.853
X-30.999 Z4.826
X-30.643 Z4.803
X-30.452 Z4.808
X-30.068 Z4.798
X-29.802 Z4.761
X-29.705 Z4.762
X-29.426 Z4.737
X-29.237 Z4.714
X-29.126 Z4.678
X-28.985 Z4.604
X-28.921 Z4.546
X-28.685 Z4.267
X-28.628 Z4.207
X-28.584 Z4.115
X-28.358 Z3.043
X-28.287 Z2.675
X-28.004 Z0.953
X-27.885 Z1.25
X-27.702 Z2.26
X-27.587 Z2.814
X-27.404 Z3.323
X-27.265 Z3.834
X-27.204 Z3.968
X-26.827 Z4.542
X-26.749 Z4.626
X-26.672 Z4.675
X-26.367 Z4.777
X-25.955 Z4.894
X-25.605 Z4.898
X-25.265 Z4.88
X-25.012 Z4.891
X-24.723 Z4.884
X-24.489 Z4.925
X-24.129 Z4.951
X-23.938 Z4.937
X-23.749 Z4.89
X-23.463
X-23.189 Z4.904
X-22.921 Z4.926
X-22.595 Z4.897
X-22.502 Z4.884
X-22.411 Z4.859
X-22.229 Z4.802
X-21.435 Z4.776
X-20.979 Z4.803
X-20.466 Z4.831
X-20.197 Z4.784
X-19.809 Z4.803
X-19.095 Z4.853
X-18.674 Z4.896
X-18.092 Z4.927
X-17.803 Z4.901
X-17.562 Z4.925
X-17.222 Z4.923
X-17.078 Z4.913
X-16.932 Z4.895
X-16.834 Z4.896
X-16.661 Z4.892
X-16.175 Z4.898
X-15.744 Z4.887
X-15.406 Z4.864
X-15.096 Z4.9
X-14.8 Z4.918
X-14.532 Z4.895
X-14.296 Z4.888
X-13.885 Z4.894
X-13.697 Z4.927
X-13.6 Z4.938
X-13.31 Z4.918
X-13.066 Z4.923
X-12.774 Z4.916
X-12.484
X-12.152 Z4.947
X-12.024 Z4.946
X-11.799 Z4.912
X-11.516 Z4.885
X-10.523 Z4.86
X-10.285 Z4.822
X-10.092 Z4.851
X-9.961 Z4.859
X-9.708 Z4.862
X-9.428 Z4.895
X-9.053 Z4.889
X-8.79 Z4.855
X-8.644
X-8.073 Z4.889
X-7.758 Z4.921
X-7.574 Z4.933
X-7.44 Z4.916
X-7.011 Z4.891
X-6.722 Z4.865
X-6.436 Z4.862
X-5.831 Z4.849
X-5.554 Z4.881
X-4.973 Z4.898
X-4.822 Z4.89
X-4.612 Z4.878
X-4.326 Z4.916
X-4.032 Z4.909
X-3.684 Z4.92
X-3.383 Z4.944
X-3.24 Z4.931
X-2.728 Z4.866
X-2.41 Z4.847
X-2.104 Z4.839
X-1.331 Z4.907
X-0.802 Z4.898
X-0.424 Z4.912
X-0.175 Z4.905
X0.015 Z4.888
X0.247 Z4.837
X0.478 Z4.846
X0.619 Z4.891
X0.751 Z4.927
X1.043 Z4.939
X1.186 Z4.933
X1.465 Z4.873
X1.766 Z4.896
X1.93 Z4.881
X2.434 Z4.825
X2.811 Z4.848
X3.506 Z4.874
X3.778 Z4.862
X4.108
X4.581 Z4.867
X4.987 Z4.857
X5.252 Z4.87
X5.568 Z4.858
X5.846 Z4.891
X6.202 Z4.889
X6.498 Z4.878
X6.833 Z4.898
X7.423 Z4.889
X7.579 Z4.879
X7.792 Z4.854
X7.938 Z4.86
X8.098 Z4.855
X8.546
X8.86 Z4.882
X9.505 Z4.859
X9.782 Z4.84
X10.124 Z4.85
X10.396 Z4.86
X10.66 Z4.903
X11.05 Z4.899
X11.243 Z4.882
X11.604 Z4.836
X11.882 Z4.869
X12.189 Z4.871
X12.561 Z4.839
X12.707 Z4.838
X13.053 Z4.869
X13.443 Z4.897
X13.692 Z4.892
X13.955 Z4.917
X14.198 Z4.913
X14.63 Z4.919
X15.214 Z4.883
X15.462 Z4.894
X15.792 Z4.885
X16.043 Z4.916
X16.212 Z4.914
X16.438 Z4.88
X16.635 Z4.908
X17.04 Z4.938
X17.308 Z4.918
X17.706 Z4.929
X18.381 Z4.963
X18.833 Z4.97
X19.108 Z4.915
X19.4 Z4.929
X19.718 Z4.892
X20. Z4.917
X20.336 Z4.885
X21.009 Z4.89
X21.66 Z4.883
X22.404 Z4.875
X22.72 Z4.831
X22.949 Z4.858
X23.144 Z4.867
X23.533 Z4.877
X23.823 Z4.894
X24.067 Z4.899
X24.494 Z4.881
X24.719 Z4.902
X24.859 Z4.905
X25.465 Z4.886
X25.717 Z4.818
X25.924 Z4.865
X26.066 Z4.873
X26.289 Z4.849
X26.48 Z4.872
X26.733 Z4.888
X27.163 Z4.94
X27.515 Z4.921
X27.727 Z4.89
X28.099 Z4.845
X28.361 Z4.865
X28.701 Z4.849
X28.953 Z4.86
X29.511 Z4.861
X29.877 Z4.873
X30.479 Z4.828
X30.724 Z4.884
X30.866 Z4.891
X31.111 Z4.863
X31.342 Z4.868
X31.535 Z4.882
X31.718 Z4.898
X31.996 Z4.87
X32.243 Z4.864
X32.524 Z4.884
X32.67 Z4.886
X33.539 Z4.866
X33.878 Z4.867
X34.058 Z4.887
X34.706 Z4.855
X35.276 Z4.89
X35.617 Z4.9
X36.104 Z4.894
X36.376 Z4.886
X36.817 Z4.819
X37.075 Z4.821
X37.337 Z4.851
X37.455 Z4.852
X37.65 Z4.855
X37.99 Z4.846
X38.3 Z4.863
X38.903 Z4.816
X39.411 Z4.842
X39.742 Z4.852
X40.108 Z4.836
X40.61 Z4.841
X40.956 Z4.844
X41.307 Z4.833
X41.615 Z4.82
X41.845 Z4.839
X42.184 Z4.832
X42.471 Z4.849
X42.716 Z4.831
X43.089 Z4.794
X43.378 Z4.782
X43.652 Z4.805
X43.96 Z4.803
X44.247 Z4.82
X44.6 Z4.819
X44.919 Z4.777
X45.23 Z4.796
X45.505 Z4.775
X46.108 Z4.769
X46.4 Z4.759
X46.603 Z4.771
X46.871 Z4.774
X47.305 Z4.768
X47.632 Z4.785
X48.301 Z4.783
X49.01 Z4.789
X49.399 Z4.787
X49.725 Z4.792
X49.961 Z4.806
X50.261 Z4.792
X50.941 Z4.806
X51.226 Z4.758
X51.468 Z4.768
X51.788 Z4.775
X52.117 Z4.752
X52.409 Z4.751
X52.427 Z4.755
X52.444 Z4.759
X52.445
X52.465 Y-46.933 Z4.76
X52.485 Y-46.927
X52.504 Y-46.919
X52.521 Y-46.907 Z4.761
X52.536 Y-46.892 Z4.762
X52.548 Y-46.875 Z4.763
X52.556 Y-46.856 Z4.764
X52.562 Y-46.836 Z4.765
X52.564 Y-46.816 Z4.767
Y-46.657 Z4.776
X52.562 Y-46.636 Z4.778
X52.556 Y-46.616 Z4.779
X52.548 Y-46.598 Z4.78
X52.536 Y-46.581 Z4.781
X52.521 Y-46.566 Z4.782
X52.504 Y-46.554 Z4.783
X52.485 Y-46.545
X52.465 Y-46.54 Z4.784
X52.445 Y-46.538
X52.427 Z4.78
X52.409 Z4.776
X51.971 Z4.782
X51.8 Z4.794
X51.217 Z4.774
X50.911 Z4.817
X50.546 Z4.806
X50.365 Z4.79
X50.27 Z4.784
X49.907 Z4.797
X49.678 Z4.819
X49.383 Z4.838
X49.159 Z4.826
X48.494 Z4.774
X48.162 Z4.793
X48.016 Z4.79
X47.474 Z4.763
X47.28 Z4.776
X46.648 Z4.785
X46.214 Z4.763
X45.891 Z4.78
X45.662 Z4.791
X45.272 Z4.773
X45.078 Z4.772
X44.791 Z4.808
X44.25 Z4.817
X43.862 Z4.8
X43.623 Z4.792
X43.368 Z4.749
X43.079 Z4.762
X42.635 Z4.818
X42.441 Z4.816
X42.164 Z4.789
X41.563 Z4.817
X41.295 Z4.8
X40.699 Z4.84
X40.456 Z4.835
X40.249 Z4.826
X39.764 Z4.846
X38.987 Z4.829
X38.264 Z4.848
X37.709 Z4.817
X37.464 Z4.878
X37.353 Z4.881
X36.984 Z4.849
X36.838 Z4.847
X36.653 Z4.878
X36.557 Z4.888
X36.286 Z4.899
X35.88 Z4.923
X35.509 Z4.904
X35.193 Z4.883
X34.583 Z4.855
X34.06 Z4.895
X33.766 Z4.913
X33.558 Z4.892
X33.463 Z4.874
X32.786 Z4.891
X32.564 Z4.905
X32.284 Z4.881
X32.09
X31.998 Z4.876
X31.672 Z4.9
X31.162 Z4.861
X30.736 Z4.854
X30.618 Z4.84
X30.319 Z4.845
X30.215 Z4.839
X30.118 Z4.852
X29.926 Z4.865
X29.503 Z4.863
X28.813 Z4.839
X28.695 Z4.827
X28.4 Z4.853
X28.103 Z4.833
X27.614 Z4.862
X27.525 Z4.86
X27.242 Z4.902
X26.796 Z4.891
X26.553 Z4.893
X26.326 Z4.853
X26.15 Z4.823
X25.849 Z4.792
X25.661 Z4.819
X25.478 Z4.836
X25.088 Z4.838
X24.847 Z4.882
X24.492 Z4.892
X24.305 Z4.897
X23.972 Z4.882
X23.418 Z4.825
X23.306 Z4.819
X22.982 Z4.854
X22.708 Z4.837
X22.421 Z4.857
X21.703 Z4.855
X21.077 Z4.879
X20.867 Z4.882
X20.602 Z4.868
X20.317 Z4.889
X20.006 Z4.935
X19.691 Z4.927
X19.4 Z4.952
X19.303 Z4.942
X19.091 Z4.909
X18.747 Z4.941
X18.455 Z4.943
X17.979 Z4.906
X17.833 Z4.908
X17.607 Z4.945
X17.269 Z4.959
X16.844 Z4.914
X16.63 Z4.906
X16.018 Z4.904
X15.775 Z4.902
X15.488 Z4.93
X15.147 Z4.926
X14.71 Z4.937
X14.515 Z4.939
X14.301 Z4.93
X13.957 Z4.943
X13.338 Z4.891
X12.953 Z4.832
X12.758 Z4.839
X12.395 Z4.877
X12.151 Z4.883
X11.82 Z4.845
X11.544 Z4.88
X11.307 Z4.918
X11.174 Z4.917
X10.79 Z4.888
X10.593 Z4.867
X10.108 Z4.881
X9.495 Z4.855
X9.301 Z4.85
X9.168 Z4.841
X8.851 Z4.849
X8.594 Z4.823
X8.217 Z4.849
X8.025 Z4.862
X7.635 Z4.866
X7.54 Z4.868
X7.342 Z4.884
X7.196 Z4.88
X7.08 Z4.867
X6.856 Z4.887
X6.236 Z4.872
X5.846 Z4.861
X5.654 Z4.819
X5.47 Z4.815
X5.162 Z4.837
X4.978 Z4.826
X4.553 Z4.846
X4.381 Z4.864
X4.135 Z4.85
X4.027 Z4.842
X3.772 Z4.861
X3.51 Z4.859
X2.867 Z4.86
X2.575 Z4.858
X2.42 Z4.869
X1.982 Z4.88
X1.694 Z4.839
X1.133 Z4.898
X0.746 Z4.877
X0.579 Z4.857
X0.448 Z4.863
X0.204 Z4.86
X-0.022 Z4.883
X-0.587 Z4.868
X-1.074 Z4.887
X-1.337 Z4.902
X-1.536 Z4.886
X-1.697 Z4.878
X-1.891 Z4.865
X-2.2 Z4.878
X-2.44 Z4.87
X-2.511 Z4.861
X-2.754 Z4.871
X-2.879 Z4.882
X-2.974 Z4.895
X-3.392 Z4.934
X-3.896 Z4.878
X-4.055 Z4.876
X-4.572 Z4.862
X-4.857 Z4.909
X-5.382
X-5.589 Z4.894
X-5.854 Z4.866
X-6.572 Z4.876
X-6.732 Z4.866
X-7.03 Z4.893
X-7.274 Z4.904
X-7.497 Z4.93
X-7.669 Z4.926
X-7.817 Z4.904
X-7.985 Z4.901
X-8.593 Z4.853
X-8.836
X-9.1 Z4.875
X-9.694 Z4.835
X-10. Z4.874
X-10.192 Z4.863
X-10.487 Z4.866
X-10.606 Z4.856
X-10.983 Z4.882
X-11.136 Z4.878
X-11.222 Z4.872
X-12.04 Z4.917
X-12.461 Z4.898
X-12.919 Z4.925
X-13.058 Z4.93
X-13.509 Z4.925
X-13.795 Z4.903
X-14.339 Z4.9
X-14.506 Z4.881
X-14.797 Z4.906
X-14.894 Z4.909
X-15.073 Z4.937
X-15.17 Z4.932
X-15.409 Z4.904
X-15.604 Z4.908
X-15.733 Z4.907
X-16.082 Z4.92
X-16.617 Z4.91
X-16.93 Z4.875
X-17.542 Z4.891
X-17.805 Z4.862
X-18.131 Z4.887
X-18.574 Z4.848
X-18.807 Z4.82
X-19.207 Z4.755
X-19.32 Z4.73
X-19.593 Z4.772
X-19.699 Z4.762
X-20.236 Z4.811
X-20.394 Z4.818
X-20.969 Z4.789
X-21.543 Z4.758
X-21.774 Z4.744
X-22.102 Z4.763
X-22.404 Z4.831
X-22.841 Z4.906
X-23.13 Z4.91
X-23.693
X-23.973 Z4.933
X-24.265 Z4.935
X-24.425 Z4.946
X-24.679 Z4.921
X-24.874 Z4.908
X-25.043 Z4.877
X-25.333 Z4.876
X-25.429 Z4.871
X-25.615 Z4.882
X-25.712 Z4.866
X-25.791 Z4.832
X-25.953 Z4.714
X-26.077 Z4.6
X-26.159 Z4.603
X-26.377 Z4.656
X-26.518 Z4.669
X-26.616 Z4.65
X-26.694 Z4.612
X-26.767 Z4.552
X-26.824 Z4.467
X-26.876 Z4.316
X-27.155 Z3.377
X-27.191 Z3.197
X-27.42 Z1.801
X-27.522 Z1.356
X-27.632 Z0.958
X-27.887 Z2.649
X-28.187 Z4.278
X-28.227 Z4.373
X-28.308 Z4.471
X-28.415 Z4.555
X-28.518 Z4.599
X-28.8 Z4.676
X-28.937 Z4.716
X-29.171 Z4.759
X-29.538 Z4.779
X-29.82 Z4.761
X-30.082 Z4.799
X-30.487 Z4.841
X-31.153 Z4.848
X-31.388 Z4.852
X-31.82 Z4.878
X-32.178 Z4.893
X-32.534 Z4.877
X-32.842 Z4.878
X-33.079 Z4.857
X-33.164 Z4.843
X-33.426 Z4.852
X-33.7 Z4.881
X-34.178 Z4.855
X-34.433
X-34.776 Z4.877
X-35.408
X-36.336 Z4.876
X-37.037 Z4.844
X-37.236 Z4.843
X-37.396 Z4.846
X-37.673 Z4.875
X-38.062 Z4.893
X-38.208 Z4.898
X-38.535 Z4.939
X-38.751 Z4.979
X-38.865 Z4.977
X-39.088 Z4.962
X-39.428 Z4.973
X-39.639 Z4.956
X-40.021 Z4.911
X-40.379 Z4.93
X-40.516 Z4.97
X-40.658 Z4.982
X-40.88 Z4.975
X-41.122 Z4.996
X-41.395 Z4.99
X-41.979 Z4.971
X-42.16 Z4.972
X-42.408 Z4.931
X-42.55 Z4.949
X-42.805 Z4.947
X-42.949 Z4.978
X-43.068 Z4.976
X-43.303 Z4.965
X-43.438 Z4.975
X-43.813 Z4.944
X-43.982 Z4.952
X-44.225 Z4.967
X-44.299 Z4.965
X-44.487 Z4.993
X-44.681 Z4.982
X-45.053 Z4.951
X-45.221 Z4.924
X-45.568 Z4.92
X-45.994 Z4.97
X-46.3 Z4.988
X-46.492 Z4.965
X-46.916 Z4.902
X-47.136 Z4.907
X-47.41 Z4.888
X-47.579 Z4.886
X-47.748 Z4.873
X-47.806 Z4.864
X-48.092 Z4.897
X-48.365 Z4.94
X-48.478 Z4.934
X-48.68 Z4.901
X-48.96 Z4.882
X-49.023 Z4.872
X-49.348 Z4.879
X-49.494 Z4.859
X-49.686 Z4.848
X-49.867 Z4.827
X-50.178 Z4.793
X-50.466 Z4.788
X-50.63 Z4.762
X-50.755 Z4.734
X-50.954 Z4.718
X-51.676 Z4.741
X-51.797 Z4.729
X-51.904 Z4.706
X-52.049 Z4.692
X-52.141 Z4.669
X-52.221 Z4.627
X-52.292 Z4.566
X-52.309 Z4.546
X-52.323 Z4.536
X-52.339 Z4.532
X-52.36 Y-46.536
X-52.38 Y-46.531 Z4.533
X-52.399 Y-46.522 Z4.534
X-52.416 Y-46.511 Z4.535
X-52.43 Y-46.496 Z4.536
X-52.442 Y-46.479 Z4.537
X-52.451 Y-46.46 Z4.539
X-52.456 Y-46.44 Z4.541
X-52.458 Y-46.42 Z4.543
Y-46.26 Z4.557
X-52.456 Y-46.24 Z4.559
X-52.451 Y-46.22 Z4.56
X-52.442 Y-46.201 Z4.562
X-52.43 Y-46.184 Z4.564
X-52.416 Y-46.17 Z4.565
X-52.399 Y-46.158 Z4.566
X-52.38 Y-46.149 Z4.567
X-52.36 Y-46.144
X-52.339 Y-46.142
X-52.323 Z4.571
X-52.309 Z4.58
X-52.278 Z4.616
X-52.204 Z4.673
X-52.122 Z4.71
X-52.033 Z4.728
X-51.434 Z4.716
X-51.189 Z4.728
X-50.897 Z4.721
X-50.56 Z4.722
X-50.372 Z4.766
X-49.993 Z4.824
X-49.666 Z4.858
X-49.278 Z4.872
X-49.011 Z4.836
X-48.766 Z4.854
X-48.471 Z4.858
X-48.252
X-48.09 Z4.842
X-47.819 Z4.854
X-47.5 Z4.889
X-47.218 Z4.861
X-47.009 Z4.877
X-46.306 Z4.963
X-45.707 Z4.946
X-45.111 Z4.948
X-44.834 Z4.977
X-44.674 Z4.972
X-44.316 Z4.973
X-43.645 Z4.917
X-43.492 Z4.947
X-43.354 Z4.969
X-42.95 Z4.965
X-42.681 Z4.924
X-42.553 Z4.927
X-42.246 Z4.932
X-42.147 Z4.944
X-41.744 Z4.952
X-41.265 Z4.98
X-40.551 Z4.964
X-40.275 Z4.918
X-40.021 Z4.943
X-39.732 Z4.933
X-39.467 Z4.97
X-39.09 Z4.978
X-38.849 Z4.947
X-38.754 Z4.944
X-38.432 Z4.9
X-38.088 Z4.897
X-37.581 Z4.903
X-37.297 Z4.869
X-37.057 Z4.895
X-36.789 Z4.894
X-36.196 Z4.855
X-35.924 Z4.87
X-35.33 Z4.871
X-35.013 Z4.882
X-34.375 Z4.878
X-34.02 Z4.857
X-33.789 Z4.882
X-33.157 Z4.889
X-32.784 Z4.922
X-32.36 Z4.882
X-31.979 Z4.866
X-31.69 Z4.88
X-31.479 Z4.874
X-30.801 Z4.838
X-30.509
X-30.19 Z4.855
X-29.827 Z4.843
X-29.194 Z4.802
X-28.981 Z4.813
X-28.592
X-28.478 Z4.793
X-28.329 Z4.728
X-28.167 Z4.608
X-28.067 Z4.598
X-27.978 Z4.575
X-27.9 Z4.533
X-27.841 Z4.478
X-27.803 Z4.415
X-27.785 Z4.351
X-27.516 Z3.703
X-27.486 Z3.553
X-27.21 Z1.433
X-27.101 Z1.826
X-26.798 Z3.54
X-26.767 Z3.643
X-26.497 Z4.248
X-26.443 Z4.346
X-26.371 Z4.41
X-26.306 Z4.444
X-26.21 Z4.463
X-26.044 Z4.446
X-25.861 Z4.675
X-25.724 Z4.789
X-25.607 Z4.849
X-25.482 Z4.885
X-25.342 Z4.899
X-25.083 Z4.936
X-24.794 Z4.958
X-24.358 Z4.963
X-24.132 Z4.926
X-23.889 Z4.906
X-23.458 Z4.875
X-22.882
X-22.289 Z4.78
X-21.977 Z4.72
X-21.742 Z4.725
X-21.573 Z4.736
X-20.833 Z4.782
X-20.006 Z4.797
X-19.634 Z4.774
X-19.342 Z4.785
X-18.801 Z4.825
X-18.558 Z4.835
X-18.134 Z4.868
X-17.818 Z4.878
X-17.486 Z4.901
X-17.293 Z4.884
X-16.915 Z4.862
X-16.8 Z4.875
X-16.433 Z4.932
X-16.322 Z4.945
X-16.001 Z4.918
X-15.766 Z4.93
X-15.222 Z4.915
X-14.939 Z4.937
X-14.804 Z4.94
X-14.485 Z4.886
X-14.322 Z4.9
X-13.896 Z4.925
X-13.608 Z4.888
X-13.31 Z4.912
X-12.998 Z4.897
X-12.709 Z4.864
X-12.421 Z4.856
X-12.233 Z4.883
X-11.822 Z4.912
X-11.195 Z4.866
X-10.94 Z4.876
X-10.623 Z4.86
X-10.369 Z4.899
X-10.004 Z4.901
X-9.694 Z4.872
X-9.501 Z4.884
X-9.109 Z4.887
X-8.823 Z4.861
X-8.532 Z4.849
X-8.293 Z4.861
X-8.098 Z4.868
X-7.64 Z4.884
X-7.476 Z4.921
X-7.321 Z4.943
X-7.016 Z4.923
X-6.692 Z4.879
X-6.444 Z4.889
X-6.2 Z4.881
X-6.009 Z4.88
X-5.558 Z4.912
X-5.438 Z4.911
X-5.243 Z4.875
X-4.993 Z4.874
X-4.739 Z4.879
X-4.592 Z4.877
X-4.316
X-3.724 Z4.84
X-3.434 Z4.857
X-3.083 Z4.862
X-2.492 Z4.853
X-2.039 Z4.882
X-1.618 Z4.897
X-0.888 Z4.863
X-0.442 Z4.865
X-0.174 Z4.889
X0.167 Z4.898
X0.508 Z4.875
X0.758 Z4.882
X1.164 Z4.864
X1.396 Z4.811
X1.561 Z4.829
X1.72 Z4.831
X1.967 Z4.83
X2.651 Z4.835
X2.99 Z4.85
X3.485 Z4.886
X3.902 Z4.844
X4.091 Z4.815
X4.362 Z4.863
X4.567 Z4.856
X4.947 Z4.839
X5.263 Z4.848
X5.671 Z4.829
X6.109 Z4.841
X6.451 Z4.875
X6.723 Z4.868
X7.015 Z4.874
X7.303 Z4.896
X7.432 Z4.903
X7.709 Z4.86
X8.012 Z4.879
X8.596 Z4.854
X8.749 Z4.866
X9.131 Z4.882
X9.463 Z4.907
X9.706 Z4.899
X9.983 Z4.896
X10.337 Z4.922
X10.604 Z4.916
X10.765 Z4.914
X11.3 Z4.927
X11.59 Z4.893
X11.87 Z4.874
X12.145 Z4.905
X12.461 Z4.921
X12.826 Z4.898
X13.103 Z4.862
X13.627 Z4.915
X14.112 Z4.93
X14.754 Z4.926
X14.965 Z4.924
X15.5 Z4.941
X15.797 Z4.906
X15.943 Z4.909
X16.381 Z4.912
X16.648 Z4.937
X16.964 Z4.927
X17.222 Z4.956
X17.499 Z4.967
X17.68 Z4.956
X17.903 Z4.907
X18.052 Z4.923
X18.446 Z4.98
X18.763 Z4.982
X19.102 Z4.955
X19.36 Z4.977
X19.66 Z4.964
X20.047 Z4.962
X20.32 Z4.92
X20.547 Z4.901
X20.912
X21.506 Z4.857
X21.734 Z4.828
X22.024 Z4.817
X22.256 Z4.832
X22.689 Z4.848
X22.975 Z4.884
X23.215 Z4.866
X23.593 Z4.843
X23.857 Z4.86
X24.403 Z4.891
X24.808 Z4.889
X25.119 Z4.844
X25.374 Z4.867
X25.702 Z4.846
X26.263 Z4.787
X26.554 Z4.845
X26.843
X27.093 Z4.861
X27.493 Z4.868
X27.778 Z4.909
X28.219 Z4.877
X28.675 Z4.85
X28.956 Z4.873
X29.565 Z4.869
X29.851 Z4.85
X30.143 Z4.848
X30.455 Z4.892
X31.185 Z4.87
X31.658 Z4.879
X31.975 Z4.864
X32.211 Z4.884
X32.646 Z4.899
X32.786 Z4.879
X33.062 Z4.85
X33.451 Z4.841
X33.666 Z4.897
X33.8 Z4.916
X34.372 Z4.89
X34.666 Z4.863
X35.123 Z4.866
X35.456 Z4.878
X35.747 Z4.912
X36.123 Z4.929
X36.55 Z4.903
X36.887 Z4.87
X37.076 Z4.84
X37.303 Z4.876
X37.431 Z4.884
X37.714 Z4.833
X37.829 Z4.841
X38.11 Z4.865
X38.445 Z4.883
X38.834 Z4.882
X39.222 Z4.858
X39.478 Z4.82
X39.797 Z4.819
X40.368 Z4.795
X40.622 Z4.825
X40.931 Z4.841
X41.566 Z4.802
X41.663
X42.187 Z4.797
X42.637 Z4.824
X42.824 Z4.835
X43.098 Z4.798
X43.387 Z4.779
X43.608 Z4.809
X43.846 Z4.824
X44.272 Z4.856
X44.515 Z4.839
X45.187 Z4.805
X45.445 Z4.841
X45.785 Z4.84
X46.084 Z4.805
X46.376 Z4.778
X46.663 Z4.824
X47.026 Z4.83
X47.612 Z4.754
X47.819 Z4.759
X48.081 Z4.804
X48.324 Z4.819
X48.754 Z4.826
X49.046 Z4.806
X49.599 Z4.826
X49.979 Z4.798
X50.247 Z4.793
X50.529 Z4.829
X50.94 Z4.837
X51.221 Z4.796
X51.744 Z4.83
X51.975 Z4.821
X52.409 Z4.802
X52.428 Z4.806
X52.446 Z4.81
X52.447
X52.468 Y-46.14
X52.488 Y-46.135
X52.506 Y-46.126 Z4.809
X52.523 Y-46.114 Z4.808
X52.538 Y-46.1 Z4.807
X52.55 Y-46.083 Z4.805
X52.559 Y-46.064 Z4.804
X52.564 Y-46.044 Z4.802
X52.566 Y-46.024 Z4.8
Y-45.864 Z4.786
X52.564 Y-45.844 Z4.784
X52.559 Y-45.824 Z4.782
X52.55 Y-45.805 Z4.781
X52.538 Y-45.788 Z4.779
X52.523 Y-45.773 Z4.778
X52.506 Y-45.762 Z4.777
X52.488 Y-45.753 Z4.776
X52.468 Y-45.748
X52.447 Y-45.746 Z4.775
X52.429 Z4.771
X52.409 Z4.767
X51.554 Z4.829
X51.415 Z4.838
X51.175 Z4.859
X50.883 Z4.871
X50.572 Z4.818
X50.29
X50.002 Z4.845
X49.637 Z4.85
X49.345 Z4.834
X49.065 Z4.812
X48.774 Z4.826
X48.409 Z4.801
X48.167 Z4.762
X47.885 Z4.75
X47.654 Z4.771
X47.267 Z4.754
X47.025 Z4.763
X46.707 Z4.781
X46.419 Z4.756
X46.135 Z4.785
X45.617 Z4.821
X45.403 Z4.819
X45.193 Z4.808
X44.853 Z4.821
X44.619 Z4.803
X44.351 Z4.857
X44.062 Z4.851
X43.631 Z4.83
X43.057 Z4.838
X42.808 Z4.832
X42.525 Z4.874
X42.339 Z4.862
X41.901 Z4.836
X41.549 Z4.848
X41.314 Z4.862
X40.404 Z4.872
X40.075 Z4.895
X39.734 Z4.885
X39.491 Z4.861
X39.254 Z4.884
X39.071 Z4.871
X38.887 Z4.849
X38.546 Z4.864
X38.011 Z4.856
X37.4 Z4.892
X37.113 Z4.861
X36.809 Z4.821
X36.516 Z4.861
X35.877 Z4.885
X35.516 Z4.87
X34.944 Z4.884
X34.514 Z4.861
X34.363 Z4.855
X34.116 Z4.866
X33.835 Z4.901
X33.65 Z4.89
X33.128 Z4.845
X31.832
X31.416 Z4.861
X31.115 Z4.9
X30.689 Z4.869
X30.453 Z4.849
X30.155 Z4.855
X29.905 Z4.838
X29.345 Z4.859
X28.965 Z4.882
X28.709 Z4.85
X28.467 Z4.872
X27.814 Z4.882
X27.47 Z4.906
X27.067 Z4.871
X26.827 Z4.858
X26.305 Z4.861
X26.022 Z4.882
X25.674 Z4.858
X25.406 Z4.879
X25.225 Z4.855
X25.106 Z4.836
X24.804 Z4.873
X24.45 Z4.876
X24.213 Z4.852
X23.938 Z4.866
X23.546 Z4.862
X23.331 Z4.834
X22.975 Z4.853
X22.574 Z4.833
X22.114 Z4.838
X21.741 Z4.881
X21.449 Z4.899
X21.013 Z4.909
X20.879 Z4.92
X20.587 Z4.907
X20.326 Z4.935
X20.148 Z4.97
X20.054 Z4.984
X19.91 Z4.985
X19.62 Z4.97
X19.348 Z4.907
X18.687 Z4.913
X18.457 Z4.937
X18.165 Z4.943
X17.912 Z4.93
X17.719 Z4.949
X16.973 Z4.935
X16.658 Z4.948
X16.363 Z4.925
X16.044 Z4.929
X15.806 Z4.913
X15.528 Z4.948
X15.117 Z4.925
X14.876 Z4.888
X13.957 Z4.908
X13.715 Z4.894
X13.438 Z4.943
X13.341 Z4.94
X13.043 Z4.905
X12.786 Z4.885
X12.499 Z4.899
X12.143 Z4.891
X11.851 Z4.852
X11.562
X10.677 Z4.904
X10.365 Z4.884
X10.032 Z4.856
X9.457 Z4.859
X9.23 Z4.848
X8.893 Z4.846
X8.28 Z4.884
X8.008 Z4.871
X7.665 Z4.859
X7.262 Z4.871
X7.025 Z4.861
X6.808 Z4.826
X6.617 Z4.846
X6.177 Z4.83
X5.873 Z4.828
X5.571 Z4.847
X5.327 Z4.843
X5.117 Z4.827
X4.984 Z4.828
X4.77 Z4.839
X4.394 Z4.848
X2.922 Z4.862
X2.533 Z4.854
X2.203 Z4.836
X1.716 Z4.826
X1.34 Z4.867
X1.161 Z4.897
X1.053 Z4.899
X0.523 Z4.853
X0.287 Z4.888
X-0.13 Z4.923
X-0.422 Z4.917
X-0.894 Z4.884
X-1.186
X-1.627 Z4.842
X-1.927 Z4.821
X-2.478 Z4.859
X-2.844 Z4.889
X-3.197 Z4.892
X-3.489 Z4.874
X-3.69 Z4.852
X-3.972 Z4.896
X-4.655 Z4.879
X-4.81 Z4.847
X-5. Z4.834
X-5.153 Z4.815
X-5.285 Z4.856
X-5.449 Z4.875
X-5.843 Z4.89
X-6.595 Z4.899
X-6.797 Z4.891
X-7.016 Z4.866
X-7.336 Z4.883
X-7.587 Z4.862
X-7.915 Z4.864
X-8.239 Z4.881
X-8.498 Z4.857
X-9.092 Z4.912
X-9.452 Z4.899
X-10.035 Z4.858
X-10.327 Z4.878
X-10.591 Z4.914
X-10.977 Z4.89
X-11.25 Z4.871
X-11.64 Z4.885
X-12.212 Z4.919
X-12.699 Z4.923
X-13.023 Z4.953
X-13.272 Z4.944
X-13.397 Z4.936
X-13.503 Z4.921
X-13.814 Z4.929
X-13.947 Z4.913
X-14.219 Z4.862
X-14.467 Z4.848
X-14.704 Z4.895
X-14.847 Z4.9
X-15.1 Z4.885
X-15.743 Z4.886
X-16.023 Z4.897
X-16.32 Z4.876
X-16.603 Z4.886
X-16.701 Z4.874
X-16.971 Z4.82
X-17.181 Z4.78
X-17.419 Z4.804
X-17.693 Z4.844
X-18.146 Z4.853
X-18.451 Z4.818
X-19.122 Z4.796
X-19.366 Z4.791
X-19.628 Z4.748
X-19.92 Z4.749
X-20.183 Z4.776
X-20.505 Z4.754
X-20.845 Z4.768
X-21.4 Z4.742
X-21.745 Z4.757
X-21.992 Z4.751
X-22.315 Z4.794
X-22.586 Z4.843
X-22.894 Z4.881
X-23.259 Z4.893
X-23.542 Z4.912
X-23.734 Z4.911
X-24.08 Z4.948
X-24.397 Z4.94
X-24.666 Z4.91
X-25.005 Z4.898
X-25.179 Z4.862
X-25.3 Z4.809
X-25.427 Z4.739
X-25.622 Z4.751
X-25.719 Z4.733
X-25.798 Z4.698
X-25.872 Z4.642
X-25.94 Z4.555
X-26.036 Z4.351
X-26.121 Z4.061
X-26.161 Z3.916
X-26.329 Z3.767
X-26.376 Z3.7
X-26.403 Z3.598
X-26.697 Z1.523
X-26.766 Z1.32
X-26.783 Z1.26
X-26.952 Z2.517
X-27.093 Z3.596
X-27.154 Z3.781
X-27.417 Z4.531
X-27.462 Z4.603
X-27.523 Z4.658
X-27.64 Z4.718
X-27.777 Z4.749
X-28.164 Z4.776
X-28.292 Z4.769
X-28.525 Z4.817
X-28.864 Z4.831
X-29.243 Z4.841
X-29.704
X-29.907 Z4.842
X-30.188 Z4.834
X-30.455 Z4.808
X-30.983 Z4.799
X-31.244 Z4.795
X-31.519 Z4.871
X-31.633 Z4.878
X-31.977 Z4.859
X-32.206 Z4.862
X-32.473 Z4.887
X-32.863 Z4.892
X-33.094 Z4.875
X-33.422 Z4.905
X-33.797 Z4.882
X-34.014 Z4.852
X-34.303 Z4.861
X-34.583 Z4.837
X-34.861 Z4.871
X-35.237 Z4.884
X-35.574 Z4.85
X-35.849 Z4.833
X-36.046 Z4.843
X-36.215 Z4.842
X-36.458 Z4.846
X-36.71 Z4.815
X-37.294 Z4.845
X-37.519 Z4.883
X-37.953 Z4.891
X-38.278 Z4.855
X-38.522 Z4.842
X-38.793 Z4.881
X-39.29 Z4.894
X-39.677 Z4.908
X-40.187 Z4.938
X-40.361 Z4.937
X-40.591 Z4.907
X-40.824 Z4.953
X-40.968 Z4.955
X-41.297 Z4.938
X-41.439 Z4.923
X-41.75 Z4.933
X-41.823 Z4.927
X-42.155 Z4.942
X-42.694 Z4.934
X-43.034 Z4.951
X-43.255 Z4.952
X-43.369 Z4.949
X-43.598 Z4.918
X-43.89 Z4.946
X-44.161 Z5.001
X-44.257 Z4.999
X-44.503 Z4.966
X-44.878 Z4.997
X-45.076 Z5.019
X-45.197 Z5.011
X-45.621 Z4.97
X-45.724 Z4.973
X-45.946 Z4.993
X-46.373 Z4.979
X-46.601 Z4.938
X-47.146 Z4.895
X-47.269 Z4.892
X-47.569 Z4.835
X-47.848 Z4.826
X-48.141 Z4.803
X-48.399 Z4.813
X-48.719 Z4.846
X-48.835 Z4.823
X-48.935 Z4.796
X-48.96 Z4.795
X-49.104 Z4.827
X-49.638 Z4.847
X-50.124
X-50.584 Z4.796
X-50.905 Z4.751
X-51.42 Z4.713
X-51.712
X-51.946 Z4.734
X-52.043 Z4.733
X-52.129 Z4.714
X-52.212 Z4.673
X-52.284 Z4.615
X-52.309 Z4.586
X-52.323 Z4.577
X-52.339 Z4.573
X-52.36 Y-45.744
X-52.38 Y-45.739
X-52.398 Y-45.73 Z4.572
X-52.415 Y-45.718
X-52.43 Y-45.703 Z4.571
X-52.442 Y-45.686
X-52.451 Y-45.668 Z4.57
X-52.456 Y-45.648 Z4.569
X-52.458 Y-45.627
Y-45.468 Z4.563
X-52.456 Y-45.448 Z4.562
X-52.451 Y-45.428 Z4.561
X-52.442 Y-45.409
X-52.43 Y-45.392 Z4.56
X-52.415 Y-45.377 Z4.559
X-52.398 Y-45.365
X-52.38 Y-45.357
X-52.36 Y-45.351 Z4.558
X-52.339 Y-45.35
X-52.338
X-52.322 Z4.562
X-52.309 Z4.571
X-52.265 Z4.617
X-52.19 Z4.671
X-52.111 Z4.703
X-52.014 Z4.719
X-51.725 Z4.716
X-51.645 Z4.727
X-51.195 Z4.755
X-50.961 Z4.78
X-50.539 Z4.833
X-50.313 Z4.822
X-49.839 Z4.869
X-49.43 Z4.873
X-49.178 Z4.881
X-48.895 Z4.874
X-48.686 Z4.876
X-48.508 Z4.847
X-48.111 Z4.786
X-47.868 Z4.784
X-47.5 Z4.831
X-47.324 Z4.874
X-47.227 Z4.892
X-46.943 Z4.874
X-46.675 Z4.927
X-46.42 Z4.951
X-46.134 Z4.969
X-45.108 Z5.022
X-44.856 Z4.991
X-44.691 Z4.971
X-44.578 Z4.965
X-44.203 Z4.994
X-44.06 Z4.989
X-43.874 Z4.953
X-43.812 Z4.958
X-43.462 Z4.948
X-43.344 Z4.958
X-43.15 Z4.961
X-42.925 Z4.936
X-42.546 Z4.913
X-42.019 Z4.93
X-41.825 Z4.933
X-41.714 Z4.95
X-41.495 Z4.976
X-41.212 Z4.957
X-40.886 Z4.926
X-40.75 Z4.93
X-40.473 Z4.921
X-40.34 Z4.939
X-40.228 Z4.935
X-40.012 Z4.921
X-39.588 Z4.889
X-39.268 Z4.841
X-38.996 Z4.791
X-38.814 Z4.771
X-38.513 Z4.81
X-38.251 Z4.855
X-37.792 Z4.865
X-37.585 Z4.844
X-37.341 Z4.842
X-36.709 Z4.82
X-36.576 Z4.832
X-36.333 Z4.839
X-36.097 Z4.831
X-35.89 Z4.853
X-35.565 Z4.882
X-35.152 Z4.894
X-34.877 Z4.843
X-34.78 Z4.845
X-34.586 Z4.831
X-34.293 Z4.836
X-33.721 Z4.885
X-33.358 Z4.886
X-33.084 Z4.844
X-32.597 Z4.86
X-32.203 Z4.854
X-31.941 Z4.866
X-31.6 Z4.879
X-31.448 Z4.865
X-31.271 Z4.834
X-31.077 Z4.82
X-30.796 Z4.838
X-30.468 Z4.865
X-30.118 Z4.913
X-29.809 Z4.894
X-29.606 Z4.871
X-29.321 Z4.855
X-29.032 Z4.841
X-28.597 Z4.853
X-28.266 Z4.801
X-28. Z4.821
X-27.672 Z4.788
X-27.509 Z4.756
X-27.353 Z4.708
X-27.208 Z4.628
X-27.093 Z4.54
X-27.041 Z4.476
X-27.008 Z4.41
X-26.887 Z4.049
X-26.725 Z3.601
X-26.693 Z3.502
X-26.391 Z1.305
X-26.337 Z1.123
X-26.302 Z1.225
X-26.002 Z3.505
X-25.918 Z3.823
X-25.851 Z4.024
X-25.791 Z4.141
X-25.679 Z4.376
X-25.581 Z4.538
X-25.511 Z4.603
X-25.424 Z4.648
X-25.273 Z4.694
X-25.255 Z4.709
X-25.157 Z4.77
X-24.839 Z4.888
X-24.743 Z4.911
X-24.611 Z4.909
X-24.083 Z4.938
X-23.323 Z4.881
X-22.892 Z4.86
X-22.35 Z4.799
X-22.01 Z4.767
X-21.697 Z4.75
X-21.395 Z4.724
X-20.842 Z4.754
X-20.529 Z4.739
X-20.244 Z4.757
X-20.084 Z4.758
X-19.892 Z4.749
X-19.399 Z4.751
X-19.107 Z4.755
X-18.765 Z4.766
X-18.676 Z4.792
X-18.462 Z4.83
X-18.116 Z4.834
X-17.834 Z4.807
X-17.771 Z4.82
X-17.396 Z4.866
X-17.235 Z4.873
X-16.888 Z4.834
X-16.64 Z4.87
X-15.812 Z4.871
X-15.578 Z4.872
X-15.09 Z4.898
X-14.709 Z4.9
X-14.524 Z4.89
X-14.439 Z4.901
X-13.977 Z4.948
X-13.697 Z4.965
X-13.569 Z4.973
X-13.452 Z4.956
X-13.16 Z4.931
X-12.85 Z4.876
X-12.706 Z4.86
X-12.347 Z4.918
X-12.098 Z4.922
X-11.804 Z4.879
X-11.558 Z4.87
X-11.429 Z4.877
X-10.997 Z4.901
X-10.822 Z4.906
X-10.627 Z4.914
X-10.531 Z4.91
X-10.442 Z4.901
X-10.251 Z4.859
X-9.992 Z4.864
X-9.778 Z4.878
X-9.308 Z4.903
X-8.515 Z4.867
X-8.24 Z4.893
X-8.09 Z4.888
X-7.705 Z4.87
X-7.522 Z4.863
X-7.035 Z4.846
X-6.78 Z4.89
X-6.517 Z4.904
X-6.25 Z4.893
X-5.996 Z4.895
X-5.802 Z4.889
X-5.678 Z4.897
X-5.532 Z4.902
X-5.247 Z4.877
X-4.929 Z4.899
X-4.765 Z4.887
X-4.589 Z4.901
X-4.45 Z4.915
X-3.938 Z4.907
X-3.666 Z4.842
X-3.143 Z4.875
X-2.754 Z4.87
X-2.188 Z4.821
X-1.905 Z4.828
X-1.635 Z4.834
X-1.288 Z4.892
X-1. Z4.923
X-0.805 Z4.905
X-0.466 Z4.914
X-0.338 Z4.937
X-0.1 Z4.955
X0.218 Z4.91
X0.51 Z4.892
X1.129 Z4.911
X1.404 Z4.872
X1.54 Z4.866
X1.845 Z4.838
X2.061 Z4.832
X2.392 Z4.838
X2.998 Z4.824
X3.226 Z4.822
X3.495 Z4.814
X3.668 Z4.828
X3.958 Z4.833
X4.311 Z4.829
X4.465 Z4.828
X5.014 Z4.84
X5.39 Z4.835
X5.533 Z4.824
X5.715 Z4.81
X5.908 Z4.796
X6.129 Z4.811
X6.438 Z4.851
X6.761 Z4.853
X6.916 Z4.848
X7.13 Z4.871
X7.355 Z4.885
X7.655 Z4.874
X7.959 Z4.884
X8.594 Z4.854
X8.693 Z4.865
X8.885 Z4.874
X9.013 Z4.892
X9.226 Z4.908
X9.812 Z4.86
X10.133 Z4.866
X10.658 Z4.923
X10.852 Z4.914
X11.209 Z4.877
X11.602 Z4.844
X12.04 Z4.84
X12.508 Z4.876
X13.07 Z4.894
X13.374 Z4.881
X13.695 Z4.843
X14.053 Z4.889
X14.199 Z4.896
X14.442 Z4.873
X14.562 Z4.875
X14.72 Z4.869
X14.94 Z4.89
X15.484 Z4.912
X15.804 Z4.875
X16.133 Z4.898
X16.377 Z4.89
X16.656 Z4.926
X16.806 Z4.931
X17.376 Z4.915
X18.139 Z4.955
X18.307 Z4.988
X18.502 Z4.993
X18.596 Z4.983
X18.823 Z4.946
X19.518 Z4.943
X19.7 Z4.961
X19.832 Z4.953
X19.99 Z4.955
X20.206 Z4.933
X20.576 Z4.906
X20.782 Z4.933
X20.927 Z4.943
X21.502 Z4.874
X21.746 Z4.867
X22.112 Z4.834
X22.453 Z4.836
X22.681
X22.952 Z4.868
X23.3 Z4.857
X23.71 Z4.864
X24.178 Z4.878
X24.345 Z4.864
X24.561 Z4.865
X24.992 Z4.862
X25.31 Z4.82
X25.89 Z4.814
X26.022 Z4.834
X26.256 Z4.865
X26.679 Z4.852
X27.232 Z4.864
X27.528 Z4.86
X28.015 Z4.848
X28.364 Z4.839
X28.664 Z4.859
X29.2 Z4.841
X29.56 Z4.851
X29.803 Z4.838
X30.061 Z4.841
X30.35 Z4.862
X30.684 Z4.846
X30.773 Z4.851
X30.941 Z4.841
X31.25 Z4.861
X31.378 Z4.856
X31.508 Z4.87
X31.745 Z4.878
X31.923 Z4.847
X32.268 Z4.813
X32.399 Z4.825
X32.882 Z4.852
X33.026 Z4.839
X33.232 Z4.821
X33.511 Z4.843
X33.763 Z4.872
X33.976 Z4.861
X34.246 Z4.834
X34.488 Z4.843
X34.98 Z4.842
X35.138 Z4.828
X35.565 Z4.813
X35.92 Z4.859
X36.223 Z4.861
X36.51 Z4.834
X36.579 Z4.837
X36.799 Z4.83
X37.303 Z4.883
X37.446 Z4.89
X37.93 Z4.864
X38.291 Z4.821
X38.558 Z4.811
X38.716 Z4.823
X39.029 Z4.827
X39.229 Z4.853
X39.757 Z4.885
X40.341 Z4.876
X40.484 Z4.866
X40.558 Z4.856
X40.807
X40.991 Z4.846
X41.209 Z4.855
X41.376 Z4.844
X41.466 Z4.832
X41.565 Z4.839
X41.748 Z4.827
X41.941 Z4.824
X42.175 Z4.821
X42.456 Z4.841
X42.65 Z4.846
X42.808 Z4.826
X42.954 Z4.819
X43.047 Z4.832
X43.679 Z4.849
X43.824 Z4.842
X44.067 Z4.841
X44.456 Z4.837
X44.638 Z4.818
X44.864 Z4.822
X44.968 Z4.818
X45.181 Z4.791
X45.464 Z4.807
X45.537
X45.923 Z4.809
X46.09 Z4.791
X46.234 Z4.798
X46.421 Z4.796
X46.624 Z4.755
X47.018 Z4.77
X47.197 Z4.741
X47.571 Z4.715
X47.622 Z4.727
X47.846 Z4.757
X48.003 Z4.758
X48.281 Z4.775
X48.448 Z4.779
X48.627 Z4.802
X48.765 Z4.816
X49.191 Z4.812
X49.342 Z4.821
X49.981 Z4.833
X50.413 Z4.812
X50.934 Z4.822
X51.218 Z4.792
X51.781 Z4.819
X52.409 Z4.781
X52.429 Z4.785
X52.446 Z4.789
X52.467 Y-45.348
X52.487 Y-45.342
X52.506 Y-45.334
X52.523 Y-45.322 Z4.788
X52.537 Y-45.307
X52.549 Y-45.29 Z4.787
X52.558 Y-45.271 Z4.786
X52.563 Y-45.251
X52.565 Y-45.231 Z4.785
Y-45.072 Z4.779
X52.563 Y-45.051 Z4.778
X52.558 Y-45.031 Z4.777
X52.549 Y-45.013 Z4.776
X52.537 Y-44.996
X52.523 Y-44.981 Z4.775
X52.506 Y-44.969
X52.487 Y-44.96 Z4.774
X52.467 Y-44.955
X52.446 Y-44.953
X52.429 Z4.77
X52.409 Z4.766
X51.879 Z4.797
X51.443 Z4.793
X51.114 Z4.815
X50.757 Z4.806
X50.568 Z4.795
X49.961 Z4.817
X49.636 Z4.832
X49.406 Z4.86
X49.179 Z4.842
X49.018 Z4.834
X48.445 Z4.823
X48.073 Z4.784
X47.817 Z4.758
X47.575 Z4.732
X46.977 Z4.778
X46.718 Z4.758
X46.443 Z4.798
X46.062 Z4.78
X45.478 Z4.822
X45.186
X44.563 Z4.833
X44.3 Z4.859
X43.745 Z4.875
X43.599 Z4.869
X43.347 Z4.815
X43.161 Z4.843
X42.768 Z4.855
X42.459 Z4.825
X41.821 Z4.842
X41.616 Z4.828
X41.336 Z4.878
X40.934 Z4.88
X40.692 Z4.851
X40.459 Z4.856
X40.209 Z4.869
X39.966 Z4.878
X39.723 Z4.873
X39.428 Z4.845
X39.188 Z4.857
X38.912 Z4.888
X38.767 Z4.871
X38.589 Z4.839
X38.3
X37.99 Z4.876
X37.604 Z4.872
X37.337 Z4.869
X37. Z4.822
X36.529 Z4.816
X36.152 Z4.821
X35.827 Z4.809
X35.572 Z4.772
X35.282 Z4.791
X34.977 Z4.823
X34.655 Z4.816
X34.424 Z4.848
X33.995 Z4.864
X33.861 Z4.849
X33.589 Z4.808
X33.462 Z4.801
X33.271 Z4.836
X32.921 Z4.873
X32.527 Z4.87
X32.149 Z4.847
X31.995 Z4.837
X31.71 Z4.867
X31.506 Z4.86
X31.355 Z4.859
X31.098 Z4.834
X30.5 Z4.892
X30.062 Z4.864
X29.368
X29.185 Z4.88
X28.97 Z4.898
X28.362 Z4.891
X28.228 Z4.871
X28.052 Z4.833
X27.774 Z4.848
X27.458 Z4.851
X27.178 Z4.819
X26.792 Z4.845
X26.449 Z4.851
X26.212 Z4.832
X25.901 Z4.82
X25.474 Z4.825
X24.447 Z4.891
X24.155 Z4.874
X23.803 Z4.876
X23.438 Z4.858
X23.283 Z4.839
X22.973 Z4.86
X22.434 Z4.812
X22.242 Z4.817
X21.803 Z4.845
X21.486
X21.145 Z4.871
X20.855 Z4.881
X20.603 Z4.854
X20.311 Z4.874
X20.025 Z4.927
X19.776 Z4.965
X19.633 Z4.973
X19. Z4.986
X18.806 Z4.984
X18.485 Z4.988
X17.986 Z4.902
X17.853 Z4.874
X17.617 Z4.908
X16.932 Z4.929
X16.631 Z4.908
X16.334 Z4.862
X15.808 Z4.86
X15.489 Z4.88
X15.15 Z4.886
X14.862 Z4.865
X14.276 Z4.879
X14.058 Z4.846
X13.873 Z4.812
X13.678 Z4.82
X13.446 Z4.868
X13.201 Z4.867
X13.055 Z4.866
X12.81 Z4.897
X12.431 Z4.898
X12.109 Z4.869
X11.888 Z4.857
X11.422 Z4.911
X11.255 Z4.925
X10.866 Z4.926
X10.472 Z4.897
X9.995 Z4.87
X9.801 Z4.871
X9.2 Z4.927
X8.622 Z4.87
X8.116 Z4.863
X7.832 Z4.848
X7.356 Z4.858
X7.223 Z4.847
X6.464 Z4.849
X5.861 Z4.814
X5.081 Z4.778
X4.692 Z4.79
X4.085 Z4.846
X3.716 Z4.819
X3.489 Z4.788
X3.176 Z4.821
X2.563 Z4.824
X2.271 Z4.818
X1.732 Z4.85
X1.403 Z4.866
X1.176 Z4.903
X1.047 Z4.91
X0.468 Z4.878
X0.202 Z4.888
X-0.075 Z4.918
X-0.188 Z4.908
X-0.34 Z4.885
X-0.704 Z4.848
X-0.975 Z4.872
X-1.072 Z4.867
X-1.437 Z4.832
X-1.632 Z4.813
X-1.959 Z4.822
X-2.359 Z4.821
X-2.528 Z4.809
X-2.806 Z4.841
X-3.127 Z4.866
X-3.478 Z4.841
X-3.649 Z4.848
X-3.923 Z4.892
X-4.017 Z4.899
X-4.335 Z4.905
X-4.619 Z4.87
X-4.903 Z4.897
X-5.304 Z4.929
X-5.519 Z4.947
X-5.919 Z4.915
X-6.084 Z4.912
X-6.407 Z4.945
X-6.789 Z4.913
X-7.021 Z4.856
X-7.277 Z4.836
X-7.556 Z4.897
X-7.699 Z4.895
X-7.933 Z4.879
X-8.143 Z4.869
X-8.327 Z4.858
X-8.823 Z4.878
X-9.1 Z4.915
X-9.662 Z4.875
X-9.759 Z4.872
X-10.021 Z4.891
X-10.409 Z4.897
X-10.567 Z4.869
X-10.647 Z4.846
X-10.99 Z4.854
X-11.2 Z4.884
X-11.79 Z4.867
X-12.123 Z4.894
X-12.536 Z4.858
X-12.686 Z4.853
X-12.98 Z4.897
X-13.315 Z4.921
X-13.624 Z4.942
X-13.94 Z4.933
X-14.271 Z4.907
X-14.547 Z4.874
X-14.869 Z4.895
X-15.145 Z4.885
X-15.411 Z4.85
X-15.89 Z4.847
X-16.1 Z4.839
X-16.294 Z4.856
X-16.552 Z4.928
X-16.842 Z4.92
X-16.939 Z4.921
X-17.186 Z4.94
X-17.283 Z4.931
X-17.592 Z4.86
X-17.832 Z4.841
X-18.195 Z4.848
X-18.488 Z4.823
X-18.754 Z4.771
X-19.028 Z4.733
X-19.417 Z4.743
X-19.607 Z4.755
X-20.087 Z4.762
X-20.33 Z4.763
X-20.882 Z4.756
X-21.149 Z4.712
X-21.433 Z4.688
X-21.999 Z4.781
X-22.297 Z4.778
X-22.663 Z4.818
X-23.052 Z4.836
X-23.679 Z4.855
X-24.182 Z4.861
X-24.558 Z4.868
X-24.692 Z4.849
X-24.815 Z4.803
X-25. Z4.733
X-25.113 Z4.716
X-25.308 Z4.656
X-25.432 Z4.595
X-25.503 Z4.539
X-25.565 Z4.463
X-25.625 Z4.345
X-25.669 Z4.197
X-25.783 Z3.44
X-25.868 Z2.813
X-25.959 Z2.028
X-26.045 Z1.558
X-26.237 Z3.068
X-26.302 Z3.527
X-26.544 Z4.295
X-26.619 Z4.491
X-26.66 Z4.554
X-26.721 Z4.61
X-26.798 Z4.654
X-26.935 Z4.693
X-27.298 Z4.753
X-27.354 Z4.755
X-27.628 Z4.834
X-28.014 Z4.855
X-28.306 Z4.845
X-28.548 Z4.839
X-28.905 Z4.83
X-29.222 Z4.861
X-29.526 Z4.875
X-29.838 Z4.907
X-30.13 Z4.917
X-30.828 Z4.848
X-31.001 Z4.841
X-31.377 Z4.871
X-31.795 Z4.88
X-31.953 Z4.883
X-32.244 Z4.864
X-32.665 Z4.881
X-32.909 Z4.878
X-33.103 Z4.871
X-33.405 Z4.905
X-33.802 Z4.893
X-34.6 Z4.825
X-34.849 Z4.847
X-35.006 Z4.865
X-35.322 Z4.871
X-35.593 Z4.835
X-35.8 Z4.864
X-36.145 Z4.876
X-36.327 Z4.854
X-36.565 Z4.831
X-36.793 Z4.834
X-37.08 Z4.849
X-37.411 Z4.848
X-37.536 Z4.827
X-37.655 Z4.804
X-37.833 Z4.821
X-38.026 Z4.84
X-38.2 Z4.861
X-38.492 Z4.849
X-38.831 Z4.874
X-39.269 Z4.868
X-39.643 Z4.85
X-39.74
X-39.98 Z4.883
X-40.201 Z4.944
X-40.583 Z4.984
X-40.814 Z4.962
X-40.909 Z4.951
X-41.336 Z4.967
X-41.579 Z4.957
X-42.004 Z4.945
X-42.54 Z4.95
X-43.046 Z4.977
X-43.203 Z4.955
X-43.333 Z4.932
X-43.64 Z4.949
X-44.02 Z4.921
X-44.461 Z4.92
X-44.873 Z4.984
X-45.139 Z4.99
X-45.745 Z4.967
X-45.93 Z4.985
X-46.051 Z4.987
X-46.676 Z4.919
X-46.951 Z4.837
X-47.138 Z4.827
X-47.32 Z4.808
X-47.5 Z4.818
X-47.597 Z4.809
X-47.861 Z4.771
X-48.104 Z4.778
X-48.51 Z4.843
X-48.699 Z4.865
X-48.894
X-49.1 Z4.853
X-49.353 Z4.867
X-49.586 Z4.898
X-49.747 Z4.879
X-49.946 Z4.839
X-50.212 Z4.817
X-50.546 Z4.823
X-50.936 Z4.779
X-51.308 Z4.745
X-51.502 Z4.73
X-51.731 Z4.695
X-52.02 Z4.704
X-52.097 Z4.693
X-52.18 Z4.661
X-52.26 Z4.608
X-52.309 Z4.556
X-52.322 Z4.547
X-52.338 Z4.544
X-52.358 Y-44.952
X-52.378 Y-44.946
X-52.397 Y-44.937 Z4.543
X-52.414 Y-44.926 Z4.542
X-52.429 Y-44.911 Z4.541
X-52.441 Y-44.894 Z4.539
X-52.449 Y-44.875 Z4.538
X-52.455 Y-44.855 Z4.536
X-52.457 Y-44.835 Z4.534
Y-44.676 Z4.521
X-52.455 Y-44.655 Z4.519
X-52.449 Y-44.635 Z4.518
X-52.441 Y-44.616 Z4.516
X-52.429 Y-44.599 Z4.515
X-52.414 Y-44.585 Z4.514
X-52.397 Y-44.573 Z4.513
X-52.378 Y-44.564 Z4.512
X-52.358 Y-44.559 Z4.511
X-52.338 Y-44.557
X-52.336
X-52.322 Z4.514
X-52.309 Z4.522
X-52.222 Z4.602
X-52.139 Z4.645
X-52.04 Z4.668
X-51.781 Z4.672
X-51.092 Z4.685
X-50.6 Z4.777
X-50.363 Z4.8
X-49.981 Z4.821
X-49.673 Z4.854
X-49.552 Z4.857
X-49.292 Z4.823
X-49.055 Z4.829
X-48.785 Z4.883
X-48.699 Z4.894
X-48.407 Z4.902
X-48.313 Z4.892
X-48.196 Z4.87
X-47.759 Z4.775
X-47.682 Z4.778
X-47.439 Z4.786
X-46.981 Z4.818
X-46.757 Z4.883
X-46.397 Z4.958
X-46.302 Z4.969
X-45.747 Z4.947
X-45.319 Z4.971
X-44.882 Z4.954
X-44.492 Z4.933
X-44.192 Z4.949
X-43.919 Z4.921
X-43.627 Z4.931
X-43.511 Z4.922
X-43.219 Z4.923
X-42.635 Z4.929
X-42.197 Z4.945
X-41.85 Z4.951
X-41.509 Z4.935
X-41.252 Z4.96
X-41.108 Z4.959
X-40.605 Z4.891
X-40.449 Z4.905
X-40.292 Z4.908
X-40.116 Z4.883
X-39.935 Z4.826
X-39.788 Z4.82
X-39.609 Z4.801
X-39.481 Z4.825
X-39.089 Z4.863
X-38.716 Z4.835
X-38.489 Z4.793
X-38.297 Z4.837
X-38.177 Z4.848
X-38.014 Z4.83
X-37.801 Z4.774
X-37.611 Z4.747
X-37.384 Z4.817
X-37.054 Z4.845
X-36.778 Z4.848
X-36.389 Z4.831
X-36.151 Z4.854
X-35.756
X-35.479 Z4.817
X-35.259 Z4.852
X-34.875 Z4.854
X-34.602 Z4.834
X-34.389 Z4.862
X-34.054 Z4.877
X-33.49 Z4.875
X-33.104 Z4.853
X-32.873 Z4.885
X-32.727 Z4.896
X-32.289 Z4.908
X-32.046 Z4.921
X-31.857 Z4.93
X-31.558 Z4.891
X-31.288 Z4.836
X-31.029 Z4.857
X-30.727 Z4.833
X-30.441 Z4.897
X-30.064 Z4.908
X-29.792 Z4.858
X-29.646 Z4.864
X-29.17 Z4.877
X-28.87 Z4.85
X-28.541 Z4.836
X-27.982 Z4.86
X-27.601 Z4.839
X-27.328 Z4.812
X-27.1 Z4.836
X-26.876 Z4.805
X-26.69 Z4.774
X-26.56 Z4.723
X-26.441 Z4.652
X-26.34 Z4.566
X-26.259 Z4.463
X-26.217 Z4.375
X-26.157 Z4.142
X-25.952 Z2.842
X-25.813 Z1.831
X-25.79 Z1.98
X-25.725 Z2.52
X-25.629 Z3.349
X-25.499 Z4.077
X-25.449 Z4.219
X-25.36 Z4.379
X-25.275 Z4.493
X-25.202 Z4.551
X-25.145 Z4.581
X-25.024 Z4.63
X-24.89 Z4.664
X-24.716 Z4.696
X-24.548 Z4.765
X-24.194 Z4.878
X-24.078 Z4.889
X-23.79 Z4.86
X-23.64 Z4.868
X-23.348 Z4.873
X-22.703 Z4.85
X-22.512 Z4.832
X-22.231 Z4.779
X-21.974 Z4.715
X-21.686 Z4.686
X-21.346 Z4.718
X-20.897 Z4.807
X-20.8 Z4.819
X-20.34 Z4.776
X-19.943 Z4.757
X-19.556 Z4.781
X-19.313 Z4.775
X-18.989 Z4.739
X-18.47 Z4.812
X-18.145 Z4.849
X-17.902 Z4.847
X-17.553 Z4.859
X-17.274 Z4.901
X-17.176 Z4.908
X-16.894 Z4.864
X-16.623 Z4.893
X-16.301 Z4.868
X-15.97 Z4.89
X-15.71 Z4.869
X-15.388 Z4.822
X-15.17 Z4.853
X-14.848 Z4.869
X-14.508 Z4.863
X-14.245 Z4.888
X-13.946 Z4.882
X-13.577 Z4.889
X-13.243 Z4.868
X-12.73 Z4.859
X-12.418 Z4.891
X-12.245 Z4.88
X-11.781 Z4.841
X-11.374 Z4.85
X-10.936 Z4.862
X-10.631 Z4.848
X-10.337 Z4.865
X-10.047 Z4.873
X-9.735 Z4.859
X-9.455 Z4.881
X-9.102 Z4.889
X-8.803 Z4.844
X-8.513 Z4.827
X-8.251 Z4.853
X-7.946
X-7.557 Z4.881
X-7.363 Z4.877
X-6.996 Z4.88
X-6.441 Z4.92
X-5.796 Z4.9
X-5.547 Z4.92
X-5.157 Z4.917
X-4.592 Z4.877
X-4.353 Z4.893
X-4.158 Z4.888
X-3.394 Z4.854
X-3.116 Z4.882
X-2.689 Z4.851
X-2.464 Z4.808
X-2.176 Z4.789
X-1.984 Z4.818
X-1.633 Z4.846
X-1.421 Z4.85
X-0.691 Z4.817
X-0.435 Z4.836
X-0.197 Z4.821
X0.177 Z4.815
X0.397 Z4.839
X1.129 Z4.869
X1.397 Z4.832
X2.005 Z4.818
X2.339 Z4.787
X2.525 Z4.801
X3.225 Z4.822
X3.535 Z4.778
X4.098 Z4.823
X5.161 Z4.821
X5.792 Z4.807
X6.209 Z4.825
X7.061 Z4.851
X7.395 Z4.832
X8.023 Z4.841
X8.203 Z4.866
X8.332 Z4.875
X8.532 Z4.854
X8.906 Z4.827
X9.193 Z4.863
X9.792 Z4.832
X9.931 Z4.842
X10.344 Z4.888
X10.636 Z4.889
X11.346 Z4.909
X11.921 Z4.871
X12.525 Z4.891
X13.049 Z4.866
X13.439 Z4.861
X13.533 Z4.85
X13.703 Z4.822
X14.051 Z4.849
X14.353 Z4.837
X14.571 Z4.863
X15.107 Z4.887
X16.092 Z4.906
X16.383 Z4.897
X16.639 Z4.908
X17.175 Z4.913
X17.576 Z4.924
X17.898 Z4.894
X18.181 Z4.927
X18.454 Z4.914
X18.649 Z4.908
X18.99 Z4.898
X19.136 Z4.901
X19.358 Z4.917
X19.646 Z4.964
X19.797 Z4.965
X20.119 Z4.91
X20.439 Z4.86
X20.572 Z4.866
X20.717 Z4.856
X21.186 Z4.83
X21.738 Z4.85
X22.03 Z4.842
X22.222 Z4.829
X22.402 Z4.805
X22.694 Z4.792
X22.911 Z4.819
X23.255 Z4.838
X23.558 Z4.822
X24.482 Z4.859
X25.097 Z4.809
X25.413 Z4.811
X25.662 Z4.797
X25.959 Z4.808
X26.3 Z4.793
X26.579 Z4.807
X26.811 Z4.836
X27.175 Z4.861
X27.497 Z4.855
X27.804 Z4.887
X28.096 Z4.865
X28.373 Z4.893
X28.689 Z4.878
X29. Z4.906
X29.238 Z4.89
X29.53 Z4.879
X29.905 Z4.894
X30.246 Z4.887
X30.566 Z4.85
X31.118 Z4.851
X31.394 Z4.823
X31.938 Z4.826
X32.773 Z4.859
X33.186 Z4.861
X33.51 Z4.823
X33.754 Z4.818
X34.1 Z4.832
X34.371 Z4.811
X34.676 Z4.79
X35.52 Z4.808
X36.152 Z4.784
X36.443 Z4.791
X36.738 Z4.786
X37.03 Z4.797
X37.303 Z4.84
X37.4 Z4.851
X37.967 Z4.841
X38.302 Z4.817
X38.47 Z4.828
X38.803 Z4.862
X38.914 Z4.871
X39.203 Z4.845
X39.446 Z4.838
X39.774 Z4.813
X40.007 Z4.855
X40.366 Z4.881
X40.646 Z4.863
X40.929 Z4.851
X41.358 Z4.822
X41.582 Z4.833
X41.877 Z4.877
X42.218 Z4.859
X42.425 Z4.856
X42.765 Z4.852
X43.164 Z4.834
X43.424 Z4.784
X43.613 Z4.828
X43.946 Z4.855
X44.344 Z4.851
X44.906 Z4.803
X45.45 Z4.837
X45.816 Z4.828
X46.119 Z4.781
X46.362 Z4.784
X46.703 Z4.767
X46.961 Z4.785
X47.311 Z4.767
X47.595 Z4.742
X47.831 Z4.768
X48.132 Z4.817
X48.405 Z4.824
X48.746 Z4.812
X49.062 Z4.807
X49.345 Z4.83
X49.489 Z4.826
X49.728 Z4.785
X50.062 Z4.772
X50.34 Z4.732
X50.465 Z4.738
X50.843 Z4.767
X51.086 Z4.776
X51.631 Z4.772
X52.409 Z4.765
X52.427 Z4.769
X52.444 Z4.773
X52.445
X52.466 Y-44.555
X52.486 Y-44.55
X52.505 Y-44.541 Z4.772
X52.521 Y-44.529
X52.536 Y-44.515 Z4.771
X52.548 Y-44.498
X52.557 Y-44.479 Z4.77
X52.562 Y-44.459
X52.564 Y-44.438 Z4.769
Y-44.28 Z4.764
X52.562 Y-44.259 Z4.763
X52.557 Y-44.239
X52.548 Y-44.22 Z4.762
X52.536 Y-44.203
X52.521 Y-44.189 Z4.761
X52.505 Y-44.177
X52.486 Y-44.168 Z4.76
X52.466 Y-44.163
X52.445 Y-44.161
X52.428 Z4.756
X52.409 Z4.752
X51.563 Z4.774
X51.052 Z4.779
X50.603 Z4.762
X50.313 Z4.78
X50.133 Z4.798
X49.549 Z4.792
X49.052 Z4.787
X48.781 Z4.812
X48.206
X47.9 Z4.796
X47.622 Z4.775
X47.305 Z4.777
X47.121 Z4.791
X46.903 Z4.79
X46.596 Z4.782
X46.374 Z4.802
X46.074 Z4.794
X45.624 Z4.816
X45.429 Z4.813
X45.142 Z4.801
X44.931 Z4.796
X44.728 Z4.829
X44.205 Z4.843
X43.961 Z4.837
X43.681 Z4.811
X43.497 Z4.812
X43.175 Z4.856
X42.779 Z4.895
X42.464 Z4.904
X42.242 Z4.879
X42.109 Z4.865
X41.963 Z4.86
X41.596 Z4.825
X41.357 Z4.839
X40.955 Z4.847
X40.702 Z4.83
X40.06 Z4.845
X39.909 Z4.817
X39.814 Z4.82
X39.633 Z4.844
X39.353 Z4.846
X39.172 Z4.86
X38.861 Z4.874
X38.653 Z4.852
X38.478 Z4.828
X38.198 Z4.82
X37.857 Z4.827
X37.688 Z4.809
X37.4 Z4.84
X37.303 Z4.829
X36.735 Z4.759
X36.443 Z4.745
X36.173 Z4.719
X35.886 Z4.721
X35.65 Z4.744
X35.332 Z4.751
X35.113 Z4.755
X34.907 Z4.77
X34.664 Z4.782
X34.485 Z4.803
X34.291 Z4.814
X33.762 Z4.809
X33.484 Z4.77
X33.212 Z4.806
X32.726 Z4.832
X32.35 Z4.828
X31.811 Z4.82
X31.659 Z4.825
X31.294 Z4.803
X31.103 Z4.83
X30.811 Z4.853
X30.535 Z4.884
X30.173 Z4.9
X29.826 Z4.88
X29.359 Z4.901
X29.067 Z4.904
X28.859 Z4.886
X28.473 Z4.862
X28.117 Z4.84
X27.877 Z4.861
X27.682 Z4.859
X27.339 Z4.843
X27.169 Z4.847
X26.95 Z4.832
X26.865 Z4.823
X26.503 Z4.822
X26.3 Z4.81
X25.959 Z4.828
X25.563 Z4.809
X25.372 Z4.824
X25.093 Z4.819
X24.543 Z4.867
X24.398 Z4.864
X24.017 Z4.839
X23.598 Z4.826
X23.423 Z4.838
X23.048 Z4.826
X22.855 Z4.822
X22.551 Z4.834
X22.401 Z4.827
X22.223 Z4.833
X21.704
X21.073 Z4.851
X20.878 Z4.864
X20.699 Z4.883
X20.322 Z4.909
X19.964 Z4.932
X19.742 Z4.918
X19.625 Z4.913
X19.401 Z4.888
X19.056 Z4.898
X18.808 Z4.895
X18.602 Z4.911
X18.164 Z4.895
X17.972 Z4.85
X17.88 Z4.833
X17.659 Z4.872
X17.265 Z4.874
X16.979 Z4.843
X16.838 Z4.868
X16.712 Z4.892
X16.368 Z4.904
X16.111 Z4.887
X15.637 Z4.869
X15.442 Z4.876
X15.219 Z4.892
X14.824 Z4.878
X14.659 Z4.863
X14.319 Z4.872
X13.817 Z4.834
X13.4 Z4.853
X13.098 Z4.842
X11.455 Z4.887
X11.369 Z4.896
X10.84 Z4.917
X10.359 Z4.911
X10.036 Z4.871
X9.7 Z4.863
X9.116 Z4.884
X8.976 Z4.872
X8.849 Z4.854
X8.674 Z4.852
X8.557 Z4.841
X8.239 Z4.847
X8.056 Z4.84
X7.711 Z4.826
X7.392 Z4.797
X7.103 Z4.814
X6.665 Z4.805
X6.434 Z4.818
X6.172 Z4.827
X5.903 Z4.813
X5.708 Z4.82
X5.554 Z4.814
X5.329 Z4.823
X4.886 Z4.817
X4.303 Z4.822
X4.051 Z4.823
X3.711 Z4.812
X3.171 Z4.851
X2.822 Z4.823
X2.287 Z4.827
X2.082 Z4.838
X1.708 Z4.832
X1.408 Z4.817
X1.1 Z4.85
X0.236 Z4.79
X0.102 Z4.796
X-0.408 Z4.847
X-0.902 Z4.841
X-1.194 Z4.859
X-1.338 Z4.868
X-1.817 Z4.825
X-1.945 Z4.81
X-2.398 Z4.833
X-3.107 Z4.844
X-3.424 Z4.873
X-4.349 Z4.905
X-4.592 Z4.9
X-4.928 Z4.918
X-5.339 Z4.889
X-5.456 Z4.902
X-5.649 Z4.909
X-5.791 Z4.922
X-6.132 Z4.927
X-6.318 Z4.909
X-6.494 Z4.887
X-6.737 Z4.886
X-7.078 Z4.906
X-7.322
X-7.467 Z4.879
X-7.662 Z4.871
X-7.92 Z4.844
X-8.075 Z4.847
X-8.301 Z4.828
X-8.507 Z4.836
X-8.744 Z4.851
X-8.929 Z4.894
X-9.061 Z4.918
X-9.441 Z4.913
X-9.756 Z4.883
X-10.036 Z4.891
X-10.538 Z4.859
X-10.66 Z4.845
X-10.924 Z4.865
X-11.304 Z4.864
X-11.588 Z4.85
X-11.804 Z4.846
X-11.983 Z4.859
X-12.246 Z4.854
X-12.674 Z4.83
X-12.955 Z4.871
X-13.245 Z4.878
X-13.609 Z4.833
X-13.98 Z4.851
X-14.173 Z4.868
X-14.411 Z4.855
X-14.664 Z4.848
X-14.907 Z4.858
X-15.151 Z4.863
X-15.391 Z4.847
X-15.703 Z4.883
X-16.056 Z4.888
X-16.291 Z4.872
X-16.6 Z4.895
X-16.9 Z4.86
X-17.094 Z4.871
X-17.353
X-17.518 Z4.882
X-17.81 Z4.873
X-17.981 Z4.875
X-18.186 Z4.859
X-18.408 Z4.825
X-18.721 Z4.762
X-18.902 Z4.749
X-19.103 Z4.773
X-19.262 Z4.783
X-19.444 Z4.76
X-19.707 Z4.711
X-19.919 Z4.663
X-20.159 Z4.654
X-20.445 Z4.691
X-20.738 Z4.755
X-20.854 Z4.756
X-21.133 Z4.725
X-21.276 Z4.714
X-21.416 Z4.722
X-21.506 Z4.718
X-21.722 Z4.737
X-21.945 Z4.741
X-22.093 Z4.781
X-22.329 Z4.813
X-22.541 Z4.87
X-22.733 Z4.872
X-23.173 Z4.842
X-23.236 Z4.829
X-23.622 Z4.813
X-23.862 Z4.809
X-24.187 Z4.783
X-24.326 Z4.75
X-24.561 Z4.762
X-24.701 Z4.746
X-24.846 Z4.7
X-24.943 Z4.64
X-25.028 Z4.544
X-25.078 Z4.46
X-25.116 Z4.351
X-25.309 Z3.528
X-25.578 Z2.073
X-25.808 Z3.849
X-25.846 Z3.982
X-25.912 Z4.139
X-26.008 Z4.292
X-26.165 Z4.531
X-26.221 Z4.596
X-26.301 Z4.659
X-26.448 Z4.719
X-26.609 Z4.755
X-26.752 Z4.765
X-26.978 Z4.81
X-27.121 Z4.828
X-27.352 Z4.85
X-27.729 Z4.87
X-27.969 Z4.871
X-28.558 Z4.868
X-28.753 Z4.864
X-29.118 Z4.885
X-29.263 Z4.892
X-29.604 Z4.874
X-29.768 Z4.862
X-29.912 Z4.889
X-30.105
X-30.433 Z4.863
X-30.582 Z4.835
X-30.809 Z4.863
X-31.056 Z4.86
X-31.255 Z4.834
X-31.423 Z4.874
X-31.588 Z4.897
X-31.831 Z4.902
X-32.092 Z4.889
X-32.236 Z4.897
X-32.669 Z4.874
X-33.139 Z4.842
X-33.5 Z4.844
X-34.031 Z4.868
X-34.274 Z4.864
X-34.504 Z4.844
X-34.844 Z4.849
X-35.061 Z4.853
X-35.227 Z4.865
X-35.348 Z4.866
X-35.592 Z4.879
X-36.019 Z4.857
X-36.505 Z4.846
X-36.999 Z4.829
X-37.407 Z4.786
X-37.552
X-37.827 Z4.836
X-37.97 Z4.843
X-38.796 Z4.825
X-39.315 Z4.857
X-39.797 Z4.879
X-40.162 Z4.881
X-40.32 Z4.865
X-40.575 Z4.91
X-40.815 Z4.93
X-41.253 Z4.934
X-41.492 Z4.912
X-41.708 Z4.93
X-42.122
X-42.575 Z4.923
X-42.759 Z4.933
X-43.041 Z4.945
X-43.292 Z4.938
X-43.6 Z4.979
X-43.948 Z4.952
X-44.235 Z4.973
X-44.536 Z4.966
X-44.787 Z4.973
X-45.1 Z5.012
X-45.377 Z4.977
X-45.722 Z4.906
X-45.9 Z4.926
X-46.16 Z4.959
X-46.349 Z4.964
X-46.673 Z4.927
X-46.839 Z4.875
X-47.121 Z4.839
X-47.404 Z4.829
X-47.784 Z4.816
X-47.974 Z4.853
X-48.318 Z4.907
X-48.439 Z4.911
X-48.792 Z4.878
X-49.018 Z4.849
X-49.339 Z4.824
X-49.633 Z4.834
X-50.45 Z4.781
X-50.565 Z4.777
X-50.793 Z4.748
X-51.163 Z4.703
X-51.39 Z4.687
X-51.561
X-51.732 Z4.699
X-52.041 Z4.682
X-52.133 Z4.661
X-52.213 Z4.622
X-52.285 Z4.562
X-52.309 Z4.535
X-52.323 Z4.525
X-52.339 Z4.522
X-52.341
X-52.362 Y-44.159
X-52.382 Y-44.154
X-52.401 Y-44.145
X-52.418 Y-44.133
X-52.432 Y-44.118
X-52.444 Y-44.101
X-52.453 Y-44.083
X-52.458 Y-44.063
X-52.46 Y-44.042
Y-43.884 Z4.523
X-52.458 Y-43.863
X-52.453 Y-43.843
X-52.444 Y-43.824
X-52.432 Y-43.807
X-52.418 Y-43.792
X-52.401 Y-43.781
X-52.382 Y-43.772
X-52.362 Y-43.766
X-52.341 Y-43.765
X-52.326 Z4.527
X-52.313 Z4.535
X-52.309 Z4.54
X-52.253 Z4.597
X-52.176 Z4.647
X-52.087 Z4.679
X-51.862 Z4.725
X-51.692 Z4.741
X-51.382 Z4.7
X-51.278 Z4.702
X-50.828 Z4.736
X-50.625 Z4.721
X-50.527 Z4.724
X-50.235 Z4.732
X-50.1 Z4.759
X-49.836 Z4.786
X-49.452 Z4.821
X-49.055 Z4.829
X-48.427 Z4.84
X-48.136 Z4.82
X-47.827 Z4.817
X-47.241 Z4.854
X-46.989 Z4.851
X-46.74 Z4.88
X-46.482 Z4.946
X-46.3 Z4.968
X-45.949 Z4.937
X-45.686 Z4.873
X-45.495 Z4.889
X-45.14 Z4.969
X-44.994 Z4.97
X-44.837 Z4.959
X-44.666 Z4.949
X-44.228 Z4.962
X-43.918 Z4.948
X-43.637 Z4.961
X-43.313 Z4.956
X-43.029 Z4.96
X-42.67 Z4.939
X-42.392 Z4.894
X-41.88 Z4.892
X-41.314 Z4.943
X-41.169 Z4.95
X-40.893 Z4.917
X-40.283 Z4.877
X-40.073 Z4.856
X-39.956 Z4.861
X-39.816 Z4.836
X-39.749 Z4.834
X-39.62 Z4.844
X-39.432
X-39.201 Z4.87
X-38.897 Z4.859
X-38.565 Z4.825
X-38.443 Z4.829
X-38.058 Z4.848
X-37.621 Z4.853
X-37.288 Z4.807
X-36.943 Z4.827
X-36.608 Z4.859
X-36.426 Z4.881
X-35.881 Z4.872
X-35.28 Z4.927
X-35.012 Z4.92
X-34.627 Z4.889
X-34.315 Z4.848
X-34.121 Z4.854
X-33.829 Z4.858
X-33.445 Z4.838
X-33.153 Z4.834
X-32.865 Z4.88
X-32.55 Z4.887
X-32.258 Z4.877
X-31.892 Z4.882
X-31.632 Z4.898
X-31.538 Z4.895
X-31.359 Z4.865
X-31.08 Z4.836
X-30.854 Z4.851
X-30.421 Z4.863
X-29.855 Z4.908
X-29.232 Z4.901
X-28.909 Z4.881
X-28.628 Z4.851
X-28.389 Z4.886
X-27.976 Z4.896
X-27.395 Z4.841
X-26.482 Z4.79
X-26.115 Z4.733
X-25.98 Z4.699
X-25.858 Z4.637
X-25.769 Z4.553
X-25.727 Z4.483
X-25.64 Z4.261
X-25.586 Z4.096
X-25.48 Z3.637
X-25.412 Z3.318
X-25.332 Z2.656
X-25.244 Z1.884
X-25.013 Z3.493
X-24.963 Z3.729
X-24.762 Z4.368
X-24.701 Z4.503
X-24.642 Z4.583
X-24.569 Z4.644
X-24.487 Z4.681
X-24.39 Z4.693
X-24.301 Z4.677
X-24.221 Z4.638
X-24.094 Z4.526
X-24.013 Z4.482
X-23.919 Z4.578
X-23.811 Z4.657
X-23.675 Z4.727
X-23.565 Z4.762
X-23.324 Z4.786
X-23.003 Z4.861
X-22.626 Z4.897
X-22.51 Z4.888
X-22.242 Z4.807
X-21.964 Z4.793
X-21.425 Z4.759
X-21.084 Z4.706
X-20.874 Z4.665
X-20.798 Z4.667
X-20.492 Z4.622
X-20.405 Z4.634
X-20.245 Z4.642
X-20.129 Z4.646
X-19.75 Z4.67
X-19.379 Z4.714
X-18.732 Z4.778
X-18.491 Z4.829
X-18.1 Z4.881
X-17.729 Z4.879
X-17.227 Z4.877
X-16.952 Z4.888
X-16.677 Z4.872
X-16.389 Z4.91
X-16.029 Z4.893
X-15.754 Z4.879
X-15.562 Z4.886
X-15.402 Z4.889
X-15.123 Z4.894
X-14.78 Z4.87
X-14.508 Z4.823
X-14.222 Z4.842
X-13.377 Z4.828
X-13.097 Z4.861
X-12.96 Z4.867
X-12.714 Z4.816
X-12.495 Z4.822
X-12.341 Z4.843
X-12.146 Z4.872
X-11.815 Z4.86
X-11.285 Z4.872
X-11.09 Z4.873
X-10.604 Z4.865
X-10.364 Z4.888
X-9.746 Z4.893
X-9.448 Z4.898
X-9.113 Z4.891
X-8.908 Z4.875
X-8.787 Z4.856
X-8.625 Z4.877
X-8.344
X-8.073
X-7.726 Z4.881
X-7.445 Z4.895
X-6.959 Z4.897
X-6.569 Z4.884
X-6.339 Z4.883
X-6.133 Z4.906
X-5.844 Z4.915
X-5.662 Z4.93
X-5.51 Z4.931
X-5.189 Z4.887
X-4.932 Z4.906
X-4.605 Z4.911
X-4.372 Z4.888
X-4.177 Z4.889
X-3.621 Z4.87
X-3.11 Z4.856
X-2.94 Z4.859
X-2.551 Z4.863
X-2.21 Z4.844
X-1.912 Z4.861
X-1.316 Z4.887
X-1.085 Z4.865
X-0.714 Z4.835
X-0.4 Z4.854
X-0.074 Z4.825
X0.105 Z4.798
X0.375 Z4.774
X0.549 Z4.788
X1.123 Z4.819
X1.406 Z4.778
X1.513 Z4.792
X1.934 Z4.824
X2.363 Z4.818
X2.904 Z4.817
X3.16 Z4.834
X3.428 Z4.822
X3.719 Z4.812
X4.134
X4.664 Z4.787
X5.115 Z4.778
X5.504 Z4.771
X5.811 Z4.807
X6.171 Z4.826
X6.774 Z4.789
X7.371 Z4.787
X7.96 Z4.823
X8.106 Z4.82
X8.559 Z4.808
X8.799 Z4.826
X8.974 Z4.87
X9.13 Z4.902
X9.443 Z4.913
X9.753 Z4.888
X10.093 Z4.887
X10.622 Z4.935
X11.08 Z4.923
X11.561 Z4.884
X12.939 Z4.854
X13.389 Z4.871
X13.654 Z4.843
X13.92 Z4.836
X14.6 Z4.865
X14.794 Z4.846
X15.49 Z4.839
X16.227 Z4.833
X16.449 Z4.867
X16.595 Z4.879
X16.785 Z4.862
X17.009 Z4.783
X17.144 Z4.816
X17.408 Z4.858
X17.589 Z4.871
X17.897 Z4.845
X18.176 Z4.876
X18.517 Z4.881
X18.705 Z4.852
X19.027 Z4.848
X19.196 Z4.868
X19.505 Z4.88
X19.746 Z4.887
X19.877 Z4.864
X20.238 Z4.815
X20.432 Z4.806
X20.748 Z4.836
X21.458 Z4.819
X21.735 Z4.845
X22.004 Z4.83
X22.286 Z4.826
X22.656 Z4.862
X23.044 Z4.845
X23.247 Z4.824
X23.441 Z4.839
X23.802 Z4.885
X24.189 Z4.899
X24.477 Z4.942
X24.833 Z4.913
X25.112 Z4.848
X25.344 Z4.86
X25.463 Z4.856
X25.692 Z4.83
X25.969 Z4.825
X26.279 Z4.808
X26.795 Z4.85
X26.941 Z4.852
X27.172 Z4.843
X27.48 Z4.82
X27.607 Z4.835
X27.938 Z4.858
X28.346 Z4.872
X28.619 Z4.858
X28.854 Z4.875
X29.274 Z4.885
X29.546 Z4.877
X29.842 Z4.872
X30.162 Z4.885
X30.638 Z4.889
X31.117 Z4.882
X31.392 Z4.852
X31.689 Z4.845
X31.879 Z4.826
X32.26 Z4.779
X32.76 Z4.827
X33.068 Z4.83
X33.458 Z4.818
X33.801 Z4.828
X34.067 Z4.798
X34.378 Z4.814
X35.081 Z4.775
X35.307 Z4.703
X35.412 Z4.704
X35.572 Z4.702
X35.776 Z4.712
X36.738 Z4.753
X37.4 Z4.816
X37.673 Z4.793
X37.915 Z4.839
X38.232 Z4.859
X38.756 Z4.846
X38.825 Z4.852
X38.938 Z4.859
X39.46 Z4.832
X39.679 Z4.829
X40. Z4.816
X40.354 Z4.817
X40.574 Z4.833
X40.854 Z4.837
X41.451 Z4.828
X41.769 Z4.829
X42.061 Z4.861
X42.374 Z4.876
X42.439 Z4.887
X42.728 Z4.891
X43.383 Z4.823
X43.532 Z4.828
X43.715 Z4.833
X44.165 Z4.841
X44.506 Z4.838
X44.74 Z4.84
X45.13 Z4.841
X45.471 Z4.852
X46.102 Z4.82
X46.39 Z4.835
X46.708 Z4.797
X46.967 Z4.805
X47.6 Z4.792
X48.559 Z4.823
X49.125 Z4.805
X49.514 Z4.802
X49.974 Z4.792
X50.258 Z4.776
X50.438 Z4.795
X50.564 Z4.801
X50.839 Z4.816
X51.461 Z4.799
X51.706 Z4.824
X52.069 Z4.832
X52.409 Z4.807
X52.43 Z4.811
X52.447 Z4.815
X52.468 Y-43.763
X52.488 Y-43.758 Z4.814
X52.507 Y-43.749 Z4.813
X52.524 Y-43.737 Z4.811
X52.538 Y-43.723 Z4.809
X52.55 Y-43.706 Z4.807
X52.559 Y-43.687 Z4.804
X52.564 Y-43.667 Z4.801
X52.566 Y-43.647 Z4.798
Y-43.486 Z4.775
X52.564 Y-43.466 Z4.772
X52.559 Y-43.446 Z4.769
X52.55 Y-43.427 Z4.766
X52.538 Y-43.41 Z4.764
X52.524 Y-43.396 Z4.762
X52.507 Y-43.384 Z4.76
X52.488 Y-43.376 Z4.759
X52.468 Y-43.37 Z4.758
X52.447 Y-43.368
X52.43 Z4.754
X52.409 Z4.75
X52.117 Z4.773
X51.831 Z4.819
X51.403 Z4.818
X51.023 Z4.793
X50.597 Z4.774
X49.691 Z4.844
X49.348 Z4.848
X48.882 Z4.8
X48.521 Z4.789
X48.187 Z4.83
X47.846 Z4.818
X47.571 Z4.785
X46.738 Z4.767
X46.422 Z4.831
X45.764 Z4.859
X45.482 Z4.847
X45.143 Z4.85
X44.89 Z4.83
X44.404 Z4.844
X43.959 Z4.847
X43.676 Z4.863
X43.378 Z4.82
X43.086 Z4.836
X42.811 Z4.863
X42.495 Z4.843
X42.169 Z4.854
X41.883 Z4.842
X41.63 Z4.85
X41.331 Z4.883
X40.944 Z4.851
X40.67 Z4.818
X40.28 Z4.813
X39.451 Z4.791
X39.206 Z4.805
X38.922 Z4.85
X38.557 Z4.865
X37.978 Z4.818
X37.362 Z4.775
X37.034 Z4.767
X36.7 Z4.72
X36.498 Z4.704
X36.158 Z4.726
X35.828 Z4.72
X35.449 Z4.696
X35.351 Z4.687
X35.122 Z4.753
X34.697 Z4.803
X34.399 Z4.785
X33.925 Z4.822
X33.768 Z4.83
X33.495 Z4.811
X32.857 Z4.834
X32.264 Z4.768
X31.995 Z4.781
X31.716 Z4.813
X31.424 Z4.828
X30.825 Z4.901
X30.437 Z4.906
X30.011 Z4.876
X29.722 Z4.853
X29.456 Z4.849
X29.124 Z4.869
X28.965 Z4.878
X28.708 Z4.859
X28.523 Z4.883
X28.4 Z4.892
X27.782 Z4.839
X27.398 Z4.849
X26.899 Z4.874
X26.73 Z4.851
X26.493 Z4.818
X26. Z4.781
X25.741 Z4.785
X25.42 Z4.836
X25.128 Z4.828
X24.831 Z4.896
X24.465 Z4.917
X24.189 Z4.896
X23.849 Z4.899
X23.483 Z4.851
X23.265 Z4.8
X22.669 Z4.84
X22.431 Z4.821
X22.05 Z4.817
X21.816 Z4.826
X21.403 Z4.816
X20.844 Z4.809
X20.596 Z4.787
X20.405 Z4.789
X20.095 Z4.835
X19.775 Z4.882
X19.537 Z4.876
X19.256 Z4.855
X19.088 Z4.841
X18.82 Z4.867
X18.548 Z4.91
X18.111 Z4.893
X17.901 Z4.874
X17.585 Z4.893
X17.042 Z4.825
X16.754 Z4.843
X16.434 Z4.808
X16.124 Z4.857
X15.86 Z4.843
X15.773 Z4.831
X15.438 Z4.861
X15.17 Z4.878
X14.889 Z4.841
X14.551 Z4.863
X14.247 Z4.861
X13.936 Z4.826
X13.732 Z4.823
X13.411 Z4.86
X13.1 Z4.842
X12.54 Z4.868
X11.689 Z4.865
X11.528 Z4.872
X11.141 Z4.913
X11.044 Z4.922
X10.91 Z4.92
X10.412 Z4.878
X10.302 Z4.872
X9.913 Z4.864
X9.761 Z4.861
X9.205 Z4.886
X9.093 Z4.871
X8.847 Z4.802
X8.015 Z4.794
X7.389 Z4.738
X6.663 Z4.778
X6.467 Z4.788
X6. Z4.762
X5.887 Z4.754
X5.571 Z4.774
X5.192 Z4.761
X4.656 Z4.775
X3.634 Z4.774
X3.108 Z4.786
X2.573 Z4.765
X2.303 Z4.775
X1.987 Z4.806
X1.423 Z4.79
X1.141 Z4.841
X0.744 Z4.822
X0.504 Z4.793
X-0.069 Z4.834
X-1.326 Z4.864
X-1.639 Z4.817
X-1.927 Z4.827
X-2.161 Z4.824
X-2.445 Z4.85
X-2.795 Z4.88
X-3.142 Z4.889
X-3.536 Z4.859
X-3.78 Z4.861
X-4.032 Z4.873
X-4.278 Z4.862
X-4.565 Z4.903
X-4.662 Z4.901
X-4.991 Z4.871
X-5.179 Z4.867
X-5.46 Z4.915
X-5.577 Z4.909
X-5.918 Z4.855
X-6.088 Z4.842
X-6.657 Z4.895
X-7.136 Z4.91
X-7.34 Z4.917
X-7.678 Z4.854
X-7.919 Z4.823
X-8.53 Z4.861
X-8.789 Z4.843
X-9.125 Z4.875
X-9.466 Z4.878
X-10.014 Z4.839
X-10.565 Z4.86
X-10.782 Z4.851
X-11.605 Z4.835
X-11.987 Z4.855
X-12.141 Z4.861
X-12.481 Z4.819
X-12.675 Z4.813
X-12.887 Z4.855
X-13.079 Z4.865
X-13.397 Z4.861
X-13.612 Z4.847
X-13.902 Z4.865
X-13.999 Z4.853
X-14.185 Z4.815
X-14.466 Z4.829
X-14.761 Z4.872
X-15.217 Z4.862
X-15.509 Z4.859
X-15.962 Z4.844
X-16.3 Z4.868
X-16.589 Z4.831
X-16.873 Z4.863
X-17.505 Z4.832
X-18.146 Z4.846
X-18.5 Z4.825
X-19.019 Z4.772
X-19.32 Z4.788
X-19.44 Z4.765
X-19.709 Z4.706
X-20.215 Z4.643
X-20.353 Z4.619
X-20.437 Z4.601
X-20.524 Z4.599
X-20.687 Z4.611
X-20.784 Z4.605
X-21.313 Z4.737
X-21.762 Z4.795
X-22.023 Z4.82
X-22.224
X-22.489 Z4.865
X-22.584 Z4.869
X-22.751 Z4.854
X-23.182 Z4.801
X-23.299 Z4.789
X-23.617 Z4.689
X-23.758 Z4.63
X-23.888 Z4.685
X-24.025 Z4.715
X-24.119 Z4.72
X-24.209 Z4.705
X-24.292 Z4.671
X-24.384 Z4.6
X-24.489 Z4.481
X-24.564 Z4.362
X-24.616 Z4.224
X-24.727 Z3.731
X-24.799 Z3.227
X-25.014 Z1.609
X-25.248 Z3.969
X-25.305 Z4.321
X-25.335 Z4.43
X-25.399 Z4.534
X-25.491 Z4.623
X-25.608 Z4.696
X-25.781 Z4.767
X-25.872 Z4.785
X-26.296 Z4.825
X-26.78 Z4.867
X-27.103 Z4.849
X-27.466 Z4.857
X-27.797 Z4.851
X-28.084 Z4.835
X-28.387 Z4.831
X-28.605 Z4.827
X-28.951 Z4.851
X-29.193 Z4.846
X-29.797 Z4.928
X-30.136 Z4.938
X-30.492 Z4.859
X-30.776 Z4.83
X-31.192 Z4.833
X-31.374 Z4.849
X-31.599 Z4.877
X-31.951 Z4.87
X-32.217 Z4.852
X-32.768 Z4.889
X-33.109 Z4.863
X-33.741 Z4.884
X-34.59 Z4.889
X-34.944 Z4.917
X-35.26 Z4.915
X-35.983 Z4.869
X-36.421 Z4.863
X-36.74 Z4.872
X-36.993 Z4.822
X-37.281 Z4.829
X-37.515 Z4.856
X-37.909 Z4.844
X-38.232 Z4.806
X-38.506 Z4.814
X-38.78 Z4.848
X-38.966 Z4.836
X-39.209 Z4.821
X-39.704 Z4.81
X-39.957 Z4.827
X-40.231 Z4.899
X-40.352 Z4.901
X-40.611 Z4.865
X-40.903 Z4.893
X-41.176 Z4.934
X-41.767 Z4.894
X-42.103 Z4.917
X-42.409 Z4.922
X-42.708 Z4.959
X-43.048 Z4.966
X-43.314 Z4.951
X-43.641 Z4.966
X-44.174 Z4.942
X-44.555 Z4.95
X-44.834 Z4.967
X-45.15 Z4.965
X-45.533 Z4.922
X-45.793 Z4.917
X-46.073 Z4.936
X-46.216 Z4.951
X-46.371 Z4.943
X-46.67 Z4.891
X-46.912 Z4.871
X-47.247 Z4.876
X-48.1 Z4.801
X-48.441 Z4.815
X-48.74 Z4.802
X-49.004 Z4.806
X-49.291 Z4.834
X-49.388 Z4.824
X-49.631 Z4.773
X-49.984 Z4.762
X-50.305 Z4.737
X-50.795 Z4.73
X-51.157 Z4.694
X-51.547 Z4.709
X-51.742 Z4.717
X-52.066 Z4.683
X-52.151 Z4.658
X-52.233 Z4.613
X-52.309 Z4.54
X-52.329 Z4.529
X-52.352 Z4.532
X-52.37 Z4.547
X-52.376 Z4.568
Z4.587
Y-43.363 Z4.607
Y-43.349 Z4.621
Y-43.329 Z4.627
X-52.379 Y-43.012
Y-42.992 Z4.621
Y-42.978 Z4.607
Y-42.972 Z4.587
X-52.372 Z4.564
X-52.353 Z4.55
X-52.329 Z4.549
X-52.309 Z4.561
X-52.292 Z4.582
X-52.221 Z4.643
X-52.141 Z4.684
X-52.036 Z4.709
X-51.743 Z4.69
X-51.512 Z4.671
X-51.213 Z4.679
X-50.921 Z4.69
X-50.474 Z4.773
X-50.31 Z4.79
X-50.095 Z4.785
X-49.932 Z4.788
X-49.653 Z4.775
X-49.525 Z4.799
X-49.19 Z4.819
X-48.979 Z4.816
X-48.776 Z4.834
X-48.657 Z4.839
X-48.445
X-48.098 Z4.821
X-47.631 Z4.858
X-47.439 Z4.848
X-47.354 Z4.836
X-47.15 Z4.859
X-46.821 Z4.881
X-46.518 Z4.88
X-46.389 Z4.91
X-45.872 Z4.96
X-45.696 Z4.951
X-45.386 Z4.952
X-45.138 Z4.984
X-45.03 Z4.981
X-44.836 Z4.977
X-44.51 Z4.951
X-44.432 Z4.958
X-44.043 Z4.942
X-43.632 Z4.943
X-43.291 Z4.924
X-43.042 Z4.923
X-42.767 Z4.918
X-42.535 Z4.921
X-42.256 Z4.902
X-41.818 Z4.908
X-41.538 Z4.903
X-41.38 Z4.906
X-41.151 Z4.898
X-40.592 Z4.823
X-40.017 Z4.851
X-39.883 Z4.84
X-39.688 Z4.829
X-39.377 Z4.778
X-39.156 Z4.77
X-39.072 Z4.783
X-38.894 Z4.818
X-38.662 Z4.844
X-38.419 Z4.845
X-37.981 Z4.841
X-37.358 Z4.856
X-37.007 Z4.854
X-36.604 Z4.825
X-36.365 Z4.83
X-36.045 Z4.841
X-35.899 Z4.851
X-35.449 Z4.881
X-35.193 Z4.878
X-34.82 Z4.835
X-34.535 Z4.821
X-34.302 Z4.84
X-33.767 Z4.821
X-33.365 Z4.827
X-33.122 Z4.829
X-32.872 Z4.863
X-32.486 Z4.879
X-32.072 Z4.863
X-31.87 Z4.867
X-31.676 Z4.872
X-31.533 Z4.866
X-31.198 Z4.827
X-30.955 Z4.821
X-30.524 Z4.832
X-30.141 Z4.867
X-29.848 Z4.865
X-29.366 Z4.848
X-29.189 Z4.821
X-28.994 Z4.829
X-28.674 Z4.833
X-28.406 Z4.841
X-28.097 Z4.823
X-27.891
X-27.797 Z4.842
X-27.7 Z4.853
X-27.575 Z4.836
X-27.226 Z4.847
X-26.857 Z4.867
X-26.565 Z4.862
X-26.136 Z4.836
X-25.892 Z4.822
X-25.732 Z4.827
X-25.598 Z4.811
X-25.445 Z4.76
X-25.352 Z4.699
X-25.295 Z4.638
X-25.238 Z4.538
X-25.049 Z3.909
X-24.962 Z3.562
X-24.738 Z1.876
X-24.521 Z3.625
X-24.47 Z3.916
X-24.418 Z4.093
X-24.353 Z4.22
X-24.162 Z4.492
X-24.093 Z4.557
X-23.975 Z4.62
X-23.85 Z4.657
X-23.573 Z4.704
X-23.328 Z4.797
X-23.208 Z4.821
X-22.916 Z4.813
X-22.656 Z4.847
X-22.23 Z4.85
X-21.989 Z4.83
X-21.862 Z4.804
X-21.549 Z4.712
X-21.327 Z4.631
X-21.286
X-21.089 Z4.611
X-20.801 Z4.629
X-20.578 Z4.666
X-20.34 Z4.684
X-20.14 Z4.711
X-19.979 Z4.727
X-19.607 Z4.771
X-19.512 Z4.764
X-19.387 Z4.791
X-19.222 Z4.806
X-19.009 Z4.785
X-18.501 Z4.791
X-18.095 Z4.808
X-17.854 Z4.828
X-17.444
X-16.914 Z4.855
X-16.536 Z4.829
X-16.371 Z4.83
X-16.237 Z4.845
X-15.949
X-15.653 Z4.842
X-15.465 Z4.838
X-15.33 Z4.844
X-14.992 Z4.854
X-14.8 Z4.875
X-14.485 Z4.832
X-14.095 Z4.854
X-13.9 Z4.843
X-13.801 Z4.85
X-13.657 Z4.849
X-13.472 Z4.822
X-13.416 Z4.834
X-13.24 Z4.858
X-12.905 Z4.853
X-12.604 Z4.832
X-12.467 Z4.824
X-12.087 Z4.846
X-11.804 Z4.83
X-11.512 Z4.826
X-10.945 Z4.87
X-10.556 Z4.871
X-10.232 Z4.842
X-10.037
X-9.683 Z4.875
X-9.418 Z4.89
X-9.073 Z4.886
X-8.776 Z4.844
X-8.582 Z4.84
X-8.225 Z4.822
X-7.966 Z4.829
X-7.492 Z4.884
X-7.3 Z4.906
X-6.992 Z4.875
X-6.403 Z4.884
X-6.085 Z4.851
X-5.761 Z4.859
X-5.573 Z4.89
X-5.476 Z4.896
X-5.191 Z4.863
X-5.024 Z4.874
X-4.677 Z4.914
X-4.557 Z4.918
X-4.239 Z4.842
X-4.136 Z4.841
X-3.755 Z4.828
X-3.463 Z4.829
X-3.078 Z4.875
X-2.762
X-2.434 Z4.857
X-2.142 Z4.844
X-1.765 Z4.818
X-1.492 Z4.792
X-1.358 Z4.81
X-1.144 Z4.812
X-0.645 Z4.836
X-0.197 Z4.84
X-0.025 Z4.836
X0.455 Z4.827
X0.763 Z4.841
X1.145 Z4.832
X1.426 Z4.782
X1.65 Z4.798
X2.038 Z4.792
X2.325 Z4.754
X2.577 Z4.751
X3.142 Z4.795
X3.483 Z4.8
X3.894 Z4.763
X4.459 Z4.752
X4.646 Z4.765
X5.035 Z4.776
X5.353 Z4.756
X5.658 Z4.77
X5.9 Z4.749
X6.137 Z4.78
X6.589 Z4.797
X6.825 Z4.762
X6.891 Z4.765
X7.24 Z4.746
X7.333 Z4.754
X7.604 Z4.766
X7.788 Z4.774
X8.03 Z4.785
X8.152 Z4.768
X8.298 Z4.766
X8.629 Z4.802
X9.012
X9.188 Z4.792
X9.304 Z4.809
X9.813 Z4.855
X10.149 Z4.865
X10.378 Z4.861
X10.476 Z4.868
