(1001)
(T1  D=0.125 CR=0. - ZMIN=-0.125 - FLAT END MILL)
(T2  D=0.125 CR=0. TAPER=40DEG - ZMIN=-0.0241 - CHAMFER MILL)
G0 G90 G94 G17
G20
G53 G0 Z0.

(FACE)
M5
M9
T1 M6
S26000 M3
G4 P4.
G55
G0 X0.7559 Y0.0917
Z0.45
Z0.11
G1 Z0.0098 F98.4
X0.7256
X0.2519
X0.1718
G2 Y0.1664 I0. J0.0373
G1 X0.8057
X0.8544
G3 Y0.2411 I0. J0.0373
G1 X0.1231
X0.0941
G2 Y0.3158 I0. J0.0373
G1 X0.8834
X0.897
G3 Y0.3905 I0. J0.0373
G1 X0.0805
X0.0787
G2 Y0.4651 I0. J0.0373
G1 X0.8987
G3 Y0.5398 I0. J0.0373
G1 X0.0787
G2 Y0.6145 I0. J0.0373
G1 X0.0838
X0.8936
G3 Y0.6892 I0. J0.0373
G1 X0.8747
X0.1028
G2 Y0.7639 I0. J0.0373
G1 X0.1382
X0.8393
G3 Y0.8386 I0. J0.0373
G1 X0.7811
X0.1964
G0 Z0.2
X0.2215 Y0.0917
Z0.11
G1 Z0.0079 F98.4
X0.2519
X0.7256
X0.8057
G3 Y0.1664 I0. J0.0373
G1 X0.1718
X0.1231
G2 Y0.2411 I0. J0.0373
G1 X0.8544
X0.8834
G3 Y0.3158 I0. J0.0373
G1 X0.0941
X0.0805
G2 Y0.3905 I0. J0.0373
G1 X0.897
X0.8987
G3 Y0.4651 I0. J0.0373
G1 X0.0787
G2 Y0.5398 I0. J0.0373
G1 X0.8987
G3 Y0.6145 I0. J0.0373
G1 X0.8936
X0.0838
G2 Y0.6892 I0. J0.0373
G1 X0.1028
X0.8747
G3 Y0.7639 I0. J0.0373
G1 X0.8393
X0.1382
G2 Y0.8386 I0. J0.0373
G1 X0.1964
X0.7811
G0 Z0.2
X0.7559 Y0.0917
Z0.11
G1 Z0.0059 F98.4
X0.7256
X0.2519
X0.1718
G2 Y0.1664 I0. J0.0373
G1 X0.8057
X0.8544
G3 Y0.2411 I0. J0.0373
G1 X0.1231
X0.0941
G2 Y0.3158 I0. J0.0373
G1 X0.8834
X0.897
G3 Y0.3905 I0. J0.0373
G1 X0.0805
X0.0787
G2 Y0.4651 I0. J0.0373
G1 X0.8987
G3 Y0.5398 I0. J0.0373
G1 X0.0787
G2 Y0.6145 I0. J0.0373
G1 X0.0838
X0.8936
G3 Y0.6892 I0. J0.0373
G1 X0.8747
X0.1028
G2 Y0.7639 I0. J0.0373
G1 X0.1382
X0.8393
G3 Y0.8386 I0. J0.0373
G1 X0.7811
X0.1964
G0 Z0.2
X0.2215 Y0.0917
Z0.11
G1 Z0.0039 F98.4
X0.2519
X0.7256
X0.8057
G3 Y0.1664 I0. J0.0373
G1 X0.1718
X0.1231
G2 Y0.2411 I0. J0.0373
G1 X0.8544
X0.8834
G3 Y0.3158 I0. J0.0373
G1 X0.0941
X0.0805
G2 Y0.3905 I0. J0.0373
G1 X0.897
X0.8987
G3 Y0.4651 I0. J0.0373
G1 X0.0787
G2 Y0.5398 I0. J0.0373
G1 X0.8987
G3 Y0.6145 I0. J0.0373
G1 X0.8936
X0.0838
G2 Y0.6892 I0. J0.0373
G1 X0.1028
X0.8747
G3 Y0.7639 I0. J0.0373
G1 X0.8393
X0.1382
G2 Y0.8386 I0. J0.0373
G1 X0.1964
X0.7811
G0 Z0.2
X0.7559 Y0.0917
Z0.11
G1 Z0.002 F98.4
X0.7256
X0.2519
X0.1718
G2 Y0.1664 I0. J0.0373
G1 X0.8057
X0.8544
G3 Y0.2411 I0. J0.0373
G1 X0.1231
X0.0941
G2 Y0.3158 I0. J0.0373
G1 X0.8834
X0.897
G3 Y0.3905 I0. J0.0373
G1 X0.0805
X0.0787
G2 Y0.4651 I0. J0.0373
G1 X0.8987
G3 Y0.5398 I0. J0.0373
G1 X0.0787
G2 Y0.6145 I0. J0.0373
G1 X0.0838
X0.8936
G3 Y0.6892 I0. J0.0373
G1 X0.8747
X0.1028
G2 Y0.7639 I0. J0.0373
G1 X0.1382
X0.8393
G3 Y0.8386 I0. J0.0373
G1 X0.7811
X0.1964
G0 Z0.2
X0.2215 Y0.0917
Z0.11
G1 Z0. F98.4
X0.2519
X0.7256
X0.8057
G3 Y0.1664 I0. J0.0373
G1 X0.1718
X0.1231
G2 Y0.2411 I0. J0.0373
G1 X0.8544
X0.8834
G3 Y0.3158 I0. J0.0373
G1 X0.0941
X0.0805
G2 Y0.3905 I0. J0.0373
G1 X0.897
X0.8987
G3 Y0.4651 I0. J0.0373
G1 X0.0787
G2 Y0.5398 I0. J0.0373
G1 X0.8987
G3 Y0.6145 I0. J0.0373
G1 X0.8936
X0.0838
G2 Y0.6892 I0. J0.0373
G1 X0.1028
X0.8747
G3 Y0.7639 I0. J0.0373
G1 X0.8393
X0.1382
G2 Y0.8386 I0. J0.0373
G1 X0.1964
X0.7811
G0 Z0.45
G53 Z0.

(ENGRAVE1)
M5
M1
T2 M6
S16500 M3
G4 P4.
G55
G0 X0.0959 Y0.4802
Z0.6
Z0.2
G1 Z0. F50.
X0.0974 Y0.4792 Z-0.0018
X0.0959 Y0.4768 Z0.
X0.0974 Y0.4792 Z-0.0018
X0.0979 Y0.4795
X0.0996 Y0.4805 Z-0.0016
X0.1024 Y0.4825 Z-0.0015
X0.1038 Y0.4835
X0.1047 Y0.4841 Z-0.0016
X0.1056 Y0.4845 Z-0.002
X0.1066 Y0.4849 Z-0.0025
X0.1077 Y0.4852 Z-0.0032
X0.1093 Y0.4854 Z-0.0043
X0.1101 Y0.4879 Z-0.0033
X0.1106 Y0.4897 Z-0.0027
X0.1092 Y0.492 Z0.
X0.1106 Y0.4897 Z-0.0027
X0.1129 Y0.492 Z0.
X0.1106 Y0.4897 Z-0.0027
X0.1101 Y0.4879 Z-0.0033
X0.1093 Y0.4854 Z-0.0043
X0.11 Y0.4837 Z-0.0034
X0.1104 Y0.4821 Z-0.0029
X0.1106 Y0.4804 Z-0.0027
Y0.449
X0.1129 Y0.4467 Z0.
X0.1106 Y0.449 Z-0.0027
X0.1083 Y0.4467 Z0.
G0 Z0.2
X0.1087 Y0.5092
G1 Z-0.0017 F50.
X0.1076
X0.106 Y0.5094 Z-0.0018
X0.1047 Y0.5098 Z-0.0019
X0.1035 Y0.5103 Z-0.002
X0.1023 Y0.5111
X0.1012 Y0.5121 Z-0.0022
X0.1001 Y0.5134 Z-0.0024
X0.0995 Y0.5146
X0.0986 Y0.5168 Z-0.0025
X0.098 Y0.5188 Z-0.0027
X0.0975 Y0.5214 Z-0.0029
X0.0972 Y0.5237 Z-0.003
X0.097 Y0.527
Y0.5328
X0.0971 Y0.5367
X0.0974 Y0.5391 Z-0.0029
X0.0978 Y0.5414 Z-0.0028
X0.0983 Y0.5435 Z-0.0026
X0.0989 Y0.5453 Z-0.0024
X0.0997 Y0.5471 Z-0.0023
X0.1004 Y0.5485
X0.1017 Y0.5498 Z-0.0021
X0.1027 Y0.5507
X0.1038 Y0.5514 Z-0.002
X0.1048 Y0.5518 Z-0.0019
X0.1062 Y0.5521 Z-0.0018
X0.108 Y0.5523
X0.109 Z-0.0017
X0.1106 Y0.552 Z-0.0018
X0.112 Y0.5516 Z-0.0019
X0.1132 Y0.5511 Z-0.002
X0.1142 Y0.5504 Z-0.0021
X0.1154 Y0.5491 Z-0.0022
X0.116 Y0.5484 Z-0.0023
X0.1168 Y0.5469
X0.1176 Y0.5451 Z-0.0024
X0.1183 Y0.543 Z-0.0026
X0.1188 Y0.5405 Z-0.0028
X0.1192 Y0.5382 Z-0.0029
X0.1194 Y0.5358 Z-0.003
Y0.5316
Y0.5264
X0.1192 Y0.5233 Z-0.0029
X0.1188 Y0.5206 Z-0.0028
X0.1184 Y0.519 Z-0.0027
X0.1176 Y0.5164 Z-0.0024
X0.1168 Y0.5144 Z-0.0023
X0.116 Y0.5129
X0.1155 Y0.5124 Z-0.0022
X0.1141 Y0.5111 Z-0.0021
X0.1131 Y0.5103 Z-0.002
X0.1119 Y0.5098 Z-0.0019
X0.1105 Y0.5094 Z-0.0018
X0.1088 Y0.5092 Z-0.0017
X0.1087
G0 Z0.2
X0.1091 Y0.6361
G1 Z0. F50.
X0.1264 Y0.6381 Z-0.0167
X0.1301 Y0.6281 Z-0.0118
X0.1347 Y0.6174 Z-0.0071
X0.1397 Y0.6076 Z-0.0034
X0.1449 Y0.5985 Z-0.0006
X0.1465 Y0.5961 Z0.
X0.1449 Y0.5985 Z-0.0006
X0.1397 Y0.6076 Z-0.0034
X0.1347 Y0.6174 Z-0.0071
X0.1301 Y0.6281 Z-0.0118
X0.1264 Y0.6381 Z-0.0167
X0.1268 Y0.6396 Z-0.0164
X0.1304 Y0.6505 Z-0.0138
X0.1345 Y0.6611 Z-0.0117
X0.1391 Y0.672 Z-0.0102
X0.1491 Y0.6927 Z-0.0085
X0.1607 Y0.7133
X0.1734 Y0.7332 Z-0.01
X0.1896 Y0.7501 Z-0.0089
X0.207 Y0.7664 Z-0.0093
X0.2252 Y0.7813 Z-0.0115
X0.2351 Y0.7886 Z-0.0134
X0.245 Y0.7953 Z-0.0159
X0.2528 Y0.8002 Z-0.0182
X0.2501 Y0.8187 Z0.
X0.2528 Y0.8002 Z-0.0182
X0.2576 Y0.7998 Z-0.0159
X0.2699 Y0.7983 Z-0.0107
X0.2815 Y0.7963 Z-0.0064
X0.2926 Y0.7938 Z-0.003
X0.3032 Y0.7908 Z-0.0004
X0.3054 Y0.79 Z0.
G0 Z0.2
X0.1179 Y0.3583
G1 Z0. F50.
X0.1275 Y0.3577 Z-0.0104
X0.1316 Y0.3725 Z-0.006
X0.1352 Y0.3834 Z-0.0034
X0.1392 Y0.3945 Z-0.0012
X0.1424 Y0.4022 Z0.
X0.1392 Y0.3945 Z-0.0012
X0.1352 Y0.3834 Z-0.0034
X0.1316 Y0.3725 Z-0.006
X0.1275 Y0.3577 Z-0.0104
X0.1287 Y0.3513 Z-0.0088
X0.1337 Y0.3312 Z-0.0052
X0.1394 Y0.313 Z-0.0033
X0.1456 Y0.2961 Z-0.0025
X0.1522 Y0.2802 Z-0.0027
X0.1592 Y0.2651 Z-0.0036
X0.1664 Y0.2507 Z-0.0051
X0.1708 Y0.2425 Z-0.0063
X0.1748 Y0.2376 Z-0.0057
X0.1846 Y0.2262 Z-0.0048
X0.1944 Y0.2155 Z-0.0044
X0.204 Y0.2054 Z-0.0043
X0.2231 Y0.1868 Z-0.0055
X0.2281 Y0.1824 Z-0.0062
X0.2441 Y0.1725 Z-0.0046
X0.2655 Y0.1608 Z-0.0041
X0.2867 Y0.1509 Z-0.0053
X0.2944 Y0.1478 Z-0.0063
X0.2933 Y0.1425 Z0.
X0.2944 Y0.1478 Z-0.0063
X0.2986 Y0.1474 Z-0.0054
X0.3101 Y0.1467 Z-0.0033
X0.3215 Y0.1465 Z-0.0018
X0.3329 Y0.1467 Z-0.001
X0.3445 Y0.1475 Z-0.0007
X0.3563 Y0.1489 Z-0.0012
X0.3611 Y0.1497 Z-0.0016
X0.3615 Y0.1484 Z0.
X0.3611 Y0.1497 Z-0.0016
X0.3681 Y0.1528 Z-0.0002
X0.3692 Y0.1533 Z0.
G0 Z0.2
X0.133 Y0.4536
G1 Z0. F50.
X0.1347 Y0.4526 Z-0.0015
X0.136 Y0.4519 Z-0.0024
X0.1371 Y0.4538 Z-0.0003
X0.1373 Y0.4541 Z0.
X0.1371 Y0.4538 Z-0.0003
X0.136 Y0.4519 Z-0.0024
X0.1369 Y0.4506
X0.1375 Y0.4498 Z-0.0023
X0.1385 Y0.449 Z-0.0022
X0.1399 Y0.4482 Z-0.0021
X0.141 Y0.4478 Z-0.002
X0.1425 Y0.4474 Z-0.0018
X0.1443 Y0.4473 Z-0.0017
X0.1456 Y0.4474
X0.1477 Y0.4478
X0.1491 Y0.4482 Z-0.0018
X0.1503 Y0.4488 Z-0.0019
X0.1515 Y0.4497 Z-0.002
X0.1527 Y0.4508 Z-0.0021
X0.1535 Y0.4516
X0.1538 Y0.4521 Z-0.0023
X0.1543 Y0.4531
X0.1555 Y0.4556 Z-0.0025
X0.1563 Y0.4578 Z-0.0026
X0.1568 Y0.4596 Z-0.0027
X0.1572 Y0.4619 Z-0.0028
X0.1574 Y0.4651 Z-0.0029
Y0.4667 Z-0.003
X0.157 Y0.4684 Z-0.0035
X0.1564 Y0.4699 Z-0.0042
X0.1556 Y0.4697 Z-0.0034
X0.154 Y0.4692 Z-0.002
X0.1529 Y0.4688 Z-0.0012
X0.1518 Y0.4682 Z-0.0006
X0.1512 Y0.4678 Z-0.0004
X0.1504 Y0.4671
X0.1492 Y0.4662 Z-0.0005
X0.148 Y0.4655 Z-0.0007
X0.147 Y0.4651 Z-0.0009
X0.1455 Y0.4648 Z-0.0011
X0.144 Y0.4647 Z-0.0012
X0.1429 Y0.4648 Z-0.0013
X0.1413 Y0.4652 Z-0.0015
X0.1401 Y0.4656 Z-0.0016
X0.1391 Y0.4662 Z-0.0018
X0.1378 Y0.4672 Z-0.0019
X0.1368 Y0.4682 Z-0.002
X0.1357 Y0.4697 Z-0.0022
X0.1348 Y0.4714 Z-0.0024
X0.1343 Y0.4727 Z-0.0025
X0.1339 Y0.4744 Z-0.0026
X0.1337 Y0.4768
Y0.4776
X0.1339 Y0.4801
X0.1341 Y0.4819 Z-0.0025
X0.1345 Y0.483
X0.1353 Y0.4847 Z-0.0023
X0.1366 Y0.4868 Z-0.0021
X0.1377 Y0.4879 Z-0.002
X0.139 Y0.4889 Z-0.0019
X0.1403 Y0.4896
X0.1414 Y0.49 Z-0.0018
X0.1432 Y0.4904 Z-0.0017
X0.1448 Y0.4905
X0.1457 Y0.4904 Z-0.0018
X0.1476 Y0.4901 Z-0.0019
X0.149 Y0.4897 Z-0.002
X0.1502 Y0.4891 Z-0.0021
X0.1512 Y0.4885 Z-0.0022
X0.1528 Y0.487 Z-0.0023
X0.1538 Y0.4858 Z-0.0025
X0.1548 Y0.484
X0.1556 Y0.4822 Z-0.0026
X0.1562 Y0.4804 Z-0.0028
X0.1567 Y0.4784 Z-0.003
X0.1569 Y0.4762 Z-0.0032
Y0.4738 Z-0.0035
X0.1567 Y0.4717 Z-0.0038
X0.1564 Y0.4699 Z-0.0042
G0 Z0.2
X0.1336 Y0.5171
G1 Z0. F50.
X0.1354 Y0.516 Z-0.0016
X0.1365 Y0.5154 Z-0.0025
X0.1377 Y0.5174 Z-0.0002
X0.1379 Y0.5177 Z0.
X0.1377 Y0.5174 Z-0.0002
X0.1365 Y0.5154 Z-0.0025
X0.1371 Y0.5144 Z-0.0024
X0.1384 Y0.5127 Z-0.0023
X0.1394 Y0.5117 Z-0.0021
X0.1411 Y0.5106 Z-0.002
X0.1423 Y0.51
X0.1436 Y0.5096 Z-0.0019
X0.1453 Y0.5093 Z-0.0018
X0.147 Y0.5091
X0.149 Y0.5093
X0.1506 Y0.5097 Z-0.0019
X0.1519 Y0.5101 Z-0.002
X0.1532 Y0.5108 Z-0.0021
X0.1549 Y0.5122 Z-0.0022
X0.1558 Y0.513 Z-0.0024
X0.157 Y0.5147 Z-0.0026
X0.1578 Y0.5159 Z-0.0027
X0.1583 Y0.5171 Z-0.0028
X0.1586 Y0.5185
X0.1589 Y0.5211 Z-0.0029
X0.1588 Y0.5226 Z-0.0028
X0.1586 Y0.5239 Z-0.0027
X0.1581 Y0.5252 Z-0.0025
X0.1578 Y0.526 Z-0.0023
X0.1568 Y0.5274 Z-0.0019
X0.156 Y0.5282 Z-0.0016
X0.1549 Y0.5292 Z-0.0011
X0.1538 Y0.5298 Z-0.0008
X0.1528 Y0.5304 Z-0.0005
X0.1521 Y0.531 Z-0.0006
X0.1515 Y0.5316 Z-0.0008
X0.1509 Y0.5322 Z-0.0013
X0.1501 Y0.5332 Z-0.0022
X0.1485 Y0.5331 Z-0.0016
X0.1472 Y0.533 Z-0.0014
X0.1459 Y0.5317 Z0.
X0.1472 Y0.533 Z-0.0014
X0.1462 Y0.534 Z0.
X0.1472 Y0.533 Z-0.0014
X0.1485 Y0.5331 Z-0.0016
X0.1501 Y0.5332 Z-0.0022
X0.1504 Y0.5337 Z-0.0019
X0.1511 Y0.5346 Z-0.0014
X0.1517 Y0.5352 Z-0.0011
X0.1525 Y0.5358
X0.154 Y0.5372 Z-0.0015
X0.1551 Y0.5384 Z-0.0019
X0.1558 Y0.5395 Z-0.0022
X0.1562 Y0.5404 Z-0.0024
X0.1566 Y0.542 Z-0.0026
X0.1567 Y0.5436 Z-0.0028
X0.1564 Y0.5455 Z-0.0027
X0.1561 Y0.5464
X0.1555 Y0.5476 Z-0.0025
X0.1548 Y0.5486 Z-0.0024
X0.1539 Y0.5496 Z-0.0022
X0.153 Y0.5504 Z-0.0021
X0.1517 Y0.5512 Z-0.002
X0.1505 Y0.5517 Z-0.0019
X0.1491 Y0.5521 Z-0.0018
X0.1471 Y0.5523 Z-0.0017
X0.1457
X0.1439 Y0.5521 Z-0.0018
X0.1426 Y0.5517
X0.1411 Y0.551 Z-0.002
X0.1397 Y0.5501 Z-0.0021
X0.1389 Y0.5494 Z-0.0022
X0.1377 Y0.548 Z-0.0023
X0.137 Y0.5467
X0.1381 Y0.5448 Z-0.0002
X0.1382 Y0.5446 Z0.
X0.1381 Y0.5448 Z-0.0002
X0.137 Y0.5467 Z-0.0023
X0.1351 Y0.5457 Z-0.0007
X0.1344 Y0.5452 Z0.
G0 Z0.2
X0.3527 Y0.8322
G1 Z0. F50.
X0.3528 Y0.8327 Z-0.0004
X0.3533 Y0.8354 Z-0.003
X0.3552 Y0.8352 Z-0.0017
X0.3573 Y0.8347 Z0.
X0.3552 Y0.8352 Z-0.0017
X0.3533 Y0.8354 Z-0.003
X0.352 Y0.8364
X0.3513 Y0.837
X0.3489 Y0.8381 Z-0.0027
X0.3472 Y0.8387 Z-0.0026
X0.3455 Y0.8391 Z-0.0025
X0.3438 Y0.8392 Z-0.0024
X0.3419 Y0.8391 Z-0.0022
X0.3397 Y0.8388
X0.3381 Y0.8384 Z-0.0021
X0.3353 Y0.8373 Z-0.0022
X0.3334 Y0.8363
X0.3321 Y0.8355 Z-0.0023
X0.3311 Y0.8346
X0.3299 Y0.8332 Z-0.0024
X0.3284 Y0.8313 Z-0.0025
X0.3275 Y0.8297 Z-0.0026
X0.3273 Y0.8293
X0.3262 Y0.8257 Z-0.0028
X0.3258 Y0.8235 Z-0.0029
X0.3256 Y0.822 Z-0.003
X0.3257 Y0.8199 Z-0.0031
X0.3259 Y0.8177
X0.3265 Y0.8146 Z-0.0032
X0.3272 Y0.8121
X0.3282 Y0.8089
X0.3293 Y0.8064 Z-0.0031
X0.3302 Y0.8048
X0.3312 Y0.8034 Z-0.003
X0.3325 Y0.8018 Z-0.0029
X0.3348 Y0.7996 Z-0.0027
X0.3357 Y0.7988 Z-0.0026
X0.3376 Y0.7978 Z-0.0025
X0.3396 Y0.797 Z-0.0024
X0.3414 Y0.7964
X0.3427 Y0.7962 Z-0.0023
X0.3445 Y0.7961 Z-0.0022
X0.3467 Y0.7963
X0.3491 Y0.7967
X0.3504 Y0.7971
X0.3527 Y0.798 Z-0.0023
X0.3543 Y0.7988 Z-0.0024
X0.3555 Y0.7997 Z-0.0025
X0.3568 Y0.8009 Z-0.0026
X0.3582 Y0.8024 Z-0.0027
X0.3587 Y0.8031 Z-0.0028
X0.36 Y0.8058 Z-0.003
X0.3607 Y0.8074
X0.361 Y0.8088 Z-0.0031
X0.3593 Y0.8107 Z-0.0008
X0.3587 Y0.8114 Z0.
X0.3593 Y0.8107 Z-0.0008
X0.361 Y0.8088 Z-0.0031
X0.3628 Y0.8103 Z-0.0011
X0.3638 Y0.8112 Z0.
G0 Z0.2
X0.3688 Y0.8476
G1 Z0. F50.
X0.373 Y0.8452 Z-0.0041
X0.3728 Y0.8435 Z-0.0033
Y0.8419 Z-0.0028
X0.3731 Y0.8403 Z-0.0026
X0.3821 Y0.8068
X0.3847 Y0.8052 Z0.
X0.3821 Y0.8068 Z-0.0026
X0.3805 Y0.8041 Z0.
X0.3821 Y0.8068 Z-0.0026
X0.3731 Y0.8403
X0.3728 Y0.8419 Z-0.0028
Y0.8435 Z-0.0033
X0.373 Y0.8452 Z-0.0041
X0.3746 Y0.8461 Z-0.0035
X0.3762 Y0.8467 Z-0.0034
X0.3778 Y0.847 Z-0.0035
X0.3792 Y0.8504 Z0.
X0.3778 Y0.847 Z-0.0035
X0.3792 Y0.846 Z-0.0026
X0.3803 Y0.8449 Z-0.0021
X0.3812 Y0.8436 Z-0.002
X0.3943 Y0.8205 Z-0.0022
X0.3952 Y0.8191 Z-0.0024
X0.3965 Y0.8179 Z-0.003
X0.398 Y0.8169 Z-0.0039
X0.3998 Y0.816 Z-0.0053
X0.4005 Y0.8133 Z-0.0045
X0.3986 Y0.809 Z0.
X0.4005 Y0.8133 Z-0.0045
X0.4043 Y0.8104 Z0.
X0.4005 Y0.8133 Z-0.0045
X0.3998 Y0.816 Z-0.0053
X0.4007 Y0.8173 Z-0.0041
X0.4014 Y0.8187 Z-0.0033
X0.4019 Y0.82 Z-0.0026
X0.4022 Y0.8214 Z-0.0023
X0.4023 Y0.8227 Z-0.0021
X0.402 Y0.8492 Z-0.002
X0.4022 Y0.8507 Z-0.0021
X0.4026 Y0.8523 Z-0.0027
X0.4033 Y0.8538 Z-0.0035
X0.4004 Y0.8561 Z0.
X0.4033 Y0.8538 Z-0.0035
X0.4048 Y0.8544 Z-0.0034
X0.4065 Y0.8547 Z-0.0035
X0.4083 Z-0.0041
X0.4107 Y0.8589 Z0.
X0.4083 Y0.8547 Z-0.0041
X0.4094 Y0.8534 Z-0.0033
X0.4102 Y0.8519 Z-0.0028
X0.4107 Y0.8504 Z-0.0026
X0.4197 Y0.8169
X0.4224 Y0.8153 Z0.
X0.4197 Y0.8169 Z-0.0026
X0.4182 Y0.8142 Z0.
G0 Z0.2
X0.4076 Y0.1062
G1 Z0. F50.
X0.4101 Y0.1087 Z-0.003
X0.4127 Y0.1062 Z0.
X0.4101 Y0.1087 Z-0.003
Y0.1226
X0.4102 Y0.124 Z-0.0032
X0.4105 Y0.1254 Z-0.0035
X0.411 Y0.1268 Z-0.0041
X0.4126 Z-0.0029
X0.4137 Z-0.0024
X0.4145 Z-0.0022
X0.4152 Z-0.0021
X0.4252 Y0.1269
X0.4276 Y0.1271 Z-0.0023
X0.4303 Y0.1276 Z-0.0024
X0.4313 Y0.1279 Z-0.0026
X0.432 Y0.1282 Z-0.0027
X0.4331 Y0.1287 Z-0.0028
X0.4346 Y0.1297 Z-0.003
X0.4352 Y0.1304 Z-0.0031
X0.4361 Y0.1313 Z-0.0032
X0.4371 Y0.133 Z-0.0033
X0.4376 Y0.1343 Z-0.0032
X0.438 Y0.1355 Z-0.0033
X0.4382 Y0.1373 Z-0.0032
Y0.1386
X0.438 Y0.1406 Z-0.0033
X0.4377 Y0.142
X0.4372 Y0.1433
X0.4363 Y0.145
X0.4352 Y0.1463 Z-0.0032
X0.4342 Y0.1471 Z-0.0031
X0.4329 Y0.1479 Z-0.0029
X0.4321 Y0.1483 Z-0.0028
X0.4305 Y0.1488 Z-0.0025
X0.4284 Y0.1492 Z-0.0023
X0.4266 Y0.1494 Z-0.0022
X0.4232 Y0.1495 Z-0.0021
X0.4201
X0.4152
X0.4136 Y0.1494 Z-0.0022
X0.4121 Y0.149 Z-0.0027
X0.4106 Y0.1483 Z-0.0036
X0.4076 Y0.1513 Z0.
X0.4106 Y0.1483 Z-0.0036
X0.4102 Y0.1468 Z-0.0032
X0.4101 Y0.1453 Z-0.003
Y0.1311
X0.4102 Y0.1297 Z-0.0032
X0.4105 Y0.1282 Z-0.0035
X0.411 Y0.1268 Z-0.0041
G0 Z0.2
X0.4253 Y0.8628
G1 Z0. F50.
X0.4289 Y0.8606 Z-0.0036
X0.4302 Y0.8617 Z-0.0027
X0.4316 Y0.8625 Z-0.0022
X0.4331 Y0.8631 Z-0.0021
X0.4384 Y0.8645
X0.4419 Y0.8654
X0.4451 Y0.866 Z-0.0022
X0.4467 Y0.8662 Z-0.0023
X0.4487 Y0.8663 Z-0.0024
X0.4502 Y0.8662 Z-0.0025
X0.4519 Y0.8658 Z-0.0026
X0.4534 Y0.8653 Z-0.0027
X0.4546 Y0.8647 Z-0.0028
X0.4556 Y0.8641
X0.4572 Y0.8629 Z-0.0029
X0.4584 Y0.8617 Z-0.003
X0.46 Y0.8597
X0.4613 Y0.8575 Z-0.0031
X0.4624 Y0.8552 Z-0.0032
X0.4632 Y0.853
X0.4643 Y0.8494 Z-0.0033
X0.465 Y0.8463 Z-0.0032
X0.4654 Y0.8443
X0.4655 Y0.8415 Z-0.0031
X0.4656 Y0.8399 Z-0.003
X0.4654 Y0.8377 Z-0.0029
X0.4651 Y0.8361 Z-0.0028
X0.4646 Y0.8344 Z-0.0027
X0.4637 Y0.8325 Z-0.0026
X0.4628 Y0.8311 Z-0.0025
X0.4617 Y0.8298 Z-0.0024
X0.4604 Y0.8287 Z-0.0023
X0.459 Y0.8278 Z-0.0022
X0.4574 Y0.8269 Z-0.0021
X0.4552 Y0.826
X0.4527 Y0.8252
X0.4511 Y0.8248
X0.4438 Y0.8228
X0.4423 Y0.8226 Z-0.0022
X0.4407 Z-0.0027
X0.439 Y0.8229 Z-0.0036
X0.4369 Y0.8192 Z0.
X0.439 Y0.8229 Z-0.0036
X0.4383 Y0.8242 Z-0.0032
X0.4379 Y0.8256 Z-0.003
X0.4293 Y0.8577 Z-0.0031
X0.429 Y0.8591 Z-0.0032
X0.4289 Y0.8606 Z-0.0036
G0 Z0.2
X0.454 Y0.1062
G1 Z0. F50.
X0.4565 Y0.1087 Z-0.003
X0.459 Y0.1062 Z0.
X0.4565 Y0.1087 Z-0.003
Y0.1487
X0.459 Y0.1513 Z0.
X0.4565 Y0.1487 Z-0.003
X0.454 Y0.1513 Z0.
G0 Z0.2
X0.4707 Y0.1062
G1 Z0. F50.
X0.4755 Y0.1087 Z-0.0031
X0.4769 Y0.1062 Z0.
X0.4755 Y0.1087 Z-0.0031
X0.4852 Y0.1237 Z-0.003
X0.486 Y0.1248 Z-0.0031
X0.487 Y0.1258 Z-0.0034
X0.4881 Y0.1266 Z-0.0039
X0.4893 Y0.1275 Z-0.0048
X0.4903 Y0.1268 Z-0.004
X0.4919 Y0.1256 Z-0.0032
X0.4927 Y0.1247 Z-0.003
X0.4935 Y0.1237 Z-0.0029
X0.5033 Y0.1087 Z-0.0031
X0.508 Y0.1062 Z0.
X0.5033 Y0.1087 Z-0.0031
X0.5019 Y0.1062 Z0.
X0.5033 Y0.1087 Z-0.0031
X0.4935 Y0.1237 Z-0.0029
X0.4927 Y0.1247 Z-0.003
X0.4919 Y0.1256 Z-0.0032
X0.4903 Y0.1268 Z-0.004
X0.4893 Y0.1275 Z-0.0048
X0.4894 Y0.1288 Z-0.0044
Y0.1302
Y0.1313 Z-0.0046
X0.4904 Y0.132 Z-0.0039
X0.492 Y0.1332 Z-0.0031
X0.4928 Y0.1341 Z-0.0028
X0.4936 Y0.1351 Z-0.0027
X0.5022 Y0.1489 Z-0.0029
X0.5008 Y0.1513 Z0.
X0.5022 Y0.1489 Z-0.0029
X0.5065 Y0.1513 Z0.
X0.5022 Y0.1489 Z-0.0029
X0.4936 Y0.1351 Z-0.0027
X0.4928 Y0.1341 Z-0.0028
X0.492 Y0.1332 Z-0.0031
X0.4904 Y0.132 Z-0.0039
X0.4894 Y0.1313 Z-0.0046
X0.4883 Y0.1322 Z-0.0037
X0.4877 Y0.1327 Z-0.0034
X0.4865 Y0.1338 Z-0.0029
X0.4855 Y0.1351 Z-0.0027
X0.4768 Y0.1488 Z-0.0029
X0.4781 Y0.1513 Z0.
X0.4768 Y0.1488 Z-0.0029
X0.4723 Y0.1513 Z0.
G0 Z0.2
X0.5204 Y0.1062
G1 Z0. F50.
X0.5234 Y0.1092 Z-0.0036
X0.5249 Y0.1084 Z-0.0027
X0.5265 Y0.108 Z-0.0022
X0.528 Y0.1079 Z-0.0021
X0.5518
X0.5535 Y0.1096 Z0.
X0.5518 Y0.1079 Z-0.0021
X0.5535 Y0.1062 Z0.
X0.5518 Y0.1079 Z-0.0021
X0.528
X0.5265 Y0.108 Z-0.0022
X0.5249 Y0.1084 Z-0.0027
X0.5234 Y0.1092 Z-0.0036
X0.523 Y0.1106 Z-0.0032
X0.5229 Y0.1121 Z-0.003
Y0.1257
X0.523 Y0.1272 Z-0.0032
X0.5233 Y0.1286 Z-0.0035
X0.5238 Y0.13 Z-0.0041
X0.5255 Z-0.0029
X0.5266 Z-0.0023
X0.5273 Z-0.0021
X0.528
X0.5489
X0.5506 Y0.1317 Z0.
X0.5489 Y0.13 Z-0.0021
X0.5506 Y0.1283 Z0.
X0.5489 Y0.13 Z-0.0021
X0.528
X0.5273
X0.5266 Z-0.0023
X0.5255 Z-0.0029
X0.5238 Z-0.0041
X0.5233 Y0.1314 Z-0.0035
X0.523 Y0.1328 Z-0.0032
X0.5229 Y0.1342 Z-0.003
Y0.1453
X0.5231 Y0.1468 Z-0.0032
X0.5234 Y0.1483 Z-0.0036
X0.5204 Y0.1513 Z0.
X0.5234 Y0.1483 Z-0.0036
X0.5249 Y0.149 Z-0.0027
X0.5265 Y0.1494 Z-0.0022
X0.528 Y0.1495 Z-0.0021
X0.5508
X0.5525 Y0.1513 Z0.
X0.5508 Y0.1495 Z-0.0021
X0.5525 Y0.1478 Z0.
G0 Z0.2
X0.5368 Y0.8328
G1 Z0. F50.
X0.5369 Y0.8324 Z-0.0004
X0.5375 Y0.8293 Z-0.0031
X0.5398 Y0.8297 Z-0.0011
X0.5411 Y0.83 Z0.
X0.5398 Y0.8297 Z-0.0011
X0.5375 Y0.8293 Z-0.0031
X0.5365 Y0.8284 Z-0.003
X0.5351 Y0.8272
X0.5326 Y0.8255 Z-0.0028
X0.5318 Y0.8252 Z-0.0027
X0.5299 Y0.8246 Z-0.0026
X0.5281 Y0.8242 Z-0.0025
X0.5266 Y0.8241 Z-0.0024
X0.5248 Z-0.0023
X0.5221 Y0.8246 Z-0.0022
X0.5206 Y0.825
X0.5183 Y0.8259
X0.5164 Y0.8269
X0.5151 Y0.8278 Z-0.0023
X0.5139 Y0.8289 Z-0.0024
X0.5127 Y0.8302
X0.511 Y0.8327 Z-0.0025
X0.5105 Y0.8336 Z-0.0026
X0.5097 Y0.8363 Z-0.0028
X0.5091 Y0.8385 Z-0.003
X0.5088 Y0.8405 Z-0.0031
Y0.8425
X0.509 Y0.8451 Z-0.0032
X0.5097 Y0.8485
X0.5102 Y0.8505
X0.5113 Y0.854 Z-0.0031
X0.5122 Y0.856
X0.5132 Y0.858 Z-0.003
X0.5142 Y0.8595 Z-0.0029
X0.5158 Y0.8613 Z-0.0028
X0.5185 Y0.8639 Z-0.0026
X0.5196 Y0.8646 Z-0.0025
X0.522 Y0.8658 Z-0.0024
X0.5239 Y0.8665 Z-0.0023
X0.5254 Y0.8668
X0.5273 Y0.867 Z-0.0022
X0.5292 Y0.8669
X0.5324 Y0.8664 Z-0.0021
X0.534 Y0.866 Z-0.0022
X0.5361 Y0.8651
X0.5378 Y0.8643 Z-0.0024
X0.5392 Y0.8633 Z-0.0025
X0.5405 Y0.8622 Z-0.0026
X0.5417 Y0.8608 Z-0.0027
X0.5432 Y0.8586 Z-0.003
X0.5439 Y0.8569
X0.5442 Y0.8562
X0.5424 Y0.8542 Z-0.0005
X0.542 Y0.8538 Z0.
X0.5424 Y0.8542 Z-0.0005
X0.5442 Y0.8562 Z-0.003
X0.5456 Y0.8551 Z-0.0017
X0.5473 Y0.8536 Z0.
G0 Z0.2
X0.5618 Y0.847
G1 Z-0.0028 F50.
X0.5629 Y0.8489 Z-0.0026
X0.5639 Y0.8504 Z-0.0024
X0.5651 Y0.8519 Z-0.0023
X0.5662 Y0.8531
X0.5677 Y0.854 Z-0.0021
X0.5688 Y0.8546
X0.5699 Y0.855 Z-0.002
X0.5712 Y0.8551 Z-0.0019
X0.5725 Z-0.0018
X0.5745 Y0.8548
X0.5762 Y0.8542
X0.5775 Y0.8536
X0.5786 Y0.8529 Z-0.002
X0.5794 Y0.852 Z-0.0021
X0.5802 Y0.851
X0.5812 Y0.849 Z-0.0023
X0.5816 Y0.8474
X0.5819 Y0.845 Z-0.0024
X0.582 Y0.8428 Z-0.0027
X0.5819 Y0.8404 Z-0.0029
X0.5815 Y0.8375
X0.5808 Y0.8341 Z-0.003
X0.5794 Y0.829
X0.5783 Y0.8254
X0.5774 Y0.823 Z-0.0029
X0.5765 Y0.8209 Z-0.0028
X0.5754 Y0.819 Z-0.0026
X0.5744 Y0.8175 Z-0.0024
X0.5732 Y0.816 Z-0.0023
X0.572 Y0.8148
X0.5714 Y0.8143 Z-0.0022
X0.5698 Y0.8134 Z-0.0021
X0.5686 Y0.813 Z-0.002
X0.5673 Y0.8128 Z-0.0019
X0.5659 Y0.8127 Z-0.0018
X0.5641 Y0.813 Z-0.0017
X0.5631 Y0.8132
X0.5615 Y0.8139 Z-0.0018
X0.5603 Y0.8146 Z-0.0019
X0.5592 Y0.8155 Z-0.002
X0.5583 Y0.8165
X0.5575 Y0.8178 Z-0.0022
X0.5568 Y0.8193 Z-0.0024
X0.5565 Y0.821
X0.5562 Y0.8232 Z-0.0025
Y0.8251 Z-0.0027
X0.5563 Y0.8272 Z-0.0029
X0.5566 Y0.8295 Z-0.003
X0.5571 Y0.8323
X0.5583 Y0.8369
X0.5598 Y0.8422
X0.5608 Y0.8449 Z-0.0029
X0.5618 Y0.847 Z-0.0028
G0 Z0.2
X0.5674 Y0.1062
G1 Z0. F50.
X0.5703 Y0.1092 Z-0.0036
X0.5719 Y0.1084 Z-0.0027
X0.5734 Y0.108 Z-0.0022
X0.575 Y0.1079 Z-0.0021
X0.5959
X0.5976 Y0.1062 Z0.
X0.5959 Y0.1079 Z-0.0021
X0.5976 Y0.1096 Z0.
X0.5959 Y0.1079 Z-0.0021
X0.575
X0.5734 Y0.108 Z-0.0022
X0.5719 Y0.1084 Z-0.0027
X0.5703 Y0.1092 Z-0.0036
X0.57 Y0.1106 Z-0.0032
X0.5699 Y0.1121 Z-0.003
Y0.1483
X0.5674 Y0.1508 Z0.
X0.5699 Y0.1483 Z-0.003
X0.5725 Y0.1508 Z0.
G0 Z0.2
X0.5897 Y0.8054
G1 Z0. F50.
X0.5934 Y0.8075 Z-0.0036
X0.5947 Y0.8064 Z-0.0027
X0.5961 Y0.8056 Z-0.0022
X0.5975 Y0.8051 Z-0.0021
X0.6048 Y0.8031
X0.6061 Y0.8028
X0.6089 Y0.8022
X0.6113 Y0.8018
X0.613 Z-0.0022
X0.6148 Y0.8019 Z-0.0023
X0.6164 Y0.8022 Z-0.0024
X0.6181 Y0.8028 Z-0.0025
X0.6196 Y0.8035 Z-0.0026
X0.6213 Y0.8048 Z-0.0027
X0.6226 Y0.806 Z-0.0028
X0.6237 Y0.8073 Z-0.0029
X0.6249 Y0.809 Z-0.003
X0.6257 Y0.8105 Z-0.0031
X0.627 Y0.8131 Z-0.0032
X0.6277 Y0.8151
X0.6287 Y0.8183
X0.6296 Y0.8224
X0.6299 Y0.8247
X0.63 Y0.8276 Z-0.0031
X0.6299 Y0.8292 Z-0.003
X0.6296 Y0.8316
X0.6291 Y0.8331 Z-0.0029
X0.6283 Y0.835 Z-0.0028
X0.6278 Y0.8359
X0.6271 Y0.837 Z-0.0027
X0.626 Y0.8383 Z-0.0026
X0.6247 Y0.8395 Z-0.0025
X0.6234 Y0.8403 Z-0.0024
X0.6215 Y0.8414 Z-0.0023
X0.6193 Y0.8422 Z-0.0022
X0.6162 Y0.8432 Z-0.0021
X0.6127 Y0.8441
X0.6083 Y0.8453
X0.6068 Y0.8456 Z-0.0022
X0.6052 Z-0.0027
X0.6035 Y0.8453 Z-0.0036
X0.6014 Y0.849 Z0.
X0.6035 Y0.8453 Z-0.0036
X0.6028 Y0.844 Z-0.0032
X0.6023 Y0.8425 Z-0.003
X0.5937 Y0.8105 Z-0.0031
X0.5935 Y0.809 Z-0.0032
X0.5934 Y0.8075 Z-0.0036
G0 Z0.2
X0.6232 Y0.1653
G1 Z0. F50.
X0.6268 Y0.1646 Z-0.0006
X0.6387 Y0.1625 Z-0.0035
X0.6515 Y0.1609 Z-0.0072
X0.6652 Y0.1598 Z-0.0118
X0.6699 Y0.1596 Z-0.0136
X0.6704 Y0.1472 Z0.
X0.6699 Y0.1596 Z-0.0136
X0.6788 Y0.163 Z-0.0126
X0.692 Y0.1685 Z-0.0117
X0.7052 Y0.1747 Z-0.0114
X0.7185 Y0.1813 Z-0.0116
X0.7318 Y0.1885 Z-0.0124
X0.7452 Y0.1962 Z-0.0137
X0.7585 Y0.2044 Z-0.0155
X0.7719 Y0.2131 Z-0.0179
X0.7852 Y0.2224 Z-0.0209
X0.7971 Y0.2311 Z-0.0241
X0.8127 Y0.2162 Z0.
X0.7971 Y0.2311 Z-0.0241
X0.8067 Y0.2467 Z-0.0208
X0.8148 Y0.2608 Z-0.0184
X0.8224 Y0.2749 Z-0.0167
X0.8295 Y0.289 Z-0.0156
X0.836 Y0.3031 Z-0.015
X0.8419 Y0.3172 Z-0.0151
X0.8473 Y0.3313 Z-0.0158
X0.8521 Y0.3454 Z-0.0172
X0.8562 Y0.3596 Z-0.0193
X0.8582 Y0.3675 Z-0.0209
X0.8787 Y0.3711 Z0.
X0.8582 Y0.3675 Z-0.0209
X0.8551 Y0.376 Z-0.0166
X0.8495 Y0.3897 Z-0.0104
X0.8435 Y0.4021 Z-0.0055
X0.8373 Y0.4135 Z-0.0018
X0.8328 Y0.4204 Z0.
G0 Z0.2
X0.6386 Y0.7923
G1 Z0. F50.
X0.6423 Y0.7944 Z-0.0036
X0.6436 Y0.7933 Z-0.0027
X0.6449 Y0.7925 Z-0.0022
X0.6464 Y0.792 Z-0.0021
X0.6694 Y0.7859
X0.6714 Y0.7871 Z0.
X0.6694 Y0.7859 Z-0.0021
X0.6706 Y0.7838 Z0.
X0.6694 Y0.7859 Z-0.0021
X0.6464 Y0.792
X0.6449 Y0.7925 Z-0.0022
X0.6436 Y0.7933 Z-0.0027
X0.6423 Y0.7944 Z-0.0036
Y0.7959 Z-0.0032
X0.6426 Y0.7974 Z-0.0031
X0.6461 Y0.8106 Z-0.003
X0.6466 Y0.8119 Z-0.0032
X0.6472 Y0.8132 Z-0.0035
X0.6481 Y0.8144 Z-0.0041
X0.6497 Y0.814 Z-0.0029
X0.6507 Y0.8137 Z-0.0023
X0.6515 Y0.8135 Z-0.0021
X0.6521 Y0.8133
X0.6723 Y0.8079
X0.6735 Y0.8058 Z0.
X0.6723 Y0.8079 Z-0.0021
X0.6744 Y0.8091 Z0.
X0.6723 Y0.8079 Z-0.0021
X0.6521 Y0.8133
X0.6515 Y0.8135
X0.6507 Y0.8137 Z-0.0023
X0.6497 Y0.814 Z-0.0029
X0.6481 Y0.8144 Z-0.0041
X0.648 Y0.8159 Z-0.0035
Y0.8173 Z-0.0032
X0.6483 Y0.8187 Z-0.003
X0.6512 Y0.8294
X0.6517 Y0.8309 Z-0.0032
X0.6524 Y0.8322 Z-0.0036
X0.6503 Y0.8359 Z0.
X0.6524 Y0.8322 Z-0.0036
X0.6541 Y0.8325 Z-0.0027
X0.6556 Z-0.0022
X0.6572 Y0.8322 Z-0.0021
X0.6792 Y0.8263
X0.6813 Y0.8275 Z0.
X0.6792 Y0.8263 Z-0.0021
X0.6804 Y0.8242 Z0.
G0 Z0.2
X0.6955 Y0.7814
G1 Z0. F50.
X0.7004 Y0.7818 Z-0.0008
X0.7105 Y0.7824 Z-0.003
X0.7207 Y0.7825 Z-0.0056
X0.7406 Y0.7816 Z-0.0123
X0.7431 Y0.7927 Z0.
X0.7406 Y0.7816 Z-0.0123
X0.7413 Y0.7812 Z-0.0121
X0.7429 Y0.7802 Z-0.0118
X0.7603 Y0.7688 Z-0.0096
X0.7768 Y0.7562 Z-0.0091
X0.7927 Y0.7423 Z-0.0102
X0.8017 Y0.7335 Z-0.0118
X0.8097 Y0.7396 Z0.
X0.8017 Y0.7335 Z-0.0118
X0.8063 Y0.7258 Z-0.0103
X0.8164 Y0.7068 Z-0.0081
X0.8253 Y0.6874 Z-0.0073
X0.8332 Y0.6676 Z-0.008
X0.8397 Y0.6473 Z-0.0103
X0.8427 Y0.6354 Z-0.0126
X0.8548 Y0.634 Z0.
X0.8427 Y0.6354 Z-0.0126
X0.8403 Y0.6269 Z-0.009
X0.8369 Y0.617 Z-0.0053
X0.8333 Y0.6078 Z-0.0023
X0.8294 Y0.5992 Z0.
X0.8293 Y0.599
G0 Z0.2
X0.8191 Y0.5102
G1 Z0. F50.
X0.8197 Y0.5107 Z-0.0006
X0.8214 Y0.5119 Z-0.002
X0.8247 Y0.5139 Z-0.0045
X0.8249 Y0.514 Z-0.0046
X0.8263 Y0.5132 Z-0.0036
X0.8278 Y0.5126 Z-0.0029
X0.8292 Y0.5123 Z-0.0025
X0.8307 Y0.5121 Z-0.0023
X0.8453
X0.8472 Y0.5102 Z0.
X0.8453 Y0.5121 Z-0.0023
X0.8472 Y0.5141 Z0.
X0.8453 Y0.5121 Z-0.0023
X0.8307
X0.8292 Y0.5123 Z-0.0025
X0.8278 Y0.5126 Z-0.0029
X0.8263 Y0.5132 Z-0.0036
X0.8249 Y0.514 Z-0.0046
X0.825 Y0.5148 Z-0.0041
X0.8253 Y0.5162 Z-0.0035
X0.8257 Y0.5174 Z-0.003
X0.8263 Y0.5186 Z-0.0027
X0.8271 Y0.5196 Z-0.0026
X0.8285 Y0.5214 Z-0.0024
X0.8308 Y0.5238 Z-0.0023
X0.8347 Y0.5274
X0.8377 Y0.5303 Z-0.0024
X0.8401 Y0.5328
X0.8414 Y0.5344
X0.8424 Y0.5358
X0.8433 Y0.5374 Z-0.0025
X0.844 Y0.539 Z-0.0026
X0.8446 Y0.5408 Z-0.0027
X0.8448 Y0.5424
X0.8449 Y0.5439 Z-0.0028
X0.8446 Y0.5463
X0.8443 Y0.5474
X0.8439 Y0.5485 Z-0.0027
X0.8429 Y0.5499 Z-0.0025
X0.8424 Y0.5506
X0.8413 Y0.5516 Z-0.0023
X0.8396 Y0.5527 Z-0.0021
X0.8384 Y0.5533 Z-0.002
X0.837 Y0.5537 Z-0.0019
X0.8354 Y0.5539 Z-0.0018
X0.8334 Y0.554
X0.8311 Y0.5538
X0.8297 Y0.5535 Z-0.0019
X0.8284 Y0.553 Z-0.002
X0.827 Y0.5522 Z-0.0021
X0.8257 Y0.5513 Z-0.0023
X0.8254 Y0.5511
X0.8244 Y0.5498 Z-0.0025
X0.8235 Y0.5484 Z-0.0026
X0.823 Y0.5473
X0.8244 Y0.5452 Z-0.0002
X0.8246 Y0.5449 Z0.
X0.8244 Y0.5452 Z-0.0002
X0.823 Y0.5473 Z-0.0026
X0.8216 Y0.5465 Z-0.0015
X0.8201 Y0.5454 Z0.
G0 Z0.2
Y0.4536
G1 Z0. F50.
X0.8217 Y0.4526 Z-0.0015
X0.8231 Y0.4519 Z-0.0024
X0.8243 Y0.4541 Z0.
X0.8231 Y0.4519 Z-0.0024
X0.824 Y0.4506
X0.8246 Y0.4498 Z-0.0023
X0.8256 Y0.4491 Z-0.0022
X0.827 Y0.4482 Z-0.0021
X0.8281 Y0.4478 Z-0.002
X0.8296 Y0.4474 Z-0.0018
X0.8314 Y0.4473 Z-0.0017
X0.8327 Y0.4474
X0.8348 Y0.4478
X0.8362 Y0.4482 Z-0.0018
X0.8374 Y0.4488 Z-0.0019
X0.8385 Y0.4497 Z-0.002
X0.8397 Y0.4508 Z-0.0021
X0.8405 Y0.4516
X0.8409 Y0.4521 Z-0.0023
X0.8426 Y0.4556 Z-0.0025
X0.8434 Y0.4578 Z-0.0026
X0.8439 Y0.4596 Z-0.0027
X0.8442 Y0.4619 Z-0.0028
X0.8445 Y0.4643 Z-0.0029
Y0.4659
X0.8444 Y0.4667 Z-0.003
X0.8443 Y0.4676 Z-0.0032
X0.8438 Y0.4692 Z-0.0038
X0.8435 Y0.4699 Z-0.0042
X0.8427 Y0.4697 Z-0.0035
X0.8411 Y0.4692 Z-0.002
X0.84 Y0.4688 Z-0.0012
X0.8389 Y0.4682 Z-0.0006
X0.8383 Y0.4678 Z-0.0004
X0.8374 Y0.4671
X0.8363 Y0.4662 Z-0.0005
X0.8351 Y0.4655 Z-0.0007
X0.8341 Y0.4651 Z-0.0009
X0.8328 Y0.4648 Z-0.001
X0.8311 Y0.4647 Z-0.0012
X0.83 Y0.4648 Z-0.0013
X0.8284 Y0.4651 Z-0.0015
X0.8272 Y0.4656 Z-0.0016
X0.8261 Y0.4662 Z-0.0018
X0.8248 Y0.4673 Z-0.0019
X0.8239 Y0.4682 Z-0.002
X0.8228 Y0.4697 Z-0.0022
X0.8219 Y0.4714 Z-0.0024
X0.8214 Y0.4727 Z-0.0025
X0.821 Y0.4745 Z-0.0026
X0.8208 Y0.4771
X0.8209 Y0.4796
X0.8212 Y0.4816 Z-0.0025
X0.8215 Y0.4828
X0.8221 Y0.4843 Z-0.0024
X0.8235 Y0.4865 Z-0.0022
X0.8241 Y0.4873 Z-0.0021
X0.8252 Y0.4882 Z-0.002
X0.8265 Y0.4892 Z-0.0019
X0.8276 Y0.4897 Z-0.0018
X0.8289 Y0.4901
X0.8309 Y0.4904 Z-0.0017
X0.8321 Y0.4905 Z-0.0018
X0.8341 Y0.4902
X0.8356 Y0.4898 Z-0.0019
X0.8369 Y0.4893 Z-0.0021
X0.8381 Y0.4886 Z-0.0022
X0.8397 Y0.4872 Z-0.0023
X0.8409 Y0.4858 Z-0.0025
X0.8419 Y0.484
X0.8427 Y0.4822 Z-0.0026
X0.8433 Y0.4804 Z-0.0028
X0.8437 Y0.4782 Z-0.0031
X0.8439 Y0.4762 Z-0.0032
X0.844 Y0.4738 Z-0.0035
X0.8438 Y0.4717 Z-0.0038
X0.8435 Y0.4699 Z-0.0042
G0 Z0.2
X0.859 Y0.4536
G1 Z0. F50.
X0.8607 Y0.4526 Z-0.0014
X0.862 Y0.4519 Z-0.0024
X0.8631 Y0.4538 Z-0.0003
X0.8633 Y0.4541 Z0.
X0.8631 Y0.4538 Z-0.0003
X0.862 Y0.4519 Z-0.0024
X0.8629 Y0.4506
X0.8635 Y0.4498 Z-0.0023
X0.8644 Y0.4491 Z-0.0022
X0.866 Y0.4482 Z-0.0021
X0.8671 Y0.4478 Z-0.002
X0.8685 Y0.4474 Z-0.0018
X0.8704 Y0.4473 Z-0.0017
X0.8716 Y0.4474
X0.8737 Y0.4478
X0.8751 Y0.4482 Z-0.0018
X0.8763 Y0.4488 Z-0.0019
X0.8775 Y0.4497 Z-0.002
X0.8788 Y0.4509 Z-0.0021
X0.8795 Y0.4516
X0.8798 Y0.4521 Z-0.0023
X0.8803 Y0.4531
X0.8815 Y0.4556 Z-0.0025
X0.8823 Y0.4578 Z-0.0026
X0.8828 Y0.4596 Z-0.0027
X0.8832 Y0.4619 Z-0.0028
X0.8834 Y0.465 Z-0.0029
Y0.4667 Z-0.003
X0.883 Y0.4684 Z-0.0035
X0.8824 Y0.4699 Z-0.0042
X0.8827 Y0.4718 Z-0.0038
X0.8829 Y0.4738 Z-0.0035
Y0.4762 Z-0.0032
X0.8826 Y0.4784 Z-0.003
X0.8822 Y0.4806 Z-0.0028
X0.8816 Y0.4824 Z-0.0026
X0.8807 Y0.4842 Z-0.0025
X0.8798 Y0.4858
X0.8788 Y0.487 Z-0.0023
X0.8772 Y0.4885 Z-0.0022
X0.8762 Y0.4891 Z-0.0021
X0.875 Y0.4897 Z-0.002
X0.8736 Y0.4901 Z-0.0019
X0.8717 Y0.4904 Z-0.0018
X0.8708 Y0.4905 Z-0.0017
X0.8692 Y0.4904
X0.8674 Y0.49 Z-0.0018
X0.8661 Y0.4895 Z-0.0019
X0.865 Y0.4889
X0.8638 Y0.4879 Z-0.002
X0.8626 Y0.4868 Z-0.0021
X0.8613 Y0.4847 Z-0.0023
X0.8606 Y0.4832 Z-0.0025
X0.8601 Y0.4819
X0.8599 Y0.4802 Z-0.0026
X0.8597 Y0.4775
X0.8599 Y0.4748
X0.8602 Y0.473 Z-0.0025
X0.8607 Y0.4717 Z-0.0024
X0.8615 Y0.4701 Z-0.0023
X0.8627 Y0.4683 Z-0.0021
X0.8634 Y0.4675 Z-0.0019
X0.865 Y0.4662 Z-0.0018
X0.8661 Y0.4656 Z-0.0016
X0.8673 Y0.4652 Z-0.0015
X0.8689 Y0.4648 Z-0.0013
X0.87 Y0.4647 Z-0.0012
X0.8715 Y0.4648 Z-0.0011
X0.873 Y0.4651 Z-0.0009
X0.8739 Y0.4655 Z-0.0008
X0.875 Y0.4661 Z-0.0005
X0.8763 Y0.467 Z-0.0004
X0.8772 Y0.4678
X0.8778 Y0.4682 Z-0.0006
X0.8789 Y0.4688 Z-0.0011
X0.88 Y0.4692 Z-0.002
X0.8817 Y0.4697 Z-0.0034
X0.8824 Y0.4699 Z-0.0042
G0 Z0.2
X0.8751 Y0.5112
G1 Z-0.0018 F50.
X0.8765 Y0.5116 Z-0.002
X0.8775 Y0.5121
X0.8784 Y0.5128 Z-0.0021
X0.8797 Y0.514 Z-0.0022
X0.8802 Y0.5146 Z-0.0023
X0.8803 Y0.5148
X0.8811 Y0.5162
X0.8819 Y0.5181 Z-0.0024
X0.8827 Y0.5207 Z-0.0027
X0.8831 Y0.5228 Z-0.0029
X0.8835 Y0.5251
X0.8837 Y0.5286 Z-0.003
Y0.5341
X0.8836 Y0.5382
X0.8833 Y0.541 Z-0.0029
X0.883 Y0.5427 Z-0.0028
X0.8824 Y0.5453 Z-0.0025
X0.8817 Y0.5471 Z-0.0024
X0.881 Y0.5488 Z-0.0023
X0.8803 Y0.5501
X0.879 Y0.5515 Z-0.0021
X0.8781 Y0.5523
X0.8772 Y0.5529 Z-0.002
X0.8761 Y0.5534 Z-0.0019
X0.8749 Y0.5537 Z-0.0018
X0.8732 Y0.554 Z-0.0017
X0.8723 Z-0.0018
X0.8705 Y0.5538
X0.8691 Y0.5535 Z-0.0019
X0.8681 Y0.5531 Z-0.002
X0.8669 Y0.5523 Z-0.0021
X0.8659 Y0.5515
X0.8647 Y0.5502 Z-0.0023
X0.8643 Y0.5494
X0.8635 Y0.5478
X0.8627 Y0.5457 Z-0.0025
X0.8621 Y0.5436 Z-0.0028
X0.8617 Y0.5414 Z-0.0029
X0.8614 Y0.5384 Z-0.003
X0.8612 Y0.5335
X0.8613 Y0.5283
X0.8615 Y0.5252
X0.8618 Y0.5226 Z-0.0029
X0.8623 Y0.5205 Z-0.0027
X0.8629 Y0.5185 Z-0.0025
X0.8636 Y0.5166 Z-0.0024
X0.8644 Y0.5151
X0.8655 Y0.5138 Z-0.0022
X0.8666 Y0.5128 Z-0.002
X0.8677 Y0.512
X0.869 Y0.5114 Z-0.0019
X0.8703 Y0.5111 Z-0.0018
X0.872 Y0.5109 Z-0.0017
X0.8731
X0.8751 Y0.5112 Z-0.0018
G0 Z0.6
G53 Z0.

(2D POCKET INSIDE ROUGHING)
M5
M1
T1 M6
S26000 M3
G4 P4.
G55
G0 X0.4887 Y0.4764
Z0.45
Z0.16
G1 Z0.0375 F98.4
Y0.4766 Z0.0355
X0.4888 Y0.477 Z0.0336
X0.489 Y0.4777 Z0.0318
X0.4892 Y0.4787 Z0.0302
X0.4895 Y0.48 Z0.0287
X0.4897 Y0.4814 Z0.0274
X0.4899 Y0.4831 Z0.0264
X0.4901 Y0.4849 Z0.0256
X0.4902 Y0.4868 Z0.0252
Y0.4887 Z0.025
G3 X0.3902 Z0.0245 I-0.05 J0.
X0.4902 Z0.024 I0.05 J0.
X0.3902 Z0.0235 I-0.05 J0.
X0.4902 Z0.023 I0.05 J0.
X0.3902 Z0.0225 I-0.05 J0.
X0.4902 Z0.022 I0.05 J0.
X0.3902 Z0.0215 I-0.05 J0.
X0.4902 Z0.021 I0.05 J0.
X0.3902 Z0.0205 I-0.05 J0.
X0.4902 Z0.02 I0.05 J0.
X0.3902 Z0.0195 I-0.05 J0.
X0.4902 Z0.019 I0.05 J0.
X0.3902 Z0.0185 I-0.05 J0.
X0.4902 Z0.018 I0.05 J0.
X0.3902 Z0.0175 I-0.05 J0.
X0.4902 Z0.017 I0.05 J0.
X0.3902 Z0.0165 I-0.05 J0.
X0.4902 Z0.016 I0.05 J0.
X0.3902 Z0.0155 I-0.05 J0.
X0.4902 Z0.015 I0.05 J0.
X0.3902 Z0.0145 I-0.05 J0.
X0.4902 Z0.014 I0.05 J0.
X0.3902 Z0.0135 I-0.05 J0.
X0.4902 Z0.013 I0.05 J0.
X0.3902 Z0.0125 I-0.05 J0.
X0.4902 Z0.012 I0.05 J0.
X0.3902 Z0.0115 I-0.05 J0.
X0.4902 Z0.011 I0.05 J0.
X0.3902 Z0.0105 I-0.05 J0.
X0.4902 Z0.01 I0.05 J0.
X0.3902 Z0.0095 I-0.05 J0.
X0.4902 Z0.009 I0.05 J0.
X0.3902 Z0.0085 I-0.05 J0.
X0.4902 Z0.008 I0.05 J0.
X0.3902 Z0.0075 I-0.05 J0.
X0.4902 Z0.007 I0.05 J0.
X0.3902 Z0.0065 I-0.05 J0.
X0.4902 Z0.006 I0.05 J0.
X0.3902 Z0.0055 I-0.05 J0.
X0.4902 Z0.005 I0.05 J0.
X0.3902 Z0.0045 I-0.05 J0.
X0.4902 Z0.004 I0.05 J0.
X0.3902 Z0.0035 I-0.05 J0.
X0.4902 Z0.003 I0.05 J0.
X0.3902 Z0.0025 I-0.05 J0.
X0.4902 Z0.002 I0.05 J0.
X0.3902 Z0.0015 I-0.05 J0.
X0.4902 Z0.001 I0.05 J0.
X0.3902 Z0.0005 I-0.05 J0.
X0.4902 Z0. I0.05 J0.
X0.3902 Z-0.0005 I-0.05 J0.
X0.4902 Z-0.001 I0.05 J0.
X0.3902 Z-0.0015 I-0.05 J0.
X0.4902 Z-0.002 I0.05 J0.
X0.3902 Z-0.0025 I-0.05 J0.
X0.4902 Z-0.003 I0.05 J0.
X0.3902 Z-0.0035 I-0.05 J0.
X0.4902 Z-0.004 I0.05 J0.
X0.3902 Z-0.0045 I-0.05 J0.
X0.4902 Z-0.005 I0.05 J0.
X0.3902 Z-0.0055 I-0.05 J0.
X0.4902 Z-0.006 I0.05 J0.
X0.3902 Z-0.0065 I-0.05 J0.
X0.4902 Z-0.007 I0.05 J0.
X0.3902 Z-0.0075 I-0.05 J0.
X0.4902 Z-0.008 I0.05 J0.
X0.3902 Z-0.0085 I-0.05 J0.
X0.4902 Z-0.009 I0.05 J0.
X0.3902 Z-0.0095 I-0.05 J0.
X0.4902 Z-0.01 I0.05 J0.
X0.3902 Z-0.0105 I-0.05 J0.
X0.4902 Z-0.011 I0.05 J0.
X0.3902 Z-0.0115 I-0.05 J0.
X0.4902 Z-0.012 I0.05 J0.
X0.3902 Z-0.0125 I-0.05 J0.
X0.4902 Z-0.013 I0.05 J0.
X0.3902 Z-0.0135 I-0.05 J0.
X0.4902 Z-0.014 I0.05 J0.
X0.3902 Z-0.0145 I-0.05 J0.
X0.4902 Z-0.015 I0.05 J0.
G1 X0.49 Y0.4896
X0.4892 Y0.4902
X0.4883
X0.4875 Y0.4896
X0.4872 Y0.4887
X0.4875 Y0.4874
X0.4884 Y0.4864
X0.4896 Y0.4858
X0.4909
X0.4921 Y0.4864
X0.4929 Y0.4874
X0.4932 Y0.4887
X0.493 Y0.4903
X0.4922 Y0.4916
X0.491 Y0.4926
X0.4895 Y0.4932
X0.488
X0.4865 Y0.4926
X0.4853 Y0.4916
X0.4845 Y0.4903
X0.4842 Y0.4887
G3 X0.4962 I0.006 J0.
X0.4812 I-0.0075 J0.
X0.4992 I0.009 J0.
X0.4782 I-0.0105 J0.
X0.5022 I0.012 J0.
X0.4752 I-0.0135 J0.
X0.5052 I0.015 J0.
X0.4722 I-0.0165 J0.
X0.5082 I0.018 J0.
X0.4692 I-0.0195 J0.
X0.5112 I0.021 J0.
X0.4662 I-0.0225 J0.
X0.5142 I0.024 J0.
X0.4632 I-0.0255 J0.
X0.5172 I0.027 J0.
X0.4602 I-0.0285 J0.
X0.5202 I0.03 J0.
X0.4572 I-0.0315 J0.
X0.5232 I0.033 J0.
X0.4542 I-0.0345 J0.
X0.5262 I0.036 J0.
X0.4512 I-0.0375 J0.
X0.5292 I0.039 J0.
X0.4482 I-0.0405 J0.
X0.5322 I0.042 J0.
X0.4452 I-0.0435 J0.
X0.5352 I0.045 J0.
X0.4422 I-0.0465 J0.
X0.5382 I0.048 J0.
X0.4392 I-0.0495 J0.
X0.5412 I0.051 J0.
X0.4362 I-0.0525 J0.
X0.5442 I0.054 J0.
X0.4332 I-0.0555 J0.
X0.5472 I0.057 J0.
X0.4302 I-0.0585 J0.
X0.5502 I0.06 J0.
X0.4272 I-0.0615 J0.
X0.5532 I0.063 J0.
X0.4242 I-0.0645 J0.
X0.5562 I0.066 J0.
X0.4212 I-0.0675 J0.
X0.5592 I0.069 J0.
X0.4182 I-0.0705 J0.
X0.5622 I0.072 J0.
X0.4152 I-0.0735 J0.
X0.5652 I0.075 J0.
X0.4122 I-0.0765 J0.
X0.5682 I0.078 J0.
X0.4092 I-0.0795 J0.
X0.5712 I0.081 J0.
X0.4062 I-0.0825 J0.
X0.5742 I0.084 J0.
X0.4032 I-0.0855 J0.
X0.5772 I0.087 J0.
X0.4002 I-0.0885 J0.
X0.5802 I0.09 J0.
X0.3972 I-0.0915 J0.
X0.5832 I0.093 J0.
X0.3942 I-0.0945 J0.
X0.5862 I0.096 J0.
X0.3912 I-0.0975 J0.
X0.5892 I0.099 J0.
X0.3882 I-0.1005 J0.
X0.5922 I0.102 J0.
X0.3852 I-0.1035 J0.
X0.5952 I0.105 J0.
X0.3822 I-0.1065 J0.
X0.5982 I0.108 J0.
X0.3792 I-0.1095 J0.
X0.6012 I0.111 J0.
X0.3762 I-0.1125 J0.
X0.6042 I0.114 J0.
X0.3732 I-0.1155 J0.
X0.6072 I0.117 J0.
X0.3702 I-0.1185 J0.
X0.6102 I0.12 J0.
X0.3672 I-0.1215 J0.
X0.6132 I0.123 J0.
X0.3642 I-0.1245 J0.
X0.6162 I0.126 J0.
X0.3612 I-0.1275 J0.
X0.6192 I0.129 J0.
X0.3582 I-0.1305 J0.
X0.6222 I0.132 J0.
X0.3552 I-0.1335 J0.
X0.6252 I0.135 J0.
X0.3522 I-0.1365 J0.
X0.6282 I0.138 J0.
X0.3492 I-0.1395 J0.
X0.6312 I0.141 J0.
X0.3462 I-0.1425 J0.
X0.6342 I0.144 J0.
X0.3432 I-0.1455 J0.
X0.6372 I0.147 J0.
X0.3402 I-0.1485 J0.
X0.6402 I0.15 J0.
X0.3372 I-0.1515 J0.
X0.6432 I0.153 J0.
X0.3342 I-0.1545 J0.
X0.6462 I0.156 J0.
X0.3312 I-0.1575 J0.
X0.6492 I0.159 J0.
X0.3282 I-0.1605 J0.
X0.6522 I0.162 J0.
X0.3252 I-0.1635 J0.
X0.6552 I0.165 J0.
X0.3222 I-0.1665 J0.
X0.6582 I0.168 J0.
X0.3192 I-0.1695 J0.
X0.6612 I0.171 J0.
X0.3162 I-0.1725 J0.
X0.6642 I0.174 J0.
X0.3132 I-0.1755 J0.
X0.6672 I0.177 J0.
X0.3102 I-0.1785 J0.
X0.6702 I0.18 J0.
X0.3072 I-0.1815 J0.
X0.6732 I0.183 J0.
X0.3042 I-0.1845 J0.
X0.6762 I0.186 J0.
X0.3012 I-0.1875 J0.
X0.6792 I0.189 J0.
X0.2982 I-0.1905 J0.
X0.6822 I0.192 J0.
X0.2952 I-0.1935 J0.
X0.6852 I0.195 J0.
X0.2922 I-0.1965 J0.
X0.6882 I0.198 J0.
X0.2892 I-0.1995 J0.
X0.6912 I0.201 J0.
X0.2862 I-0.2025 J0.
X0.6942 I0.204 J0.
X0.2832 I-0.2055 J0.
X0.6972 I0.207 J0.
X0.2802 I-0.2085 J0.
X0.7002 I0.21 J0.
X0.2772 I-0.2115 J0.
X0.7032 I0.213 J0.
X0.2742 I-0.2145 J0.
X0.7062 I0.216 J0.
X0.2712 I-0.2175 J0.
X0.7092 I0.219 J0.
X0.2682 I-0.2205 J0.
X0.7122 I0.222 J0.
X0.2652 I-0.2235 J0.
X0.7152 I0.225 J0.
X0.2622 I-0.2265 J0.
X0.7182 I0.228 J0.
X0.2592 I-0.2295 J0.
X0.7212 I0.231 J0.
X0.2562 I-0.2325 J0.
X0.7242 I0.234 J0.
X0.2532 I-0.2355 J0.
X0.7272 I0.237 J0.
X0.2502 I-0.2385 J0.
X0.7302 I0.24 J0.
X0.2472 I-0.2415 J0.
X0.7332 I0.243 J0.
X0.2442 I-0.2445 J0.
X0.7362 I0.246 J0.
X0.2412 I-0.2475 J0.
X0.7392 I0.249 J0.
X0.2382 I-0.2505 J0.
X0.7422 I0.252 J0.
X0.2352 I-0.2535 J0.
X0.7452 I0.255 J0.
X0.2322 I-0.2565 J0.
X0.7462 I0.257 J0.
X0.2312 I-0.2575 J0.
X0.7462 I0.2575 J0.
G1 X0.746 Y0.4905
X0.7452 Y0.4922
X0.744 Y0.4935
X0.7425 Y0.4945
X0.7408 Y0.4949
X0.739
X0.5298 Y0.46
X0.5292 Y0.4598
X0.5275 Y0.4596
X0.5258 Y0.4599
X0.5242 Y0.4606
X0.5229 Y0.4617
X0.4577 Y0.5347
X0.4564 Y0.5358
X0.4548 Y0.5366
G3 X0.4256 Y0.4409 Z-0.0155 I-0.0146 J-0.0478
X0.4548 Y0.5366 Z-0.0161 I0.0146 J0.0478
X0.4256 Y0.4409 Z-0.0166 I-0.0146 J-0.0478
X0.4548 Y0.5366 Z-0.0172 I0.0146 J0.0478
X0.4256 Y0.4409 Z-0.0177 I-0.0146 J-0.0478
X0.4548 Y0.5366 Z-0.0183 I0.0146 J0.0478
X0.4256 Y0.4409 Z-0.0188 I-0.0146 J-0.0478
X0.4548 Y0.5366 Z-0.0194 I0.0146 J0.0478
X0.4256 Y0.4409 Z-0.0199 I-0.0146 J-0.0478
X0.4548 Y0.5366 Z-0.0205 I0.0146 J0.0478
X0.4256 Y0.4409 Z-0.021 I-0.0146 J-0.0478
X0.4548 Y0.5366 Z-0.0216 I0.0146 J0.0478
X0.4256 Y0.4409 Z-0.0221 I-0.0146 J-0.0478
X0.4548 Y0.5366 Z-0.0227 I0.0146 J0.0478
X0.4256 Y0.4409 Z-0.0232 I-0.0146 J-0.0478
X0.4548 Y0.5366 Z-0.0238 I0.0146 J0.0478
X0.4256 Y0.4409 Z-0.0243 I-0.0146 J-0.0478
X0.4548 Y0.5366 Z-0.0249 I0.0146 J0.0478
X0.4256 Y0.4409 Z-0.0254 I-0.0146 J-0.0478
X0.4548 Y0.5366 Z-0.026 I0.0146 J0.0478
X0.4256 Y0.4409 Z-0.0265 I-0.0146 J-0.0478
X0.4548 Y0.5366 Z-0.0271 I0.0146 J0.0478
X0.4256 Y0.4409 Z-0.0276 I-0.0146 J-0.0478
X0.4548 Y0.5366 Z-0.0282 I0.0146 J0.0478
X0.4256 Y0.4409 Z-0.0287 I-0.0146 J-0.0478
X0.4548 Y0.5366 Z-0.0293 I0.0146 J0.0478
X0.4256 Y0.4409 Z-0.0298 I-0.0146 J-0.0478
X0.4548 Y0.5366 Z-0.0304 I0.0146 J0.0478
X0.4256 Y0.4409 Z-0.0309 I-0.0146 J-0.0478
X0.4548 Y0.5366 Z-0.0314 I0.0146 J0.0478
X0.4256 Y0.4409 Z-0.032 I-0.0146 J-0.0478
X0.4548 Y0.5366 Z-0.0325 I0.0146 J0.0478
X0.4256 Y0.4409 Z-0.0331 I-0.0146 J-0.0478
X0.4548 Y0.5366 Z-0.0336 I0.0146 J0.0478
X0.4256 Y0.4409 Z-0.0342 I-0.0146 J-0.0478
X0.4548 Y0.5366 Z-0.0347 I0.0146 J0.0478
X0.4256 Y0.4409 Z-0.0353 I-0.0146 J-0.0478
X0.4548 Y0.5366 Z-0.0358 I0.0146 J0.0478
X0.4256 Y0.4409 Z-0.0364 I-0.0146 J-0.0478
X0.4548 Y0.5366 Z-0.0369 I0.0146 J0.0478
X0.4256 Y0.4409 Z-0.0375 I-0.0146 J-0.0478
X0.4548 Y0.5366 Z-0.038 I0.0146 J0.0478
X0.4256 Y0.4409 Z-0.0386 I-0.0146 J-0.0478
X0.4548 Y0.5366 Z-0.0391 I0.0146 J0.0478
X0.4256 Y0.4409 Z-0.0397 I-0.0146 J-0.0478
X0.4902 Y0.4887 Z-0.04 I0.0146 J0.0478
G1 X0.49 Y0.4896
X0.4892 Y0.4902
X0.4883
X0.4875 Y0.4896
X0.4872 Y0.4887
X0.4875 Y0.4874
X0.4884 Y0.4864
X0.4896 Y0.4858
X0.4909
X0.4921 Y0.4864
X0.4929 Y0.4874
X0.4932 Y0.4887
X0.493 Y0.4903
X0.4922 Y0.4916
X0.491 Y0.4926
X0.4895 Y0.4932
X0.488
X0.4865 Y0.4926
X0.4853 Y0.4916
X0.4845 Y0.4903
X0.4842 Y0.4887
G3 X0.4962 I0.006 J0.
X0.4812 I-0.0075 J0.
X0.4992 I0.009 J0.
X0.4782 I-0.0105 J0.
X0.5022 I0.012 J0.
X0.4752 I-0.0135 J0.
X0.5052 I0.015 J0.
X0.4722 I-0.0165 J0.
X0.5082 I0.018 J0.
X0.4692 I-0.0195 J0.
X0.5112 I0.021 J0.
X0.4662 I-0.0225 J0.
X0.5142 I0.024 J0.
X0.4632 I-0.0255 J0.
X0.5172 I0.027 J0.
X0.4602 I-0.0285 J0.
X0.5202 I0.03 J0.
X0.4572 I-0.0315 J0.
X0.5232 I0.033 J0.
X0.4542 I-0.0345 J0.
X0.5262 I0.036 J0.
X0.4512 I-0.0375 J0.
X0.5292 I0.039 J0.
X0.4482 I-0.0405 J0.
X0.5322 I0.042 J0.
X0.4452 I-0.0435 J0.
X0.5352 I0.045 J0.
X0.4422 I-0.0465 J0.
X0.5382 I0.048 J0.
X0.4392 I-0.0495 J0.
X0.5412 I0.051 J0.
X0.4362 I-0.0525 J0.
X0.5442 I0.054 J0.
X0.4332 I-0.0555 J0.
X0.5472 I0.057 J0.
X0.4302 I-0.0585 J0.
X0.5502 I0.06 J0.
X0.4272 I-0.0615 J0.
X0.5532 I0.063 J0.
X0.4242 I-0.0645 J0.
X0.5562 I0.066 J0.
X0.4212 I-0.0675 J0.
X0.5592 I0.069 J0.
X0.4182 I-0.0705 J0.
X0.5622 I0.072 J0.
X0.4152 I-0.0735 J0.
X0.5652 I0.075 J0.
X0.4122 I-0.0765 J0.
X0.5682 I0.078 J0.
X0.4092 I-0.0795 J0.
X0.5712 I0.081 J0.
X0.4062 I-0.0825 J0.
X0.5742 I0.084 J0.
X0.4032 I-0.0855 J0.
X0.5772 I0.087 J0.
X0.4002 I-0.0885 J0.
X0.5802 I0.09 J0.
X0.3972 I-0.0915 J0.
X0.5832 I0.093 J0.
X0.3942 I-0.0945 J0.
X0.5862 I0.096 J0.
X0.3912 I-0.0975 J0.
X0.5892 I0.099 J0.
X0.3882 I-0.1005 J0.
X0.5922 I0.102 J0.
X0.3852 I-0.1035 J0.
X0.5952 I0.105 J0.
X0.3822 I-0.1065 J0.
X0.5982 I0.108 J0.
X0.3792 I-0.1095 J0.
X0.6012 I0.111 J0.
X0.3762 I-0.1125 J0.
X0.6042 I0.114 J0.
X0.3732 I-0.1155 J0.
X0.6072 I0.117 J0.
X0.3702 I-0.1185 J0.
X0.6102 I0.12 J0.
X0.3672 I-0.1215 J0.
X0.6132 I0.123 J0.
X0.3642 I-0.1245 J0.
X0.6162 I0.126 J0.
X0.3612 I-0.1275 J0.
X0.6192 I0.129 J0.
X0.3582 I-0.1305 J0.
X0.6222 I0.132 J0.
X0.3552 I-0.1335 J0.
X0.6252 I0.135 J0.
X0.3522 I-0.1365 J0.
X0.6282 I0.138 J0.
X0.3492 I-0.1395 J0.
X0.6312 I0.141 J0.
X0.3462 I-0.1425 J0.
X0.6342 I0.144 J0.
X0.3432 I-0.1455 J0.
X0.6372 I0.147 J0.
X0.3402 I-0.1485 J0.
X0.6402 I0.15 J0.
X0.3372 I-0.1515 J0.
X0.6432 I0.153 J0.
X0.3342 I-0.1545 J0.
X0.6462 I0.156 J0.
X0.3312 I-0.1575 J0.
X0.6492 I0.159 J0.
X0.3282 I-0.1605 J0.
X0.6522 I0.162 J0.
X0.3252 I-0.1635 J0.
X0.6552 I0.165 J0.
X0.3222 I-0.1665 J0.
X0.6582 I0.168 J0.
X0.3192 I-0.1695 J0.
X0.6612 I0.171 J0.
X0.3162 I-0.1725 J0.
X0.6642 I0.174 J0.
X0.3132 I-0.1755 J0.
X0.6672 I0.177 J0.
X0.3102 I-0.1785 J0.
X0.6702 I0.18 J0.
X0.3072 I-0.1815 J0.
X0.6732 I0.183 J0.
X0.3042 I-0.1845 J0.
X0.6762 I0.186 J0.
X0.3012 I-0.1875 J0.
X0.6792 I0.189 J0.
X0.2982 I-0.1905 J0.
X0.6822 I0.192 J0.
X0.2952 I-0.1935 J0.
X0.6852 I0.195 J0.
X0.2922 I-0.1965 J0.
X0.6882 I0.198 J0.
X0.2892 I-0.1995 J0.
X0.6912 I0.201 J0.
X0.2862 I-0.2025 J0.
X0.6942 I0.204 J0.
X0.2832 I-0.2055 J0.
X0.6972 I0.207 J0.
X0.2802 I-0.2085 J0.
X0.7002 I0.21 J0.
X0.2772 I-0.2115 J0.
X0.7032 I0.213 J0.
X0.2742 I-0.2145 J0.
X0.7062 I0.216 J0.
X0.2712 I-0.2175 J0.
X0.7092 I0.219 J0.
X0.2682 I-0.2205 J0.
X0.7122 I0.222 J0.
X0.2652 I-0.2235 J0.
X0.7152 I0.225 J0.
X0.2622 I-0.2265 J0.
X0.7182 I0.228 J0.
X0.2592 I-0.2295 J0.
X0.7212 I0.231 J0.
X0.2562 I-0.2325 J0.
X0.7242 I0.234 J0.
X0.2532 I-0.2355 J0.
X0.7272 I0.237 J0.
X0.2502 I-0.2385 J0.
X0.7302 I0.24 J0.
X0.2472 I-0.2415 J0.
X0.7332 I0.243 J0.
X0.2442 I-0.2445 J0.
X0.7362 I0.246 J0.
X0.2412 I-0.2475 J0.
X0.7392 I0.249 J0.
X0.2382 I-0.2505 J0.
X0.7422 I0.252 J0.
X0.2352 I-0.2535 J0.
X0.7452 I0.255 J0.
X0.2322 I-0.2565 J0.
X0.7462 I0.257 J0.
X0.2312 I-0.2575 J0.
X0.7462 I0.2575 J0.
G1 X0.746 Y0.4905
X0.7452 Y0.4922
X0.744 Y0.4935
X0.7425 Y0.4945
X0.7408 Y0.4949
X0.739
X0.5298 Y0.46
X0.5292 Y0.4598
X0.5275 Y0.4596
X0.5258 Y0.4599
X0.5242 Y0.4606
X0.5229 Y0.4617
X0.4577 Y0.5347
X0.4564 Y0.5358
X0.4548 Y0.5366
G3 X0.4256 Y0.4409 Z-0.0405 I-0.0146 J-0.0478
X0.4548 Y0.5366 Z-0.0411 I0.0146 J0.0478
X0.4256 Y0.4409 Z-0.0416 I-0.0146 J-0.0478
X0.4548 Y0.5366 Z-0.0422 I0.0146 J0.0478
X0.4256 Y0.4409 Z-0.0427 I-0.0146 J-0.0478
X0.4548 Y0.5366 Z-0.0433 I0.0146 J0.0478
X0.4256 Y0.4409 Z-0.0438 I-0.0146 J-0.0478
X0.4548 Y0.5366 Z-0.0444 I0.0146 J0.0478
X0.4256 Y0.4409 Z-0.0449 I-0.0146 J-0.0478
X0.4548 Y0.5366 Z-0.0455 I0.0146 J0.0478
X0.4256 Y0.4409 Z-0.046 I-0.0146 J-0.0478
X0.4548 Y0.5366 Z-0.0466 I0.0146 J0.0478
X0.4256 Y0.4409 Z-0.0471 I-0.0146 J-0.0478
X0.4548 Y0.5366 Z-0.0477 I0.0146 J0.0478
X0.4256 Y0.4409 Z-0.0482 I-0.0146 J-0.0478
X0.4548 Y0.5366 Z-0.0488 I0.0146 J0.0478
X0.4256 Y0.4409 Z-0.0493 I-0.0146 J-0.0478
X0.4548 Y0.5366 Z-0.0499 I0.0146 J0.0478
X0.4256 Y0.4409 Z-0.0504 I-0.0146 J-0.0478
X0.4548 Y0.5366 Z-0.051 I0.0146 J0.0478
X0.4256 Y0.4409 Z-0.0515 I-0.0146 J-0.0478
X0.4548 Y0.5366 Z-0.0521 I0.0146 J0.0478
X0.4256 Y0.4409 Z-0.0526 I-0.0146 J-0.0478
X0.4548 Y0.5366 Z-0.0532 I0.0146 J0.0478
X0.4256 Y0.4409 Z-0.0537 I-0.0146 J-0.0478
X0.4548 Y0.5366 Z-0.0543 I0.0146 J0.0478
X0.4256 Y0.4409 Z-0.0548 I-0.0146 J-0.0478
X0.4548 Y0.5366 Z-0.0554 I0.0146 J0.0478
X0.4256 Y0.4409 Z-0.0559 I-0.0146 J-0.0478
X0.4548 Y0.5366 Z-0.0564 I0.0146 J0.0478
X0.4256 Y0.4409 Z-0.057 I-0.0146 J-0.0478
X0.4548 Y0.5366 Z-0.0575 I0.0146 J0.0478
X0.4256 Y0.4409 Z-0.0581 I-0.0146 J-0.0478
X0.4548 Y0.5366 Z-0.0586 I0.0146 J0.0478
X0.4256 Y0.4409 Z-0.0592 I-0.0146 J-0.0478
X0.4548 Y0.5366 Z-0.0597 I0.0146 J0.0478
X0.4256 Y0.4409 Z-0.0603 I-0.0146 J-0.0478
X0.4548 Y0.5366 Z-0.0608 I0.0146 J0.0478
X0.4256 Y0.4409 Z-0.0614 I-0.0146 J-0.0478
X0.4548 Y0.5366 Z-0.0619 I0.0146 J0.0478
X0.4256 Y0.4409 Z-0.0625 I-0.0146 J-0.0478
X0.4548 Y0.5366 Z-0.063 I0.0146 J0.0478
X0.4256 Y0.4409 Z-0.0636 I-0.0146 J-0.0478
X0.4548 Y0.5366 Z-0.0641 I0.0146 J0.0478
X0.4256 Y0.4409 Z-0.0647 I-0.0146 J-0.0478
X0.4902 Y0.4887 Z-0.065 I0.0146 J0.0478
G1 X0.49 Y0.4896
X0.4892 Y0.4902
X0.4883
X0.4875 Y0.4896
X0.4872 Y0.4887
X0.4875 Y0.4874
X0.4884 Y0.4864
X0.4896 Y0.4858
X0.4909
X0.4921 Y0.4864
X0.4929 Y0.4874
X0.4932 Y0.4887
X0.493 Y0.4903
X0.4922 Y0.4916
X0.491 Y0.4926
X0.4895 Y0.4932
X0.488
X0.4865 Y0.4926
X0.4853 Y0.4916
X0.4845 Y0.4903
X0.4842 Y0.4887
G3 X0.4962 I0.006 J0.
X0.4812 I-0.0075 J0.
X0.4992 I0.009 J0.
X0.4782 I-0.0105 J0.
X0.5022 I0.012 J0.
X0.4752 I-0.0135 J0.
X0.5052 I0.015 J0.
X0.4722 I-0.0165 J0.
X0.5082 I0.018 J0.
X0.4692 I-0.0195 J0.
X0.5112 I0.021 J0.
X0.4662 I-0.0225 J0.
X0.5142 I0.024 J0.
X0.4632 I-0.0255 J0.
X0.5172 I0.027 J0.
X0.4602 I-0.0285 J0.
X0.5202 I0.03 J0.
X0.4572 I-0.0315 J0.
X0.5232 I0.033 J0.
X0.4542 I-0.0345 J0.
X0.5262 I0.036 J0.
X0.4512 I-0.0375 J0.
X0.5292 I0.039 J0.
X0.4482 I-0.0405 J0.
X0.5322 I0.042 J0.
X0.4452 I-0.0435 J0.
X0.5352 I0.045 J0.
X0.4422 I-0.0465 J0.
X0.5382 I0.048 J0.
X0.4392 I-0.0495 J0.
X0.5412 I0.051 J0.
X0.4362 I-0.0525 J0.
X0.5442 I0.054 J0.
X0.4332 I-0.0555 J0.
X0.5472 I0.057 J0.
X0.4302 I-0.0585 J0.
X0.5502 I0.06 J0.
X0.4272 I-0.0615 J0.
X0.5532 I0.063 J0.
X0.4242 I-0.0645 J0.
X0.5562 I0.066 J0.
X0.4212 I-0.0675 J0.
X0.5592 I0.069 J0.
X0.4182 I-0.0705 J0.
X0.5622 I0.072 J0.
X0.4152 I-0.0735 J0.
X0.5652 I0.075 J0.
X0.4122 I-0.0765 J0.
X0.5682 I0.078 J0.
X0.4092 I-0.0795 J0.
X0.5712 I0.081 J0.
X0.4062 I-0.0825 J0.
X0.5742 I0.084 J0.
X0.4032 I-0.0855 J0.
X0.5772 I0.087 J0.
X0.4002 I-0.0885 J0.
X0.5802 I0.09 J0.
X0.3972 I-0.0915 J0.
X0.5832 I0.093 J0.
X0.3942 I-0.0945 J0.
X0.5862 I0.096 J0.
X0.3912 I-0.0975 J0.
X0.5892 I0.099 J0.
X0.3882 I-0.1005 J0.
X0.5922 I0.102 J0.
X0.3852 I-0.1035 J0.
X0.5952 I0.105 J0.
X0.3822 I-0.1065 J0.
X0.5982 I0.108 J0.
X0.3792 I-0.1095 J0.
X0.6012 I0.111 J0.
X0.3762 I-0.1125 J0.
X0.6042 I0.114 J0.
X0.3732 I-0.1155 J0.
X0.6072 I0.117 J0.
X0.3702 I-0.1185 J0.
X0.6102 I0.12 J0.
X0.3672 I-0.1215 J0.
X0.6132 I0.123 J0.
X0.3642 I-0.1245 J0.
X0.6162 I0.126 J0.
X0.3612 I-0.1275 J0.
X0.6192 I0.129 J0.
X0.3582 I-0.1305 J0.
X0.6222 I0.132 J0.
X0.3552 I-0.1335 J0.
X0.6252 I0.135 J0.
X0.3522 I-0.1365 J0.
X0.6282 I0.138 J0.
X0.3492 I-0.1395 J0.
X0.6312 I0.141 J0.
X0.3462 I-0.1425 J0.
X0.6342 I0.144 J0.
X0.3432 I-0.1455 J0.
X0.6372 I0.147 J0.
X0.3402 I-0.1485 J0.
X0.6402 I0.15 J0.
X0.3372 I-0.1515 J0.
X0.6432 I0.153 J0.
X0.3342 I-0.1545 J0.
X0.6462 I0.156 J0.
X0.3312 I-0.1575 J0.
X0.6492 I0.159 J0.
X0.3282 I-0.1605 J0.
X0.6522 I0.162 J0.
X0.3252 I-0.1635 J0.
X0.6552 I0.165 J0.
X0.3222 I-0.1665 J0.
X0.6582 I0.168 J0.
X0.3192 I-0.1695 J0.
X0.6612 I0.171 J0.
X0.3162 I-0.1725 J0.
X0.6642 I0.174 J0.
X0.3132 I-0.1755 J0.
X0.6672 I0.177 J0.
X0.3102 I-0.1785 J0.
X0.6702 I0.18 J0.
X0.3072 I-0.1815 J0.
X0.6732 I0.183 J0.
X0.3042 I-0.1845 J0.
X0.6762 I0.186 J0.
X0.3012 I-0.1875 J0.
X0.6792 I0.189 J0.
X0.2982 I-0.1905 J0.
X0.6822 I0.192 J0.
X0.2952 I-0.1935 J0.
X0.6852 I0.195 J0.
X0.2922 I-0.1965 J0.
X0.6882 I0.198 J0.
X0.2892 I-0.1995 J0.
X0.6912 I0.201 J0.
X0.2862 I-0.2025 J0.
X0.6942 I0.204 J0.
X0.2832 I-0.2055 J0.
X0.6972 I0.207 J0.
X0.2802 I-0.2085 J0.
X0.7002 I0.21 J0.
X0.2772 I-0.2115 J0.
X0.7032 I0.213 J0.
X0.2742 I-0.2145 J0.
X0.7062 I0.216 J0.
X0.2712 I-0.2175 J0.
X0.7092 I0.219 J0.
X0.2682 I-0.2205 J0.
X0.7122 I0.222 J0.
X0.2652 I-0.2235 J0.
X0.7152 I0.225 J0.
X0.2622 I-0.2265 J0.
X0.7182 I0.228 J0.
X0.2592 I-0.2295 J0.
X0.7212 I0.231 J0.
X0.2562 I-0.2325 J0.
X0.7242 I0.234 J0.
X0.2532 I-0.2355 J0.
X0.7272 I0.237 J0.
X0.2502 I-0.2385 J0.
X0.7302 I0.24 J0.
X0.2472 I-0.2415 J0.
X0.7332 I0.243 J0.
X0.2442 I-0.2445 J0.
X0.7362 I0.246 J0.
X0.2412 I-0.2475 J0.
X0.7392 I0.249 J0.
X0.2382 I-0.2505 J0.
X0.7422 I0.252 J0.
X0.2352 I-0.2535 J0.
X0.7452 I0.255 J0.
X0.2322 I-0.2565 J0.
X0.7462 I0.257 J0.
X0.2312 I-0.2575 J0.
X0.7462 I0.2575 J0.
G1 X0.746 Y0.4905
X0.7452 Y0.4922
X0.744 Y0.4935
X0.7425 Y0.4945
X0.7408 Y0.4949
X0.739
X0.5298 Y0.46
X0.5292 Y0.4598
X0.5275 Y0.4596
X0.5258 Y0.4599
X0.5242 Y0.4606
X0.5229 Y0.4617
X0.4577 Y0.5347
X0.4564 Y0.5358
X0.4548 Y0.5366
G3 X0.4256 Y0.4409 Z-0.0655 I-0.0146 J-0.0478
X0.4548 Y0.5366 Z-0.0661 I0.0146 J0.0478
X0.4256 Y0.4409 Z-0.0666 I-0.0146 J-0.0478
X0.4548 Y0.5366 Z-0.0672 I0.0146 J0.0478
X0.4256 Y0.4409 Z-0.0677 I-0.0146 J-0.0478
X0.4548 Y0.5366 Z-0.0683 I0.0146 J0.0478
X0.4256 Y0.4409 Z-0.0688 I-0.0146 J-0.0478
X0.4548 Y0.5366 Z-0.0694 I0.0146 J0.0478
X0.4256 Y0.4409 Z-0.0699 I-0.0146 J-0.0478
X0.4548 Y0.5366 Z-0.0705 I0.0146 J0.0478
X0.4256 Y0.4409 Z-0.071 I-0.0146 J-0.0478
X0.4548 Y0.5366 Z-0.0716 I0.0146 J0.0478
X0.4256 Y0.4409 Z-0.0721 I-0.0146 J-0.0478
X0.4548 Y0.5366 Z-0.0727 I0.0146 J0.0478
X0.4256 Y0.4409 Z-0.0732 I-0.0146 J-0.0478
X0.4548 Y0.5366 Z-0.0738 I0.0146 J0.0478
X0.4256 Y0.4409 Z-0.0743 I-0.0146 J-0.0478
X0.4548 Y0.5366 Z-0.0749 I0.0146 J0.0478
X0.4256 Y0.4409 Z-0.0754 I-0.0146 J-0.0478
X0.4548 Y0.5366 Z-0.076 I0.0146 J0.0478
X0.4256 Y0.4409 Z-0.0765 I-0.0146 J-0.0478
X0.4548 Y0.5366 Z-0.0771 I0.0146 J0.0478
X0.4256 Y0.4409 Z-0.0776 I-0.0146 J-0.0478
X0.4548 Y0.5366 Z-0.0782 I0.0146 J0.0478
X0.4256 Y0.4409 Z-0.0787 I-0.0146 J-0.0478
X0.4548 Y0.5366 Z-0.0793 I0.0146 J0.0478
X0.4256 Y0.4409 Z-0.0798 I-0.0146 J-0.0478
X0.4548 Y0.5366 Z-0.0804 I0.0146 J0.0478
X0.4256 Y0.4409 Z-0.0809 I-0.0146 J-0.0478
X0.4548 Y0.5366 Z-0.0814 I0.0146 J0.0478
X0.4256 Y0.4409 Z-0.082 I-0.0146 J-0.0478
X0.4548 Y0.5366 Z-0.0825 I0.0146 J0.0478
X0.4256 Y0.4409 Z-0.0831 I-0.0146 J-0.0478
X0.4548 Y0.5366 Z-0.0836 I0.0146 J0.0478
X0.4256 Y0.4409 Z-0.0842 I-0.0146 J-0.0478
X0.4548 Y0.5366 Z-0.0847 I0.0146 J0.0478
X0.4256 Y0.4409 Z-0.0853 I-0.0146 J-0.0478
X0.4548 Y0.5366 Z-0.0858 I0.0146 J0.0478
X0.4256 Y0.4409 Z-0.0864 I-0.0146 J-0.0478
X0.4548 Y0.5366 Z-0.0869 I0.0146 J0.0478
X0.4256 Y0.4409 Z-0.0875 I-0.0146 J-0.0478
X0.4548 Y0.5366 Z-0.088 I0.0146 J0.0478
X0.4256 Y0.4409 Z-0.0886 I-0.0146 J-0.0478
X0.4548 Y0.5366 Z-0.0891 I0.0146 J0.0478
X0.4256 Y0.4409 Z-0.0897 I-0.0146 J-0.0478
X0.4902 Y0.4887 Z-0.09 I0.0146 J0.0478
G1 X0.49 Y0.4896
X0.4892 Y0.4902
X0.4883
X0.4875 Y0.4896
X0.4872 Y0.4887
X0.4875 Y0.4874
X0.4884 Y0.4864
X0.4896 Y0.4858
X0.4909
X0.4921 Y0.4864
X0.4929 Y0.4874
X0.4932 Y0.4887
X0.493 Y0.4903
X0.4922 Y0.4916
X0.491 Y0.4926
X0.4895 Y0.4932
X0.488
X0.4865 Y0.4926
X0.4853 Y0.4916
X0.4845 Y0.4903
X0.4842 Y0.4887
G3 X0.4962 I0.006 J0.
X0.4812 I-0.0075 J0.
X0.4992 I0.009 J0.
X0.4782 I-0.0105 J0.
X0.5022 I0.012 J0.
X0.4752 I-0.0135 J0.
X0.5052 I0.015 J0.
X0.4722 I-0.0165 J0.
X0.5082 I0.018 J0.
X0.4692 I-0.0195 J0.
X0.5112 I0.021 J0.
X0.4662 I-0.0225 J0.
X0.5142 I0.024 J0.
X0.4632 I-0.0255 J0.
X0.5172 I0.027 J0.
X0.4602 I-0.0285 J0.
X0.5202 I0.03 J0.
X0.4572 I-0.0315 J0.
X0.5232 I0.033 J0.
X0.4542 I-0.0345 J0.
X0.5262 I0.036 J0.
X0.4512 I-0.0375 J0.
X0.5292 I0.039 J0.
X0.4482 I-0.0405 J0.
X0.5322 I0.042 J0.
X0.4452 I-0.0435 J0.
X0.5352 I0.045 J0.
X0.4422 I-0.0465 J0.
X0.5382 I0.048 J0.
X0.4392 I-0.0495 J0.
X0.5412 I0.051 J0.
X0.4362 I-0.0525 J0.
X0.5442 I0.054 J0.
X0.4332 I-0.0555 J0.
X0.5472 I0.057 J0.
X0.4302 I-0.0585 J0.
X0.5502 I0.06 J0.
X0.4272 I-0.0615 J0.
X0.5532 I0.063 J0.
X0.4242 I-0.0645 J0.
X0.5562 I0.066 J0.
X0.4212 I-0.0675 J0.
X0.5592 I0.069 J0.
X0.4182 I-0.0705 J0.
X0.5622 I0.072 J0.
X0.4152 I-0.0735 J0.
X0.5652 I0.075 J0.
X0.4122 I-0.0765 J0.
X0.5682 I0.078 J0.
X0.4092 I-0.0795 J0.
X0.5712 I0.081 J0.
X0.4062 I-0.0825 J0.
X0.5742 I0.084 J0.
X0.4032 I-0.0855 J0.
X0.5772 I0.087 J0.
X0.4002 I-0.0885 J0.
X0.5802 I0.09 J0.
X0.3972 I-0.0915 J0.
X0.5832 I0.093 J0.
X0.3942 I-0.0945 J0.
X0.5862 I0.096 J0.
X0.3912 I-0.0975 J0.
X0.5892 I0.099 J0.
X0.3882 I-0.1005 J0.
X0.5922 I0.102 J0.
X0.3852 I-0.1035 J0.
X0.5952 I0.105 J0.
X0.3822 I-0.1065 J0.
X0.5982 I0.108 J0.
X0.3792 I-0.1095 J0.
X0.6012 I0.111 J0.
X0.3762 I-0.1125 J0.
X0.6042 I0.114 J0.
X0.3732 I-0.1155 J0.
X0.6072 I0.117 J0.
X0.3702 I-0.1185 J0.
X0.6102 I0.12 J0.
X0.3672 I-0.1215 J0.
X0.6132 I0.123 J0.
X0.3642 I-0.1245 J0.
X0.6162 I0.126 J0.
X0.3612 I-0.1275 J0.
X0.6192 I0.129 J0.
X0.3582 I-0.1305 J0.
X0.6222 I0.132 J0.
X0.3552 I-0.1335 J0.
X0.6252 I0.135 J0.
X0.3522 I-0.1365 J0.
X0.6282 I0.138 J0.
X0.3492 I-0.1395 J0.
X0.6312 I0.141 J0.
X0.3462 I-0.1425 J0.
X0.6342 I0.144 J0.
X0.3432 I-0.1455 J0.
X0.6372 I0.147 J0.
X0.3402 I-0.1485 J0.
X0.6402 I0.15 J0.
X0.3372 I-0.1515 J0.
X0.6432 I0.153 J0.
X0.3342 I-0.1545 J0.
X0.6462 I0.156 J0.
X0.3312 I-0.1575 J0.
X0.6492 I0.159 J0.
X0.3282 I-0.1605 J0.
X0.6522 I0.162 J0.
X0.3252 I-0.1635 J0.
X0.6552 I0.165 J0.
X0.3222 I-0.1665 J0.
X0.6582 I0.168 J0.
X0.3192 I-0.1695 J0.
X0.6612 I0.171 J0.
X0.3162 I-0.1725 J0.
X0.6642 I0.174 J0.
X0.3132 I-0.1755 J0.
X0.6672 I0.177 J0.
X0.3102 I-0.1785 J0.
X0.6702 I0.18 J0.
X0.3072 I-0.1815 J0.
X0.6732 I0.183 J0.
X0.3042 I-0.1845 J0.
X0.6762 I0.186 J0.
X0.3012 I-0.1875 J0.
X0.6792 I0.189 J0.
X0.2982 I-0.1905 J0.
X0.6822 I0.192 J0.
X0.2952 I-0.1935 J0.
X0.6852 I0.195 J0.
X0.2922 I-0.1965 J0.
X0.6882 I0.198 J0.
X0.2892 I-0.1995 J0.
X0.6912 I0.201 J0.
X0.2862 I-0.2025 J0.
X0.6942 I0.204 J0.
X0.2832 I-0.2055 J0.
X0.6972 I0.207 J0.
X0.2802 I-0.2085 J0.
X0.7002 I0.21 J0.
X0.2772 I-0.2115 J0.
X0.7032 I0.213 J0.
X0.2742 I-0.2145 J0.
X0.7062 I0.216 J0.
X0.2712 I-0.2175 J0.
X0.7092 I0.219 J0.
X0.2682 I-0.2205 J0.
X0.7122 I0.222 J0.
X0.2652 I-0.2235 J0.
X0.7152 I0.225 J0.
X0.2622 I-0.2265 J0.
X0.7182 I0.228 J0.
X0.2592 I-0.2295 J0.
X0.7212 I0.231 J0.
X0.2562 I-0.2325 J0.
X0.7242 I0.234 J0.
X0.2532 I-0.2355 J0.
X0.7272 I0.237 J0.
X0.2502 I-0.2385 J0.
X0.7302 I0.24 J0.
X0.2472 I-0.2415 J0.
X0.7332 I0.243 J0.
X0.2442 I-0.2445 J0.
X0.7362 I0.246 J0.
X0.2412 I-0.2475 J0.
X0.7392 I0.249 J0.
X0.2382 I-0.2505 J0.
X0.7422 I0.252 J0.
X0.2352 I-0.2535 J0.
X0.7452 I0.255 J0.
X0.2322 I-0.2565 J0.
X0.7462 I0.257 J0.
X0.2312 I-0.2575 J0.
X0.7462 I0.2575 J0.
G1 X0.746 Y0.4905
X0.7452 Y0.4922
X0.744 Y0.4935
X0.7425 Y0.4945
X0.7408 Y0.4949
X0.739
X0.5298 Y0.46
X0.5292 Y0.4598
X0.5275 Y0.4596
X0.5258 Y0.4599
X0.5242 Y0.4606
X0.5229 Y0.4617
X0.4577 Y0.5347
X0.4564 Y0.5358
X0.4548 Y0.5366
G3 X0.4256 Y0.4409 Z-0.0905 I-0.0146 J-0.0478
X0.4548 Y0.5366 Z-0.0911 I0.0146 J0.0478
X0.4256 Y0.4409 Z-0.0916 I-0.0146 J-0.0478
X0.4548 Y0.5366 Z-0.0922 I0.0146 J0.0478
X0.4256 Y0.4409 Z-0.0927 I-0.0146 J-0.0478
X0.4548 Y0.5366 Z-0.0933 I0.0146 J0.0478
X0.4256 Y0.4409 Z-0.0938 I-0.0146 J-0.0478
X0.4548 Y0.5366 Z-0.0944 I0.0146 J0.0478
X0.4256 Y0.4409 Z-0.0949 I-0.0146 J-0.0478
X0.4548 Y0.5366 Z-0.0955 I0.0146 J0.0478
X0.4256 Y0.4409 Z-0.096 I-0.0146 J-0.0478
X0.4548 Y0.5366 Z-0.0966 I0.0146 J0.0478
X0.4256 Y0.4409 Z-0.0971 I-0.0146 J-0.0478
X0.4548 Y0.5366 Z-0.0977 I0.0146 J0.0478
X0.4256 Y0.4409 Z-0.0982 I-0.0146 J-0.0478
X0.4548 Y0.5366 Z-0.0988 I0.0146 J0.0478
X0.4256 Y0.4409 Z-0.0993 I-0.0146 J-0.0478
X0.4548 Y0.5366 Z-0.0999 I0.0146 J0.0478
X0.4256 Y0.4409 Z-0.1004 I-0.0146 J-0.0478
X0.4548 Y0.5366 Z-0.101 I0.0146 J0.0478
X0.4256 Y0.4409 Z-0.1015 I-0.0146 J-0.0478
X0.4548 Y0.5366 Z-0.1021 I0.0146 J0.0478
X0.4256 Y0.4409 Z-0.1026 I-0.0146 J-0.0478
X0.4548 Y0.5366 Z-0.1032 I0.0146 J0.0478
X0.4256 Y0.4409 Z-0.1037 I-0.0146 J-0.0478
X0.4548 Y0.5366 Z-0.1043 I0.0146 J0.0478
X0.4256 Y0.4409 Z-0.1048 I-0.0146 J-0.0478
X0.4548 Y0.5366 Z-0.1054 I0.0146 J0.0478
X0.4256 Y0.4409 Z-0.1059 I-0.0146 J-0.0478
X0.4548 Y0.5366 Z-0.1064 I0.0146 J0.0478
X0.4256 Y0.4409 Z-0.107 I-0.0146 J-0.0478
X0.4548 Y0.5366 Z-0.1075 I0.0146 J0.0478
X0.4256 Y0.4409 Z-0.1081 I-0.0146 J-0.0478
X0.4548 Y0.5366 Z-0.1086 I0.0146 J0.0478
X0.4256 Y0.4409 Z-0.1092 I-0.0146 J-0.0478
X0.4548 Y0.5366 Z-0.1097 I0.0146 J0.0478
X0.4256 Y0.4409 Z-0.1103 I-0.0146 J-0.0478
X0.4548 Y0.5366 Z-0.1108 I0.0146 J0.0478
X0.4256 Y0.4409 Z-0.1114 I-0.0146 J-0.0478
X0.4548 Y0.5366 Z-0.1119 I0.0146 J0.0478
X0.4256 Y0.4409 Z-0.1125 I-0.0146 J-0.0478
X0.4548 Y0.5366 Z-0.113 I0.0146 J0.0478
X0.4256 Y0.4409 Z-0.1136 I-0.0146 J-0.0478
X0.4548 Y0.5366 Z-0.1141 I0.0146 J0.0478
X0.4256 Y0.4409 Z-0.1147 I-0.0146 J-0.0478
X0.4902 Y0.4887 Z-0.115 I0.0146 J0.0478
G1 X0.49 Y0.4896
X0.4892 Y0.4902
X0.4883
X0.4875 Y0.4896
X0.4872 Y0.4887
X0.4875 Y0.4874
X0.4884 Y0.4864
X0.4896 Y0.4858
X0.4909
X0.4921 Y0.4864
X0.4929 Y0.4874
X0.4932 Y0.4887
X0.493 Y0.4903
X0.4922 Y0.4916
X0.491 Y0.4926
X0.4895 Y0.4932
X0.488
X0.4865 Y0.4926
X0.4853 Y0.4916
X0.4845 Y0.4903
X0.4842 Y0.4887
G3 X0.4962 I0.006 J0.
X0.4812 I-0.0075 J0.
X0.4992 I0.009 J0.
X0.4782 I-0.0105 J0.
X0.5022 I0.012 J0.
X0.4752 I-0.0135 J0.
X0.5052 I0.015 J0.
X0.4722 I-0.0165 J0.
X0.5082 I0.018 J0.
X0.4692 I-0.0195 J0.
X0.5112 I0.021 J0.
X0.4662 I-0.0225 J0.
X0.5142 I0.024 J0.
X0.4632 I-0.0255 J0.
X0.5172 I0.027 J0.
X0.4602 I-0.0285 J0.
X0.5202 I0.03 J0.
X0.4572 I-0.0315 J0.
X0.5232 I0.033 J0.
X0.4542 I-0.0345 J0.
X0.5262 I0.036 J0.
X0.4512 I-0.0375 J0.
X0.5292 I0.039 J0.
X0.4482 I-0.0405 J0.
X0.5322 I0.042 J0.
X0.4452 I-0.0435 J0.
X0.5352 I0.045 J0.
X0.4422 I-0.0465 J0.
X0.5382 I0.048 J0.
X0.4392 I-0.0495 J0.
X0.5412 I0.051 J0.
X0.4362 I-0.0525 J0.
X0.5442 I0.054 J0.
X0.4332 I-0.0555 J0.
X0.5472 I0.057 J0.
X0.4302 I-0.0585 J0.
X0.5502 I0.06 J0.
X0.4272 I-0.0615 J0.
X0.5532 I0.063 J0.
X0.4242 I-0.0645 J0.
X0.5562 I0.066 J0.
X0.4212 I-0.0675 J0.
X0.5592 I0.069 J0.
X0.4182 I-0.0705 J0.
X0.5622 I0.072 J0.
X0.4152 I-0.0735 J0.
X0.5652 I0.075 J0.
X0.4122 I-0.0765 J0.
X0.5682 I0.078 J0.
X0.4092 I-0.0795 J0.
X0.5712 I0.081 J0.
X0.4062 I-0.0825 J0.
X0.5742 I0.084 J0.
X0.4032 I-0.0855 J0.
X0.5772 I0.087 J0.
X0.4002 I-0.0885 J0.
X0.5802 I0.09 J0.
X0.3972 I-0.0915 J0.
X0.5832 I0.093 J0.
X0.3942 I-0.0945 J0.
X0.5862 I0.096 J0.
X0.3912 I-0.0975 J0.
X0.5892 I0.099 J0.
X0.3882 I-0.1005 J0.
X0.5922 I0.102 J0.
X0.3852 I-0.1035 J0.
X0.5952 I0.105 J0.
X0.3822 I-0.1065 J0.
X0.5982 I0.108 J0.
X0.3792 I-0.1095 J0.
X0.6012 I0.111 J0.
X0.3762 I-0.1125 J0.
X0.6042 I0.114 J0.
X0.3732 I-0.1155 J0.
X0.6072 I0.117 J0.
X0.3702 I-0.1185 J0.
X0.6102 I0.12 J0.
X0.3672 I-0.1215 J0.
X0.6132 I0.123 J0.
X0.3642 I-0.1245 J0.
X0.6162 I0.126 J0.
X0.3612 I-0.1275 J0.
X0.6192 I0.129 J0.
X0.3582 I-0.1305 J0.
X0.6222 I0.132 J0.
X0.3552 I-0.1335 J0.
X0.6252 I0.135 J0.
X0.3522 I-0.1365 J0.
X0.6282 I0.138 J0.
X0.3492 I-0.1395 J0.
X0.6312 I0.141 J0.
X0.3462 I-0.1425 J0.
X0.6342 I0.144 J0.
X0.3432 I-0.1455 J0.
X0.6372 I0.147 J0.
X0.3402 I-0.1485 J0.
X0.6402 I0.15 J0.
X0.3372 I-0.1515 J0.
X0.6432 I0.153 J0.
X0.3342 I-0.1545 J0.
X0.6462 I0.156 J0.
X0.3312 I-0.1575 J0.
X0.6492 I0.159 J0.
X0.3282 I-0.1605 J0.
X0.6522 I0.162 J0.
X0.3252 I-0.1635 J0.
X0.6552 I0.165 J0.
X0.3222 I-0.1665 J0.
X0.6582 I0.168 J0.
X0.3192 I-0.1695 J0.
X0.6612 I0.171 J0.
X0.3162 I-0.1725 J0.
X0.6642 I0.174 J0.
X0.3132 I-0.1755 J0.
X0.6672 I0.177 J0.
X0.3102 I-0.1785 J0.
X0.6702 I0.18 J0.
X0.3072 I-0.1815 J0.
X0.6732 I0.183 J0.
X0.3042 I-0.1845 J0.
X0.6762 I0.186 J0.
X0.3012 I-0.1875 J0.
X0.6792 I0.189 J0.
X0.2982 I-0.1905 J0.
X0.6822 I0.192 J0.
X0.2952 I-0.1935 J0.
X0.6852 I0.195 J0.
X0.2922 I-0.1965 J0.
X0.6882 I0.198 J0.
X0.2892 I-0.1995 J0.
X0.6912 I0.201 J0.
X0.2862 I-0.2025 J0.
X0.6942 I0.204 J0.
X0.2832 I-0.2055 J0.
X0.6972 I0.207 J0.
X0.2802 I-0.2085 J0.
X0.7002 I0.21 J0.
X0.2772 I-0.2115 J0.
X0.7032 I0.213 J0.
X0.2742 I-0.2145 J0.
X0.7062 I0.216 J0.
X0.2712 I-0.2175 J0.
X0.7092 I0.219 J0.
X0.2682 I-0.2205 J0.
X0.7122 I0.222 J0.
X0.2652 I-0.2235 J0.
X0.7152 I0.225 J0.
X0.2622 I-0.2265 J0.
X0.7182 I0.228 J0.
X0.2592 I-0.2295 J0.
X0.7212 I0.231 J0.
X0.2562 I-0.2325 J0.
X0.7242 I0.234 J0.
X0.2532 I-0.2355 J0.
X0.7272 I0.237 J0.
X0.2502 I-0.2385 J0.
X0.7302 I0.24 J0.
X0.2472 I-0.2415 J0.
X0.7332 I0.243 J0.
X0.2442 I-0.2445 J0.
X0.7362 I0.246 J0.
X0.2412 I-0.2475 J0.
X0.7392 I0.249 J0.
X0.2382 I-0.2505 J0.
X0.7422 I0.252 J0.
X0.2352 I-0.2535 J0.
X0.7452 I0.255 J0.
X0.2322 I-0.2565 J0.
X0.7462 I0.257 J0.
X0.2312 I-0.2575 J0.
X0.7462 I0.2575 J0.
G1 X0.746 Y0.4906
X0.7452 Y0.4923
X0.7439 Y0.4936
X0.7423 Y0.4946
X0.7405 Y0.495
X0.5075 Y0.5127
X0.5067 Y0.5129
X0.5049 Y0.513
X0.5031 Y0.5125
X0.5016 Y0.5116
X0.5003 Y0.5103
X0.4672 Y0.4626
G3 X0.4769 Y0.4548 I0.0051 J-0.0036
X0.4035 Y0.5227 Z-0.1155 I-0.0367 J0.034
X0.4769 Y0.4548 Z-0.1161 I0.0367 J-0.034
X0.4035 Y0.5227 Z-0.1166 I-0.0367 J0.034
X0.4769 Y0.4548 Z-0.1172 I0.0367 J-0.034
X0.4035 Y0.5227 Z-0.1177 I-0.0367 J0.034
X0.4769 Y0.4548 Z-0.1183 I0.0367 J-0.034
X0.4035 Y0.5227 Z-0.1188 I-0.0367 J0.034
X0.4769 Y0.4548 Z-0.1194 I0.0367 J-0.034
X0.4035 Y0.5227 Z-0.1199 I-0.0367 J0.034
X0.4769 Y0.4548 Z-0.1205 I0.0367 J-0.034
X0.4035 Y0.5227 Z-0.121 I-0.0367 J0.034
X0.4769 Y0.4548 Z-0.1216 I0.0367 J-0.034
X0.4035 Y0.5227 Z-0.1221 I-0.0367 J0.034
X0.4769 Y0.4548 Z-0.1227 I0.0367 J-0.034
X0.4035 Y0.5227 Z-0.1232 I-0.0367 J0.034
X0.4769 Y0.4548 Z-0.1238 I0.0367 J-0.034
X0.4035 Y0.5227 Z-0.1243 I-0.0367 J0.034
X0.4769 Y0.4548 Z-0.1249 I0.0367 J-0.034
X0.4902 Y0.4887 Z-0.125 I-0.0367 J0.034
G1 X0.49 Y0.4896
X0.4892 Y0.4902
X0.4883
X0.4875 Y0.4896
X0.4872 Y0.4887
X0.4875 Y0.4874
X0.4884 Y0.4864
X0.4896 Y0.4858
X0.4909
X0.4921 Y0.4864
X0.4929 Y0.4874
X0.4932 Y0.4887
X0.493 Y0.4903
X0.4922 Y0.4916
X0.491 Y0.4926
X0.4895 Y0.4932
X0.488
X0.4865 Y0.4926
X0.4853 Y0.4916
X0.4845 Y0.4903
X0.4842 Y0.4887
G3 X0.4962 I0.006 J0.
X0.4812 I-0.0075 J0.
X0.4992 I0.009 J0.
X0.4782 I-0.0105 J0.
X0.5022 I0.012 J0.
X0.4752 I-0.0135 J0.
X0.5052 I0.015 J0.
X0.4722 I-0.0165 J0.
X0.5082 I0.018 J0.
X0.4692 I-0.0195 J0.
X0.5112 I0.021 J0.
X0.4662 I-0.0225 J0.
X0.5142 I0.024 J0.
X0.4632 I-0.0255 J0.
X0.5172 I0.027 J0.
X0.4602 I-0.0285 J0.
X0.5202 I0.03 J0.
X0.4572 I-0.0315 J0.
X0.5232 I0.033 J0.
X0.4542 I-0.0345 J0.
X0.5262 I0.036 J0.
X0.4512 I-0.0375 J0.
X0.5292 I0.039 J0.
X0.4482 I-0.0405 J0.
X0.5322 I0.042 J0.
X0.4452 I-0.0435 J0.
X0.5352 I0.045 J0.
X0.4422 I-0.0465 J0.
X0.5382 I0.048 J0.
X0.4392 I-0.0495 J0.
X0.5412 I0.051 J0.
X0.4362 I-0.0525 J0.
X0.5442 I0.054 J0.
X0.4332 I-0.0555 J0.
X0.5472 I0.057 J0.
X0.4302 I-0.0585 J0.
X0.5502 I0.06 J0.
X0.4272 I-0.0615 J0.
X0.5532 I0.063 J0.
X0.4242 I-0.0645 J0.
X0.5562 I0.066 J0.
X0.4212 I-0.0675 J0.
X0.5592 I0.069 J0.
X0.4182 I-0.0705 J0.
X0.5622 I0.072 J0.
X0.4152 I-0.0735 J0.
X0.5652 I0.075 J0.
X0.4122 I-0.0765 J0.
X0.5682 I0.078 J0.
X0.4092 I-0.0795 J0.
X0.5712 I0.081 J0.
X0.4062 I-0.0825 J0.
X0.5742 I0.084 J0.
X0.4032 I-0.0855 J0.
X0.5772 I0.087 J0.
X0.4002 I-0.0885 J0.
X0.5802 I0.09 J0.
X0.3972 I-0.0915 J0.
X0.5832 I0.093 J0.
X0.3942 I-0.0945 J0.
X0.5862 I0.096 J0.
X0.3912 I-0.0975 J0.
X0.5892 I0.099 J0.
X0.3882 I-0.1005 J0.
X0.5922 I0.102 J0.
X0.3852 I-0.1035 J0.
X0.5952 I0.105 J0.
X0.3822 I-0.1065 J0.
X0.5982 I0.108 J0.
X0.3792 I-0.1095 J0.
X0.6012 I0.111 J0.
X0.3762 I-0.1125 J0.
X0.6042 I0.114 J0.
X0.3732 I-0.1155 J0.
X0.6072 I0.117 J0.
X0.3702 I-0.1185 J0.
X0.6102 I0.12 J0.
X0.3672 I-0.1215 J0.
X0.6132 I0.123 J0.
X0.3642 I-0.1245 J0.
X0.6162 I0.126 J0.
X0.3612 I-0.1275 J0.
X0.6192 I0.129 J0.
X0.3582 I-0.1305 J0.
X0.6222 I0.132 J0.
X0.3552 I-0.1335 J0.
X0.6252 I0.135 J0.
X0.3522 I-0.1365 J0.
X0.6282 I0.138 J0.
X0.3492 I-0.1395 J0.
X0.6312 I0.141 J0.
X0.3462 I-0.1425 J0.
X0.6342 I0.144 J0.
X0.3432 I-0.1455 J0.
X0.6372 I0.147 J0.
X0.3402 I-0.1485 J0.
X0.6402 I0.15 J0.
X0.3372 I-0.1515 J0.
X0.6432 I0.153 J0.
X0.3342 I-0.1545 J0.
X0.6462 I0.156 J0.
X0.3312 I-0.1575 J0.
X0.6492 I0.159 J0.
X0.3282 I-0.1605 J0.
X0.6522 I0.162 J0.
X0.3252 I-0.1635 J0.
X0.6552 I0.165 J0.
X0.3222 I-0.1665 J0.
X0.6582 I0.168 J0.
X0.3192 I-0.1695 J0.
X0.6612 I0.171 J0.
X0.3162 I-0.1725 J0.
X0.6642 I0.174 J0.
X0.3132 I-0.1755 J0.
X0.6672 I0.177 J0.
X0.3102 I-0.1785 J0.
X0.6702 I0.18 J0.
X0.3072 I-0.1815 J0.
X0.6732 I0.183 J0.
X0.3042 I-0.1845 J0.
X0.6762 I0.186 J0.
X0.3012 I-0.1875 J0.
X0.6792 I0.189 J0.
X0.2982 I-0.1905 J0.
X0.6822 I0.192 J0.
X0.2952 I-0.1935 J0.
X0.6852 I0.195 J0.
X0.2922 I-0.1965 J0.
X0.6882 I0.198 J0.
X0.2892 I-0.1995 J0.
X0.6912 I0.201 J0.
X0.2862 I-0.2025 J0.
X0.6942 I0.204 J0.
X0.2832 I-0.2055 J0.
X0.6972 I0.207 J0.
X0.2802 I-0.2085 J0.
X0.7002 I0.21 J0.
X0.2772 I-0.2115 J0.
X0.7032 I0.213 J0.
X0.2742 I-0.2145 J0.
X0.7062 I0.216 J0.
X0.2712 I-0.2175 J0.
X0.7092 I0.219 J0.
X0.2682 I-0.2205 J0.
X0.7122 I0.222 J0.
X0.2652 I-0.2235 J0.
X0.7152 I0.225 J0.
X0.2622 I-0.2265 J0.
X0.7182 I0.228 J0.
X0.2592 I-0.2295 J0.
X0.7212 I0.231 J0.
X0.2562 I-0.2325 J0.
X0.7242 I0.234 J0.
X0.2532 I-0.2355 J0.
X0.7272 I0.237 J0.
X0.2502 I-0.2385 J0.
X0.7302 I0.24 J0.
X0.2472 I-0.2415 J0.
X0.7332 I0.243 J0.
X0.2442 I-0.2445 J0.
X0.7362 I0.246 J0.
X0.2412 I-0.2475 J0.
X0.7392 I0.249 J0.
X0.2382 I-0.2505 J0.
X0.7422 I0.252 J0.
X0.2352 I-0.2535 J0.
X0.7452 I0.255 J0.
X0.2322 I-0.2565 J0.
X0.7462 I0.257 J0.
X0.2312 I-0.2575 J0.
X0.7462 I0.2575 J0.
G1 X0.7461 Y0.4907 Z-0.1248
X0.7456 Y0.4925 Z-0.1244
X0.745 Y0.4942 Z-0.1236
X0.7441 Y0.4957 Z-0.1226
X0.7432 Y0.4969 Z-0.1213
X0.7424 Y0.4978 Z-0.1198
X0.7416 Y0.4985 Z-0.1182
X0.741 Y0.4989 Z-0.1164
X0.7406 Y0.4992 Z-0.1145
X0.7405 Y0.4993 Z-0.1125
G0 Z0.45

(2D CONTOUR1)
S16500 M3
G4 P4.
G55
G0 X0.9629 Y0.4912
Z0.45
Z0.0514
G1 Z0.008 F2.
X0.9624 Y0.49 F98.4
X0.9622 Y0.4887
G2 X0.0152 I-0.4735 J0.
X0.9622 I0.4735 J0.
G1 X0.9621 Y0.4883
X0.9617 Y0.488
X0.9614 Y0.4877
X0.9612 Y0.4872
G2 X0.0162 Y0.4902 I-0.4725 J0.0015
X0.9612 Y0.4872 I0.4725 J-0.0015
G1 X0.9614 Y0.4859
X0.9619 Y0.4847
X0.9629 Y0.4912
Z0.006 F2.
X0.9624 Y0.49 F98.4
X0.9622 Y0.4887
G2 X0.0152 I-0.4735 J0.
X0.9622 I0.4735 J0.
G1 X0.9621 Y0.4883
X0.9617 Y0.488
X0.9614 Y0.4877
X0.9612 Y0.4872
G2 X0.0162 Y0.4902 I-0.4725 J0.0015
X0.9612 Y0.4872 I0.4725 J-0.0015
G1 X0.9614 Y0.4859
X0.9619 Y0.4847
X0.9629 Y0.4912
Z0.004 F2.
X0.9624 Y0.49 F98.4
X0.9622 Y0.4887
G2 X0.0152 I-0.4735 J0.
X0.9622 I0.4735 J0.
G1 X0.9621 Y0.4883
X0.9617 Y0.488
X0.9614 Y0.4877
X0.9612 Y0.4872
G2 X0.0162 Y0.4902 I-0.4725 J0.0015
X0.9612 Y0.4872 I0.4725 J-0.0015
G1 X0.9614 Y0.4859
X0.9619 Y0.4847
X0.9629 Y0.4912
Z0.002 F2.
X0.9624 Y0.49 F98.4
X0.9622 Y0.4887
G2 X0.0152 I-0.4735 J0.
X0.9622 I0.4735 J0.
G1 X0.9621 Y0.4883
X0.9617 Y0.488
X0.9614 Y0.4877
X0.9612 Y0.4872
G2 X0.0162 Y0.4902 I-0.4725 J0.0015
X0.9612 Y0.4872 I0.4725 J-0.0015
G1 X0.9614 Y0.4859
X0.9619 Y0.4847
X0.9629 Y0.4912
Z0. F2.
X0.9624 Y0.49 F98.4
X0.9622 Y0.4887
G2 X0.0152 I-0.4735 J0.
X0.9622 I0.4735 J0.
G1 X0.9621 Y0.4883
X0.9617 Y0.488
X0.9614 Y0.4877
X0.9612 Y0.4872
G2 X0.0162 Y0.4902 I-0.4725 J0.0015
X0.9612 Y0.4872 I0.4725 J-0.0015
G1 X0.9614 Y0.4859
X0.9619 Y0.4847
X0.9629 Y0.4912
Z-0.002 F2.
X0.9624 Y0.49 F98.4
X0.9622 Y0.4887
G2 X0.0152 I-0.4735 J0.
X0.9622 I0.4735 J0.
G1 X0.9621 Y0.4883
X0.9617 Y0.488
X0.9614 Y0.4877
X0.9612 Y0.4872
G2 X0.0162 Y0.4902 I-0.4725 J0.0015
X0.9612 Y0.4872 I0.4725 J-0.0015
G1 X0.9614 Y0.4859
X0.9619 Y0.4847
X0.9629 Y0.4912
Z-0.004 F2.
X0.9624 Y0.49 F98.4
X0.9622 Y0.4887
G2 X0.0152 I-0.4735 J0.
X0.9622 I0.4735 J0.
G1 X0.9621 Y0.4883
X0.9617 Y0.488
X0.9614 Y0.4877
X0.9612 Y0.4872
G2 X0.0162 Y0.4902 I-0.4725 J0.0015
X0.9612 Y0.4872 I0.4725 J-0.0015
G1 X0.9614 Y0.4859
X0.9619 Y0.4847
X0.9629 Y0.4912
Z-0.006 F2.
X0.9624 Y0.49 F98.4
X0.9622 Y0.4887
G2 X0.0152 I-0.4735 J0.
X0.9622 I0.4735 J0.
G1 X0.9621 Y0.4883
X0.9617 Y0.488
X0.9614 Y0.4877
X0.9612 Y0.4872
G2 X0.0162 Y0.4902 I-0.4725 J0.0015
X0.9612 Y0.4872 I0.4725 J-0.0015
G1 X0.9614 Y0.4859
X0.9619 Y0.4847
X0.9629 Y0.4912
Z-0.008 F2.
X0.9624 Y0.49 F98.4
X0.9622 Y0.4887
G2 X0.0152 I-0.4735 J0.
X0.9622 I0.4735 J0.
G1 X0.9621 Y0.4883
X0.9617 Y0.488
X0.9614 Y0.4877
X0.9612 Y0.4872
G2 X0.0162 Y0.4902 I-0.4725 J0.0015
X0.9612 Y0.4872 I0.4725 J-0.0015
G1 X0.9614 Y0.4859
X0.9619 Y0.4847
X0.9629 Y0.4912
Z-0.01 F2.
X0.9624 Y0.49 F98.4
X0.9622 Y0.4887
G2 X0.0152 I-0.4735 J0.
X0.9622 I0.4735 J0.
G1 X0.9621 Y0.4883
X0.9617 Y0.488
X0.9614 Y0.4877
X0.9612 Y0.4872
G2 X0.0162 Y0.4902 I-0.4725 J0.0015
X0.9612 Y0.4872 I0.4725 J-0.0015
G1 X0.9614 Y0.4859
X0.9619 Y0.4847
X0.9629 Y0.4912
Z-0.012 F2.
X0.9624 Y0.49 F98.4
X0.9622 Y0.4887
G2 X0.0152 I-0.4735 J0.
X0.9622 I0.4735 J0.
G1 X0.9621 Y0.4883
X0.9617 Y0.488
X0.9614 Y0.4877
X0.9612 Y0.4872
G2 X0.0162 Y0.4902 I-0.4725 J0.0015
X0.9612 Y0.4872 I0.4725 J-0.0015
G1 X0.9614 Y0.4859
X0.9619 Y0.4847
X0.9629 Y0.4912
Z-0.014 F2.
X0.9624 Y0.49 F98.4
X0.9622 Y0.4887
G2 X0.0152 I-0.4735 J0.
X0.9622 I0.4735 J0.
G1 X0.9621 Y0.4883
X0.9617 Y0.488
X0.9614 Y0.4877
X0.9612 Y0.4872
G2 X0.0162 Y0.4902 I-0.4725 J0.0015
X0.9612 Y0.4872 I0.4725 J-0.0015
G1 X0.9614 Y0.4859
X0.9619 Y0.4847
X0.9629 Y0.4912
Z-0.016 F2.
X0.9624 Y0.49 F98.4
X0.9622 Y0.4887
G2 X0.0152 I-0.4735 J0.
X0.9622 I0.4735 J0.
G1 X0.9621 Y0.4883
X0.9617 Y0.488
X0.9614 Y0.4877
X0.9612 Y0.4872
G2 X0.0162 Y0.4902 I-0.4725 J0.0015
X0.9612 Y0.4872 I0.4725 J-0.0015
G1 X0.9614 Y0.4859
X0.9619 Y0.4847
X0.9629 Y0.4912
Z-0.018 F2.
X0.9624 Y0.49 F98.4
X0.9622 Y0.4887
G2 X0.0152 I-0.4735 J0.
X0.9622 I0.4735 J0.
G1 X0.9621 Y0.4883
X0.9617 Y0.488
X0.9614 Y0.4877
X0.9612 Y0.4872
G2 X0.0162 Y0.4902 I-0.4725 J0.0015
X0.9612 Y0.4872 I0.4725 J-0.0015
G1 X0.9614 Y0.4859
X0.9619 Y0.4847
X0.9629 Y0.4912
Z-0.02 F2.
X0.9624 Y0.49 F98.4
X0.9622 Y0.4887
G2 X0.0152 I-0.4735 J0.
X0.9622 I0.4735 J0.
G1 X0.9621 Y0.4883
X0.9617 Y0.488
X0.9614 Y0.4877
X0.9612 Y0.4872
G2 X0.0162 Y0.4902 I-0.4725 J0.0015
X0.9612 Y0.4872 I0.4725 J-0.0015
G1 X0.9614 Y0.4859
X0.9619 Y0.4847
X0.9629 Y0.4912
Z-0.022 F2.
X0.9624 Y0.49 F98.4
X0.9622 Y0.4887
G2 X0.0152 I-0.4735 J0.
X0.9622 I0.4735 J0.
G1 X0.9621 Y0.4883
X0.9617 Y0.488
X0.9614 Y0.4877
X0.9612 Y0.4872
G2 X0.0162 Y0.4902 I-0.4725 J0.0015
X0.9612 Y0.4872 I0.4725 J-0.0015
G1 X0.9614 Y0.4859
X0.9619 Y0.4847
X0.9629 Y0.4912
Z-0.024 F2.
X0.9624 Y0.49 F98.4
X0.9622 Y0.4887
G2 X0.0152 I-0.4735 J0.
X0.9622 I0.4735 J0.
G1 X0.9621 Y0.4883
X0.9617 Y0.488
X0.9614 Y0.4877
X0.9612 Y0.4872
G2 X0.0162 Y0.4902 I-0.4725 J0.0015
X0.9612 Y0.4872 I0.4725 J-0.0015
G1 X0.9614 Y0.4859
X0.9619 Y0.4847
X0.9629 Y0.4912
Z-0.026 F2.
X0.9624 Y0.49 F98.4
X0.9622 Y0.4887
G2 X0.0152 I-0.4735 J0.
X0.9622 I0.4735 J0.
G1 X0.9621 Y0.4883
X0.9617 Y0.488
X0.9614 Y0.4877
X0.9612 Y0.4872
G2 X0.0162 Y0.4902 I-0.4725 J0.0015
X0.9612 Y0.4872 I0.4725 J-0.0015
G1 X0.9614 Y0.4859
X0.9619 Y0.4847
X0.9629 Y0.4912
Z-0.028 F2.
X0.9624 Y0.49 F98.4
X0.9622 Y0.4887
G2 X0.0152 I-0.4735 J0.
X0.9622 I0.4735 J0.
G1 X0.9621 Y0.4883
X0.9617 Y0.488
X0.9614 Y0.4877
X0.9612 Y0.4872
G2 X0.0162 Y0.4902 I-0.4725 J0.0015
X0.9612 Y0.4872 I0.4725 J-0.0015
G1 X0.9614 Y0.4859
X0.9619 Y0.4847
X0.9629 Y0.4912
Z-0.03 F2.
X0.9624 Y0.49 F98.4
X0.9622 Y0.4887
G2 X0.0152 I-0.4735 J0.
X0.9622 I0.4735 J0.
G1 X0.9621 Y0.4883
X0.9617 Y0.488
X0.9614 Y0.4877
X0.9612 Y0.4872
G2 X0.0162 Y0.4902 I-0.4725 J0.0015
X0.9612 Y0.4872 I0.4725 J-0.0015
G1 X0.9614 Y0.4859
X0.9619 Y0.4847
X0.9629 Y0.4912
Z-0.032 F2.
X0.9624 Y0.49 F98.4
X0.9622 Y0.4887
G2 X0.0152 I-0.4735 J0.
X0.9622 I0.4735 J0.
G1 X0.9621 Y0.4883
X0.9617 Y0.488
X0.9614 Y0.4877
X0.9612 Y0.4872
G2 X0.0162 Y0.4902 I-0.4725 J0.0015
X0.9612 Y0.4872 I0.4725 J-0.0015
G1 X0.9614 Y0.4859
X0.9619 Y0.4847
X0.9629 Y0.4912
Z-0.034 F2.
X0.9624 Y0.49 F98.4
X0.9622 Y0.4887
G2 X0.0152 I-0.4735 J0.
X0.9622 I0.4735 J0.
G1 X0.9621 Y0.4883
X0.9617 Y0.488
X0.9614 Y0.4877
X0.9612 Y0.4872
G2 X0.0162 Y0.4902 I-0.4725 J0.0015
X0.9612 Y0.4872 I0.4725 J-0.0015
G1 X0.9614 Y0.4859
X0.9619 Y0.4847
X0.9629 Y0.4912
Z-0.036 F2.
X0.9624 Y0.49 F98.4
X0.9622 Y0.4887
G2 X0.0152 I-0.4735 J0.
X0.9622 I0.4735 J0.
G1 X0.9621 Y0.4883
X0.9617 Y0.488
X0.9614 Y0.4877
X0.9612 Y0.4872
G2 X0.0162 Y0.4902 I-0.4725 J0.0015
X0.9612 Y0.4872 I0.4725 J-0.0015
G1 X0.9614 Y0.4859
X0.9619 Y0.4847
X0.9629 Y0.4912
Z-0.038 F2.
X0.9624 Y0.49 F98.4
X0.9622 Y0.4887
G2 X0.0152 I-0.4735 J0.
X0.9622 I0.4735 J0.
G1 X0.9621 Y0.4883
X0.9617 Y0.488
X0.9614 Y0.4877
X0.9612 Y0.4872
G2 X0.0162 Y0.4902 I-0.4725 J0.0015
X0.9612 Y0.4872 I0.4725 J-0.0015
G1 X0.9614 Y0.4859
X0.9619 Y0.4847
X0.9629 Y0.4912
Z-0.04 F2.
X0.9624 Y0.49 F98.4
X0.9622 Y0.4887
G2 X0.0152 I-0.4735 J0.
X0.9622 I0.4735 J0.
G1 X0.9621 Y0.4883
X0.9617 Y0.488
X0.9614 Y0.4877
X0.9612 Y0.4872
G2 X0.0162 Y0.4902 I-0.4725 J0.0015
X0.9612 Y0.4872 I0.4725 J-0.0015
G1 X0.9614 Y0.4859
X0.9619 Y0.4847
X0.9629 Y0.4912
Z-0.042 F2.
X0.9624 Y0.49 F98.4
X0.9622 Y0.4887
G2 X0.0152 I-0.4735 J0.
X0.9622 I0.4735 J0.
G1 X0.9621 Y0.4883
X0.9617 Y0.488
X0.9614 Y0.4877
X0.9612 Y0.4872
G2 X0.0162 Y0.4902 I-0.4725 J0.0015
X0.9612 Y0.4872 I0.4725 J-0.0015
G1 X0.9614 Y0.4859
X0.9619 Y0.4847
X0.9629 Y0.4912
Z-0.044 F2.
X0.9624 Y0.49 F98.4
X0.9622 Y0.4887
G2 X0.0152 I-0.4735 J0.
X0.9622 I0.4735 J0.
G1 X0.9621 Y0.4883
X0.9617 Y0.488
X0.9614 Y0.4877
X0.9612 Y0.4872
G2 X0.0162 Y0.4902 I-0.4725 J0.0015
X0.9612 Y0.4872 I0.4725 J-0.0015
G1 X0.9614 Y0.4859
X0.9619 Y0.4847
X0.9629 Y0.4912
Z-0.046 F2.
X0.9624 Y0.49 F98.4
X0.9622 Y0.4887
G2 X0.0152 I-0.4735 J0.
X0.9622 I0.4735 J0.
G1 X0.9621 Y0.4883
X0.9617 Y0.488
X0.9614 Y0.4877
X0.9612 Y0.4872
G2 X0.0162 Y0.4902 I-0.4725 J0.0015
X0.9612 Y0.4872 I0.4725 J-0.0015
G1 X0.9614 Y0.4859
X0.9619 Y0.4847
X0.9629 Y0.4912
Z-0.048 F2.
X0.9624 Y0.49 F98.4
X0.9622 Y0.4887
G2 X0.0152 I-0.4735 J0.
X0.9622 I0.4735 J0.
G1 X0.9621 Y0.4883
X0.9617 Y0.488
X0.9614 Y0.4877
X0.9612 Y0.4872
G2 X0.0162 Y0.4902 I-0.4725 J0.0015
X0.9612 Y0.4872 I0.4725 J-0.0015
G1 X0.9614 Y0.4859
X0.9619 Y0.4847
X0.9629 Y0.4912
Z-0.05 F2.
X0.9624 Y0.49 F98.4
X0.9622 Y0.4887
G2 X0.0152 I-0.4735 J0.
X0.9622 I0.4735 J0.
G1 X0.9621 Y0.4883
X0.9617 Y0.488
X0.9614 Y0.4877
X0.9612 Y0.4872
G2 X0.0162 Y0.4902 I-0.4725 J0.0015
X0.9612 Y0.4872 I0.4725 J-0.0015
G1 X0.9614 Y0.4859
X0.9619 Y0.4847
X0.9629 Y0.4912
Z-0.052 F2.
X0.9624 Y0.49 F98.4
X0.9622 Y0.4887
G2 X0.0152 I-0.4735 J0.
X0.9622 I0.4735 J0.
G1 X0.9621 Y0.4883
X0.9617 Y0.488
X0.9614 Y0.4877
X0.9612 Y0.4872
G2 X0.0162 Y0.4902 I-0.4725 J0.0015
X0.9612 Y0.4872 I0.4725 J-0.0015
G1 X0.9614 Y0.4859
X0.9619 Y0.4847
X0.9629 Y0.4912
Z-0.054 F2.
X0.9624 Y0.49 F98.4
X0.9622 Y0.4887
G2 X0.0152 I-0.4735 J0.
X0.9622 I0.4735 J0.
G1 X0.9621 Y0.4883
X0.9617 Y0.488
X0.9614 Y0.4877
X0.9612 Y0.4872
G2 X0.0162 Y0.4902 I-0.4725 J0.0015
X0.9612 Y0.4872 I0.4725 J-0.0015
G1 X0.9614 Y0.4859
X0.9619 Y0.4847
X0.9629 Y0.4912
Z-0.056 F2.
X0.9624 Y0.49 F98.4
X0.9622 Y0.4887
G2 X0.0152 I-0.4735 J0.
X0.9622 I0.4735 J0.
G1 X0.9621 Y0.4883
X0.9617 Y0.488
X0.9614 Y0.4877
X0.9612 Y0.4872
G2 X0.0162 Y0.4902 I-0.4725 J0.0015
X0.9612 Y0.4872 I0.4725 J-0.0015
G1 X0.9614 Y0.4859
X0.9619 Y0.4847
X0.9629 Y0.4912
Z-0.058 F2.
X0.9624 Y0.49 F98.4
X0.9622 Y0.4887
G2 X0.0152 I-0.4735 J0.
X0.9622 I0.4735 J0.
G1 X0.9621 Y0.4883
X0.9617 Y0.488
X0.9614 Y0.4877
X0.9612 Y0.4872
G2 X0.0162 Y0.4902 I-0.4725 J0.0015
X0.9612 Y0.4872 I0.4725 J-0.0015
G1 X0.9614 Y0.4859
X0.9619 Y0.4847
X0.9629 Y0.4912
Z-0.06 F2.
X0.9624 Y0.49 F98.4
X0.9622 Y0.4887
G2 X0.0152 I-0.4735 J0.
X0.9622 I0.4735 J0.
G1 X0.9621 Y0.4883
X0.9617 Y0.488
X0.9614 Y0.4877
X0.9612 Y0.4872
G2 X0.0162 Y0.4902 I-0.4725 J0.0015
X0.9612 Y0.4872 I0.4725 J-0.0015
G1 X0.9614 Y0.4859
X0.9619 Y0.4847
X0.9629 Y0.4912
Z-0.062 F2.
X0.9624 Y0.49 F98.4
X0.9622 Y0.4887
G2 X0.0152 I-0.4735 J0.
X0.9622 I0.4735 J0.
G1 X0.9621 Y0.4883
X0.9617 Y0.488
X0.9614 Y0.4877
X0.9612 Y0.4872
G2 X0.0162 Y0.4902 I-0.4725 J0.0015
X0.9612 Y0.4872 I0.4725 J-0.0015
G1 X0.9614 Y0.4859
X0.9619 Y0.4847
X0.9629 Y0.4912
Z-0.064 F2.
X0.9624 Y0.49 F98.4
X0.9622 Y0.4887
G2 X0.0152 I-0.4735 J0.
X0.9622 I0.4735 J0.
G1 X0.9621 Y0.4883
X0.9617 Y0.488
X0.9614 Y0.4877
X0.9612 Y0.4872
G2 X0.0162 Y0.4902 I-0.4725 J0.0015
X0.9612 Y0.4872 I0.4725 J-0.0015
G1 X0.9614 Y0.4859
X0.9619 Y0.4847
X0.9629 Y0.4912
Z-0.066 F2.
X0.9624 Y0.49 F98.4
X0.9622 Y0.4887
G2 X0.0152 I-0.4735 J0.
X0.9622 I0.4735 J0.
G1 X0.9621 Y0.4883
X0.9617 Y0.488
X0.9614 Y0.4877
X0.9612 Y0.4872
G2 X0.0162 Y0.4902 I-0.4725 J0.0015
X0.9612 Y0.4872 I0.4725 J-0.0015
G1 X0.9614 Y0.4859
X0.9619 Y0.4847
X0.9629 Y0.4912
Z-0.068 F2.
X0.9624 Y0.49 F98.4
X0.9622 Y0.4887
G2 X0.0152 I-0.4735 J0.
X0.9622 I0.4735 J0.
G1 X0.9621 Y0.4883
X0.9617 Y0.488
X0.9614 Y0.4877
X0.9612 Y0.4872
G2 X0.0162 Y0.4902 I-0.4725 J0.0015
X0.9612 Y0.4872 I0.4725 J-0.0015
G1 X0.9614 Y0.4859
X0.9619 Y0.4847
X0.9629 Y0.4912
Z-0.07 F2.
X0.9624 Y0.49 F98.4
X0.9622 Y0.4887
G2 X0.0152 I-0.4735 J0.
X0.9622 I0.4735 J0.
G1 X0.9621 Y0.4883
X0.9617 Y0.488
X0.9614 Y0.4877
X0.9612 Y0.4872
G2 X0.0162 Y0.4902 I-0.4725 J0.0015
X0.9612 Y0.4872 I0.4725 J-0.0015
G1 X0.9614 Y0.4859
X0.9619 Y0.4847
X0.9629 Y0.4912
Z-0.072 F2.
X0.9624 Y0.49 F98.4
X0.9622 Y0.4887
G2 X0.0152 I-0.4735 J0.
X0.9622 I0.4735 J0.
G1 X0.9621 Y0.4883
X0.9617 Y0.488
X0.9614 Y0.4877
X0.9612 Y0.4872
G2 X0.0162 Y0.4902 I-0.4725 J0.0015
X0.9612 Y0.4872 I0.4725 J-0.0015
G1 X0.9614 Y0.4859
X0.9619 Y0.4847
X0.9629 Y0.4912
Z-0.074 F2.
X0.9624 Y0.49 F98.4
X0.9622 Y0.4887
G2 X0.0152 I-0.4735 J0.
X0.9622 I0.4735 J0.
G1 X0.9621 Y0.4883
X0.9617 Y0.488
X0.9614 Y0.4877
X0.9612 Y0.4872
G2 X0.0162 Y0.4902 I-0.4725 J0.0015
X0.9612 Y0.4872 I0.4725 J-0.0015
G1 X0.9614 Y0.4859
X0.9619 Y0.4847
X0.9629 Y0.4912
Z-0.076 F2.
X0.9624 Y0.49 F98.4
X0.9622 Y0.4887
G2 X0.0152 I-0.4735 J0.
X0.9622 I0.4735 J0.
G1 X0.9621 Y0.4883
X0.9617 Y0.488
X0.9614 Y0.4877
X0.9612 Y0.4872
G2 X0.0162 Y0.4902 I-0.4725 J0.0015
X0.9612 Y0.4872 I0.4725 J-0.0015
G1 X0.9614 Y0.4859
X0.9619 Y0.4847
X0.9629 Y0.4912
Z-0.078 F2.
X0.9624 Y0.49 F98.4
X0.9622 Y0.4887
G2 X0.0152 I-0.4735 J0.
X0.9622 I0.4735 J0.
G1 X0.9621 Y0.4883
X0.9617 Y0.488
X0.9614 Y0.4877
X0.9612 Y0.4872
G2 X0.0162 Y0.4902 I-0.4725 J0.0015
X0.9612 Y0.4872 I0.4725 J-0.0015
G1 X0.9614 Y0.4859
X0.9619 Y0.4847
X0.9629 Y0.4912
Z-0.08 F2.
X0.9624 Y0.49 F98.4
X0.9622 Y0.4887
G2 X0.0152 I-0.4735 J0.
X0.9622 I0.4735 J0.
G1 X0.9621 Y0.4883
X0.9617 Y0.488
X0.9614 Y0.4877
X0.9612 Y0.4872
G2 X0.0162 Y0.4902 I-0.4725 J0.0015
X0.9612 Y0.4872 I0.4725 J-0.0015
G1 X0.9614 Y0.4859
X0.9619 Y0.4847
X0.9629 Y0.4912
Z-0.082 F2.
X0.9624 Y0.49 F98.4
X0.9622 Y0.4887
G2 X0.0152 I-0.4735 J0.
X0.9622 I0.4735 J0.
G1 X0.9621 Y0.4883
X0.9617 Y0.488
X0.9614 Y0.4877
X0.9612 Y0.4872
G2 X0.0162 Y0.4902 I-0.4725 J0.0015
X0.9612 Y0.4872 I0.4725 J-0.0015
G1 X0.9614 Y0.4859
X0.9619 Y0.4847
X0.9629 Y0.4912
Z-0.084 F2.
X0.9624 Y0.49 F98.4
X0.9622 Y0.4887
G2 X0.0152 I-0.4735 J0.
X0.9622 I0.4735 J0.
G1 X0.9621 Y0.4883
X0.9617 Y0.488
X0.9614 Y0.4877
X0.9612 Y0.4872
G2 X0.0162 Y0.4902 I-0.4725 J0.0015
X0.9612 Y0.4872 I0.4725 J-0.0015
G1 X0.9614 Y0.4859
X0.9619 Y0.4847
X0.9629 Y0.4912
Z-0.086 F2.
X0.9624 Y0.49 F98.4
X0.9622 Y0.4887
G2 X0.0152 I-0.4735 J0.
X0.9622 I0.4735 J0.
G1 X0.9621 Y0.4883
X0.9617 Y0.488
X0.9614 Y0.4877
X0.9612 Y0.4872
G2 X0.0162 Y0.4902 I-0.4725 J0.0015
X0.9612 Y0.4872 I0.4725 J-0.0015
G1 X0.9614 Y0.4859
X0.9619 Y0.4847
X0.9629 Y0.4912
Z-0.088 F2.
X0.9624 Y0.49 F98.4
X0.9622 Y0.4887
G2 X0.0152 I-0.4735 J0.
X0.9622 I0.4735 J0.
G1 X0.9621 Y0.4883
X0.9617 Y0.488
X0.9614 Y0.4877
X0.9612 Y0.4872
G2 X0.0162 Y0.4902 I-0.4725 J0.0015
X0.9612 Y0.4872 I0.4725 J-0.0015
G1 X0.9614 Y0.4859
X0.9619 Y0.4847
X0.9629 Y0.4912
Z-0.09 F2.
X0.9624 Y0.49 F98.4
X0.9622 Y0.4887
G2 X0.0152 I-0.4735 J0.
X0.9622 I0.4735 J0.
G1 X0.9621 Y0.4883
X0.9617 Y0.488
X0.9614 Y0.4877
X0.9612 Y0.4872
G2 X0.0162 Y0.4902 I-0.4725 J0.0015
X0.9612 Y0.4872 I0.4725 J-0.0015
G1 X0.9614 Y0.4859
X0.9619 Y0.4847
X0.9629 Y0.4912
Z-0.092 F2.
X0.9624 Y0.49 F98.4
X0.9622 Y0.4887
G2 X0.0152 I-0.4735 J0.
X0.9622 I0.4735 J0.
G1 X0.9621 Y0.4883
X0.9617 Y0.488
X0.9614 Y0.4877
X0.9612 Y0.4872
G2 X0.0162 Y0.4902 I-0.4725 J0.0015
X0.9612 Y0.4872 I0.4725 J-0.0015
G1 X0.9614 Y0.4859
X0.9619 Y0.4847
X0.9629 Y0.4912
Z-0.094 F2.
X0.9624 Y0.49 F98.4
X0.9622 Y0.4887
G2 X0.0152 I-0.4735 J0.
X0.9622 I0.4735 J0.
G1 X0.9621 Y0.4883
X0.9617 Y0.488
X0.9614 Y0.4877
X0.9612 Y0.4872
G2 X0.0162 Y0.4902 I-0.4725 J0.0015
X0.9612 Y0.4872 I0.4725 J-0.0015
G1 X0.9614 Y0.4859
X0.9619 Y0.4847
X0.9629 Y0.4912
Z-0.096 F2.
X0.9624 Y0.49 F98.4
X0.9622 Y0.4887
G2 X0.0152 I-0.4735 J0.
X0.9622 I0.4735 J0.
G1 X0.9621 Y0.4883
X0.9617 Y0.488
X0.9614 Y0.4877
X0.9612 Y0.4872
G2 X0.0162 Y0.4902 I-0.4725 J0.0015
X0.9612 Y0.4872 I0.4725 J-0.0015
G1 X0.9614 Y0.4859
X0.9619 Y0.4847
X0.9629 Y0.4912
Z-0.098 F2.
X0.9624 Y0.49 F98.4
X0.9622 Y0.4887
G2 X0.0152 I-0.4735 J0.
X0.9622 I0.4735 J0.
G1 X0.9621 Y0.4883
X0.9617 Y0.488
X0.9614 Y0.4877
X0.9612 Y0.4872
G2 X0.0162 Y0.4902 I-0.4725 J0.0015
X0.9612 Y0.4872 I0.4725 J-0.0015
G1 X0.9614 Y0.4859
X0.9619 Y0.4847
X0.9629 Y0.4912
Z-0.1 F2.
X0.9624 Y0.49 F98.4
X0.9622 Y0.4887
G2 X0.0152 I-0.4735 J0.
X0.9622 I0.4735 J0.
G1 X0.9621 Y0.4883
X0.9617 Y0.488
X0.9614 Y0.4877
X0.9612 Y0.4872
G2 X0.0162 Y0.4902 I-0.4725 J0.0015
X0.9612 Y0.4872 I0.4725 J-0.0015
G1 X0.9614 Y0.4859
X0.9619 Y0.4847
X0.9629 Y0.4912
Z-0.102 F2.
X0.9624 Y0.49 F98.4
X0.9622 Y0.4887
G2 X0.0152 I-0.4735 J0.
X0.9622 I0.4735 J0.
G1 X0.9621 Y0.4883
X0.9617 Y0.488
X0.9614 Y0.4877
X0.9612 Y0.4872
G2 X0.0162 Y0.4902 I-0.4725 J0.0015
X0.9612 Y0.4872 I0.4725 J-0.0015
G1 X0.9614 Y0.4859
X0.9619 Y0.4847
X0.9629 Y0.4912
Z-0.104 F2.
X0.9624 Y0.49 F98.4
X0.9622 Y0.4887
G2 X0.0152 I-0.4735 J0.
X0.9622 I0.4735 J0.
G1 X0.9621 Y0.4883
X0.9617 Y0.488
X0.9614 Y0.4877
X0.9612 Y0.4872
G2 X0.0162 Y0.4902 I-0.4725 J0.0015
X0.9612 Y0.4872 I0.4725 J-0.0015
G1 X0.9614 Y0.4859
X0.9619 Y0.4847
X0.9629 Y0.4912
Z-0.106 F2.
X0.9624 Y0.49 F98.4
X0.9622 Y0.4887
G2 X0.0152 I-0.4735 J0.
X0.9622 I0.4735 J0.
G1 X0.9621 Y0.4883
X0.9617 Y0.488
X0.9614 Y0.4877
X0.9612 Y0.4872
G2 X0.0162 Y0.4902 I-0.4725 J0.0015
X0.9612 Y0.4872 I0.4725 J-0.0015
G1 X0.9614 Y0.4859
X0.9619 Y0.4847
X0.9629 Y0.4912
Z-0.108 F2.
X0.9624 Y0.49 F98.4
X0.9622 Y0.4887
G2 X0.0152 I-0.4735 J0.
X0.9622 I0.4735 J0.
G1 X0.9621 Y0.4883
X0.9617 Y0.488
X0.9614 Y0.4877
X0.9612 Y0.4872
G2 X0.0162 Y0.4902 I-0.4725 J0.0015
X0.9612 Y0.4872 I0.4725 J-0.0015
G1 X0.9614 Y0.4859
X0.9619 Y0.4847
X0.9629 Y0.4912
Z-0.11 F2.
X0.9624 Y0.49 F98.4
X0.9622 Y0.4887
G2 X0.0152 I-0.4735 J0.
X0.9622 I0.4735 J0.
G1 X0.9621 Y0.4883
X0.9617 Y0.488
X0.9614 Y0.4877
X0.9612 Y0.4872
G2 X0.0162 Y0.4902 I-0.4725 J0.0015
X0.9612 Y0.4872 I0.4725 J-0.0015
G1 X0.9614 Y0.4859
X0.9619 Y0.4847
X0.9629 Y0.4912
Z-0.112 F2.
X0.9624 Y0.49 F98.4
X0.9622 Y0.4887
G2 X0.0152 I-0.4735 J0.
X0.9622 I0.4735 J0.
G1 X0.9621 Y0.4883
X0.9617 Y0.488
X0.9614 Y0.4877
X0.9612 Y0.4872
G2 X0.0162 Y0.4902 I-0.4725 J0.0015
X0.9612 Y0.4872 I0.4725 J-0.0015
G1 X0.9614 Y0.4859
X0.9619 Y0.4847
X0.9629 Y0.4912
Z-0.114 F2.
X0.9624 Y0.49 F98.4
X0.9622 Y0.4887
G2 X0.0152 I-0.4735 J0.
X0.9622 I0.4735 J0.
G1 X0.9621 Y0.4883
X0.9617 Y0.488
X0.9614 Y0.4877
X0.9612 Y0.4872
G2 X0.0162 Y0.4902 I-0.4725 J0.0015
X0.9612 Y0.4872 I0.4725 J-0.0015
G1 X0.9614 Y0.4859
X0.9619 Y0.4847
X0.9629 Y0.4912
Z-0.116 F2.
X0.9624 Y0.49 F98.4
X0.9622 Y0.4887
G2 X0.0152 I-0.4735 J0.
X0.9622 I0.4735 J0.
G1 X0.9621 Y0.4883
X0.9617 Y0.488
X0.9614 Y0.4877
X0.9612 Y0.4872
G2 X0.0162 Y0.4902 I-0.4725 J0.0015
X0.9612 Y0.4872 I0.4725 J-0.0015
G1 X0.9614 Y0.4859
X0.9619 Y0.4847
X0.9629 Y0.4912
Z-0.118 F2.
X0.9624 Y0.49 F98.4
X0.9622 Y0.4887
G2 X0.0152 I-0.4735 J0.
X0.9622 I0.4735 J0.
G1 X0.9621 Y0.4883
X0.9617 Y0.488
X0.9614 Y0.4877
X0.9612 Y0.4872
G2 X0.0162 Y0.4902 I-0.4725 J0.0015
X0.9612 Y0.4872 I0.4725 J-0.0015
G1 X0.9614 Y0.4859
X0.9619 Y0.4847
X0.9629 Y0.4912
Z-0.12 F2.
X0.9624 Y0.49 F98.4
X0.9622 Y0.4887
G2 X0.0152 I-0.4735 J0.
X0.9622 I0.4735 J0.
G1 X0.9621 Y0.4883
X0.9617 Y0.488
X0.9614 Y0.4877
X0.9612 Y0.4872
G2 X0.0162 Y0.4902 I-0.4725 J0.0015
X0.9612 Y0.4872 I0.4725 J-0.0015
G1 X0.9614 Y0.4859
X0.9619 Y0.4847
X0.9629 Y0.4912
Z-0.122 F2.
X0.9624 Y0.49 F98.4
X0.9622 Y0.4887
G2 X0.0152 I-0.4735 J0.
X0.9622 I0.4735 J0.
G1 X0.9621 Y0.4883
X0.9617 Y0.488
X0.9614 Y0.4877
X0.9612 Y0.4872
G2 X0.0162 Y0.4902 I-0.4725 J0.0015
X0.9612 Y0.4872 I0.4725 J-0.0015
G1 X0.9614 Y0.4859
X0.9619 Y0.4847
X0.9629 Y0.4912
Z-0.124 F2.
X0.9624 Y0.49 F98.4
X0.9622 Y0.4887
G2 X0.0152 I-0.4735 J0.
X0.9622 I0.4735 J0.
G1 X0.9621 Y0.4883
X0.9617 Y0.488
X0.9614 Y0.4877
X0.9612 Y0.4872
G2 X0.0162 Y0.4902 I-0.4725 J0.0015
X0.9612 Y0.4872 I0.4725 J-0.0015
G1 X0.9614 Y0.4859
X0.9619 Y0.4847
X0.9629 Y0.4912
Z-0.125 F2.
X0.9624 Y0.49 F98.4
X0.9622 Y0.4887
G2 X0.0152 I-0.4735 J0.
X0.9622 I0.4735 J0.
G1 X0.9621 Y0.4883
X0.9617 Y0.488
X0.9614 Y0.4877
X0.9612 Y0.4872
G2 X0.0162 Y0.4902 I-0.4725 J0.0015
X0.9612 Y0.4872 I0.4725 J-0.0015
G1 X0.9614 Y0.4859
X0.9619 Y0.4847
G0 Z0.45

G53 Z0.
M30
