(1001)
(T1  D=3.175 CR=0. - ZMIN=-3.175 - FLAT END MILL)
(T2  D=3.175 CR=0. TAPER=40DEG - ZMIN=-1.102 - CHAMFER MILL)
G0 G90 G94 G17
G21
G53 G0 Z0.

(FACE)
M5
M9
T1 M6
S16500 M3
G4 P4.
G55
G0 X19.101 Y2.318
Z11.43
Z2.794
G1 Z0.211 F1016.
X18.33
X6.371
X4.35
G2 Y4.203 I0. J0.943
G1 X20.351
X21.582
G3 Y6.089 I0. J0.943
G1 X3.119
X2.388
G2 Y7.974 I0. J0.943
G1 X22.313
X22.657
G3 Y9.86 I0. J0.943
G1 X2.044
X2.
G2 Y11.745 I0. J0.943
G1 X22.701
G3 Y13.631 I0. J0.943
G1 X2.
G2 Y15.516 I0. J0.943
G1 X2.126
X22.575
G3 Y17.402 I0. J0.943
G1 X22.1
X2.601
G2 Y19.287 I0. J0.943
G1 X3.49
X21.211
G3 Y21.173 I0. J0.943
G1 X19.749
X4.952
G0 Z5.08
X5.6 Y2.318
Z2.794
G1 Z0.161 F1016.
X6.371
X18.33
X20.351
G3 Y4.203 I0. J0.943
G1 X4.35
X3.119
G2 Y6.089 I0. J0.943
G1 X21.582
X22.313
G3 Y7.974 I0. J0.943
G1 X2.388
X2.044
G2 Y9.86 I0. J0.943
G1 X22.657
X22.701
G3 Y11.745 I0. J0.943
G1 X2.
G2 Y13.631 I0. J0.943
G1 X22.701
G3 Y15.516 I0. J0.943
G1 X22.575
X2.126
G2 Y17.402 I0. J0.943
G1 X2.601
X22.1
G3 Y19.287 I0. J0.943
G1 X21.211
X3.49
G2 Y21.173 I0. J0.943
G1 X4.952
X19.749
G0 Z5.08
X19.101 Y2.318
Z2.794
G1 Z0.111 F1016.
X18.33
X6.371
X4.35
G2 Y4.203 I0. J0.943
G1 X20.351
X21.582
G3 Y6.089 I0. J0.943
G1 X3.119
X2.388
G2 Y7.974 I0. J0.943
G1 X22.313
X22.657
G3 Y9.86 I0. J0.943
G1 X2.044
X2.
G2 Y11.745 I0. J0.943
G1 X22.701
G3 Y13.631 I0. J0.943
G1 X2.
G2 Y15.516 I0. J0.943
G1 X2.126
X22.575
G3 Y17.402 I0. J0.943
G1 X22.1
X2.601
G2 Y19.287 I0. J0.943
G1 X3.49
X21.211
G3 Y21.173 I0. J0.943
G1 X19.749
X4.952
G0 Z5.08
X5.6 Y2.318
Z2.794
G1 Z0.061 F1016.
X6.371
X18.33
X20.351
G3 Y4.203 I0. J0.943
G1 X4.35
X3.119
G2 Y6.089 I0. J0.943
G1 X21.582
X22.313
G3 Y7.974 I0. J0.943
G1 X2.388
X2.044
G2 Y9.86 I0. J0.943
G1 X22.657
X22.701
G3 Y11.745 I0. J0.943
G1 X2.
G2 Y13.631 I0. J0.943
G1 X22.701
G3 Y15.516 I0. J0.943
G1 X22.575
X2.126
G2 Y17.402 I0. J0.943
G1 X2.601
X22.1
G3 Y19.287 I0. J0.943
G1 X21.211
X3.49
G2 Y21.173 I0. J0.943
G1 X4.952
X19.749
G0 Z5.08
X19.101 Y2.318
Z2.794
G1 Z0.011 F1016.
X18.33
X6.371
X4.35
G2 Y4.203 I0. J0.943
G1 X20.351
X21.582
G3 Y6.089 I0. J0.943
G1 X3.119
X2.388
G2 Y7.974 I0. J0.943
G1 X22.313
X22.657
G3 Y9.86 I0. J0.943
G1 X2.044
X2.
G2 Y11.745 I0. J0.943
G1 X22.701
G3 Y13.631 I0. J0.943
G1 X2.
G2 Y15.516 I0. J0.943
G1 X2.126
X22.575
G3 Y17.402 I0. J0.943
G1 X22.1
X2.601
G2 Y19.287 I0. J0.943
G1 X3.49
X21.211
G3 Y21.173 I0. J0.943
G1 X19.749
X4.952
G0 Z5.08
X5.6 Y2.318
Z2.794
G1 Z-0.039 F1016.
X6.371
X18.33
X20.351
G3 Y4.203 I0. J0.943
G1 X4.35
X3.119
G2 Y6.089 I0. J0.943
G1 X21.582
X22.313
G3 Y7.974 I0. J0.943
G1 X2.388
X2.044
G2 Y9.86 I0. J0.943
G1 X22.657
X22.701
G3 Y11.745 I0. J0.943
G1 X2.
G2 Y13.631 I0. J0.943
G1 X22.701
G3 Y15.516 I0. J0.943
G1 X22.575
X2.126
G2 Y17.402 I0. J0.943
G1 X2.601
X22.1
G3 Y19.287 I0. J0.943
G1 X21.211
X3.49
G2 Y21.173 I0. J0.943
G1 X4.952
X19.749
G0 Z5.08
X19.101 Y2.318
Z2.794
G1 Z-0.089 F1016.
X18.33
X6.371
X4.35
G2 Y4.203 I0. J0.943
G1 X20.351
X21.582
G3 Y6.089 I0. J0.943
G1 X3.119
X2.388
G2 Y7.974 I0. J0.943
G1 X22.313
X22.657
G3 Y9.86 I0. J0.943
G1 X2.044
X2.
G2 Y11.745 I0. J0.943
G1 X22.701
G3 Y13.631 I0. J0.943
G1 X2.
G2 Y15.516 I0. J0.943
G1 X2.126
X22.575
G3 Y17.402 I0. J0.943
G1 X22.1
X2.601
G2 Y19.287 I0. J0.943
G1 X3.49
X21.211
G3 Y21.173 I0. J0.943
G1 X19.749
X4.952
G0 Z5.08
X5.6 Y2.318
Z2.794
G1 Z-0.139 F1016.
X6.371
X18.33
X20.351
G3 Y4.203 I0. J0.943
G1 X4.35
X3.119
G2 Y6.089 I0. J0.943
G1 X21.582
X22.313
G3 Y7.974 I0. J0.943
G1 X2.388
X2.044
G2 Y9.86 I0. J0.943
G1 X22.657
X22.701
G3 Y11.745 I0. J0.943
G1 X2.
G2 Y13.631 I0. J0.943
G1 X22.701
G3 Y15.516 I0. J0.943
G1 X22.575
X2.126
G2 Y17.402 I0. J0.943
G1 X2.601
X22.1
G3 Y19.287 I0. J0.943
G1 X21.211
X3.49
G2 Y21.173 I0. J0.943
G1 X4.952
X19.749
G0 Z5.08
X19.101 Y2.318
Z2.794
G1 Z-0.189 F1016.
X18.33
X6.371
X4.35
G2 Y4.203 I0. J0.943
G1 X20.351
X21.582
G3 Y6.089 I0. J0.943
G1 X3.119
X2.388
G2 Y7.974 I0. J0.943
G1 X22.313
X22.657
G3 Y9.86 I0. J0.943
G1 X2.044
X2.
G2 Y11.745 I0. J0.943
G1 X22.701
G3 Y13.631 I0. J0.943
G1 X2.
G2 Y15.516 I0. J0.943
G1 X2.126
X22.575
G3 Y17.402 I0. J0.943
G1 X22.1
X2.601
G2 Y19.287 I0. J0.943
G1 X3.49
X21.211
G3 Y21.173 I0. J0.943
G1 X19.749
X4.952
G0 Z5.08
X5.6 Y2.318
Z2.794
G1 Z-0.239 F1016.
X6.371
X18.33
X20.351
G3 Y4.203 I0. J0.943
G1 X4.35
X3.119
G2 Y6.089 I0. J0.943
G1 X21.582
X22.313
G3 Y7.974 I0. J0.943
G1 X2.388
X2.044
G2 Y9.86 I0. J0.943
G1 X22.657
X22.701
G3 Y11.745 I0. J0.943
G1 X2.
G2 Y13.631 I0. J0.943
G1 X22.701
G3 Y15.516 I0. J0.943
G1 X22.575
X2.126
G2 Y17.402 I0. J0.943
G1 X2.601
X22.1
G3 Y19.287 I0. J0.943
G1 X21.211
X3.49
G2 Y21.173 I0. J0.943
G1 X4.952
X19.749
G0 Z5.08
X19.101 Y2.318
Z2.794
G1 Z-0.289 F1016.
X18.33
X6.371
X4.35
G2 Y4.203 I0. J0.943
G1 X20.351
X21.582
G3 Y6.089 I0. J0.943
G1 X3.119
X2.388
G2 Y7.974 I0. J0.943
G1 X22.313
X22.657
G3 Y9.86 I0. J0.943
G1 X2.044
X2.
G2 Y11.745 I0. J0.943
G1 X22.701
G3 Y13.631 I0. J0.943
G1 X2.
G2 Y15.516 I0. J0.943
G1 X2.126
X22.575
G3 Y17.402 I0. J0.943
G1 X22.1
X2.601
G2 Y19.287 I0. J0.943
G1 X3.49
X21.211
G3 Y21.173 I0. J0.943
G1 X19.749
X4.952
G0 Z5.08
X5.6 Y2.318
Z2.794
G1 Z-0.339 F1016.
X6.371
X18.33
X20.351
G3 Y4.203 I0. J0.943
G1 X4.35
X3.119
G2 Y6.089 I0. J0.943
G1 X21.582
X22.313
G3 Y7.974 I0. J0.943
G1 X2.388
X2.044
G2 Y9.86 I0. J0.943
G1 X22.657
X22.701
G3 Y11.745 I0. J0.943
G1 X2.
G2 Y13.631 I0. J0.943
G1 X22.701
G3 Y15.516 I0. J0.943
G1 X22.575
X2.126
G2 Y17.402 I0. J0.943
G1 X2.601
X22.1
G3 Y19.287 I0. J0.943
G1 X21.211
X3.49
G2 Y21.173 I0. J0.943
G1 X4.952
X19.749
G0 Z5.08
X19.101 Y2.318
Z2.794
G1 Z-0.389 F1016.
X18.33
X6.371
X4.35
G2 Y4.203 I0. J0.943
G1 X20.351
X21.582
G3 Y6.089 I0. J0.943
G1 X3.119
X2.388
G2 Y7.974 I0. J0.943
G1 X22.313
X22.657
G3 Y9.86 I0. J0.943
G1 X2.044
X2.
G2 Y11.745 I0. J0.943
G1 X22.701
G3 Y13.631 I0. J0.943
G1 X2.
G2 Y15.516 I0. J0.943
G1 X2.126
X22.575
G3 Y17.402 I0. J0.943
G1 X22.1
X2.601
G2 Y19.287 I0. J0.943
G1 X3.49
X21.211
G3 Y21.173 I0. J0.943
G1 X19.749
X4.952
G0 Z5.08
X5.6 Y2.318
Z2.794
G1 Z-0.439 F1016.
X6.371
X18.33
X20.351
G3 Y4.203 I0. J0.943
G1 X4.35
X3.119
G2 Y6.089 I0. J0.943
G1 X21.582
X22.313
G3 Y7.974 I0. J0.943
G1 X2.388
X2.044
G2 Y9.86 I0. J0.943
G1 X22.657
X22.701
G3 Y11.745 I0. J0.943
G1 X2.
G2 Y13.631 I0. J0.943
G1 X22.701
G3 Y15.516 I0. J0.943
G1 X22.575
X2.126
G2 Y17.402 I0. J0.943
G1 X2.601
X22.1
G3 Y19.287 I0. J0.943
G1 X21.211
X3.49
G2 Y21.173 I0. J0.943
G1 X4.952
X19.749
G0 Z5.08
X19.101 Y2.318
Z2.794
G1 Z-0.489 F1016.
X18.33
X6.371
X4.35
G2 Y4.203 I0. J0.943
G1 X20.351
X21.582
G3 Y6.089 I0. J0.943
G1 X3.119
X2.388
G2 Y7.974 I0. J0.943
G1 X22.313
X22.657
G3 Y9.86 I0. J0.943
G1 X2.044
X2.
G2 Y11.745 I0. J0.943
G1 X22.701
G3 Y13.631 I0. J0.943
G1 X2.
G2 Y15.516 I0. J0.943
G1 X2.126
X22.575
G3 Y17.402 I0. J0.943
G1 X22.1
X2.601
G2 Y19.287 I0. J0.943
G1 X3.49
X21.211
G3 Y21.173 I0. J0.943
G1 X19.749
X4.952
G0 Z5.08
X5.6 Y2.318
Z2.794
G1 Z-0.539 F1016.
X6.371
X18.33
X20.351
G3 Y4.203 I0. J0.943
G1 X4.35
X3.119
G2 Y6.089 I0. J0.943
G1 X21.582
X22.313
G3 Y7.974 I0. J0.943
G1 X2.388
X2.044
G2 Y9.86 I0. J0.943
G1 X22.657
X22.701
G3 Y11.745 I0. J0.943
G1 X2.
G2 Y13.631 I0. J0.943
G1 X22.701
G3 Y15.516 I0. J0.943
G1 X22.575
X2.126
G2 Y17.402 I0. J0.943
G1 X2.601
X22.1
G3 Y19.287 I0. J0.943
G1 X21.211
X3.49
G2 Y21.173 I0. J0.943
G1 X4.952
X19.749
G0 Z5.08
X19.101 Y2.318
Z2.794
G1 Z-0.589 F1016.
X18.33
X6.371
X4.35
G2 Y4.203 I0. J0.943
G1 X20.351
X21.582
G3 Y6.089 I0. J0.943
G1 X3.119
X2.388
G2 Y7.974 I0. J0.943
G1 X22.313
X22.657
G3 Y9.86 I0. J0.943
G1 X2.044
X2.
G2 Y11.745 I0. J0.943
G1 X22.701
G3 Y13.631 I0. J0.943
G1 X2.
G2 Y15.516 I0. J0.943
G1 X2.126
X22.575
G3 Y17.402 I0. J0.943
G1 X22.1
X2.601
G2 Y19.287 I0. J0.943
G1 X3.49
X21.211
G3 Y21.173 I0. J0.943
G1 X19.749
X4.952
G0 Z5.08
X5.6 Y2.318
Z2.794
G1 Z-0.639 F1016.
X6.371
X18.33
X20.351
G3 Y4.203 I0. J0.943
G1 X4.35
X3.119
G2 Y6.089 I0. J0.943
G1 X21.582
X22.313
G3 Y7.974 I0. J0.943
G1 X2.388
X2.044
G2 Y9.86 I0. J0.943
G1 X22.657
X22.701
G3 Y11.745 I0. J0.943
G1 X2.
G2 Y13.631 I0. J0.943
G1 X22.701
G3 Y15.516 I0. J0.943
G1 X22.575
X2.126
G2 Y17.402 I0. J0.943
G1 X2.601
X22.1
G3 Y19.287 I0. J0.943
G1 X21.211
X3.49
G2 Y21.173 I0. J0.943
G1 X4.952
X19.749
G0 Z5.08
X19.101 Y2.318
Z2.794
G1 Z-0.689 F1016.
X18.33
X6.371
X4.35
G2 Y4.203 I0. J0.943
G1 X20.351
X21.582
G3 Y6.089 I0. J0.943
G1 X3.119
X2.388
G2 Y7.974 I0. J0.943
G1 X22.313
X22.657
G3 Y9.86 I0. J0.943
G1 X2.044
X2.
G2 Y11.745 I0. J0.943
G1 X22.701
G3 Y13.631 I0. J0.943
G1 X2.
G2 Y15.516 I0. J0.943
G1 X2.126
X22.575
G3 Y17.402 I0. J0.943
G1 X22.1
X2.601
G2 Y19.287 I0. J0.943
G1 X3.49
X21.211
G3 Y21.173 I0. J0.943
G1 X19.749
X4.952
G0 Z5.08
X5.6 Y2.318
Z2.794
G1 Z-0.739 F1016.
X6.371
X18.33
X20.351
G3 Y4.203 I0. J0.943
G1 X4.35
X3.119
G2 Y6.089 I0. J0.943
G1 X21.582
X22.313
G3 Y7.974 I0. J0.943
G1 X2.388
X2.044
G2 Y9.86 I0. J0.943
G1 X22.657
X22.701
G3 Y11.745 I0. J0.943
G1 X2.
G2 Y13.631 I0. J0.943
G1 X22.701
G3 Y15.516 I0. J0.943
G1 X22.575
X2.126
G2 Y17.402 I0. J0.943
G1 X2.601
X22.1
G3 Y19.287 I0. J0.943
G1 X21.211
X3.49
G2 Y21.173 I0. J0.943
G1 X4.952
X19.749
G0 Z5.08
X19.101 Y2.318
Z2.794
G1 Z-0.789 F1016.
X18.33
X6.371
X4.35
G2 Y4.203 I0. J0.943
G1 X20.351
X21.582
G3 Y6.089 I0. J0.943
G1 X3.119
X2.388
G2 Y7.974 I0. J0.943
G1 X22.313
X22.657
G3 Y9.86 I0. J0.943
G1 X2.044
X2.
G2 Y11.745 I0. J0.943
G1 X22.701
G3 Y13.631 I0. J0.943
G1 X2.
G2 Y15.516 I0. J0.943
G1 X2.126
X22.575
G3 Y17.402 I0. J0.943
G1 X22.1
X2.601
G2 Y19.287 I0. J0.943
G1 X3.49
X21.211
G3 Y21.173 I0. J0.943
G1 X19.749
X4.952
G0 Z5.08
X5.6 Y2.318
Z2.794
G1 Z-0.839 F1016.
X6.371
X18.33
X20.351
G3 Y4.203 I0. J0.943
G1 X4.35
X3.119
G2 Y6.089 I0. J0.943
G1 X21.582
X22.313
G3 Y7.974 I0. J0.943
G1 X2.388
X2.044
G2 Y9.86 I0. J0.943
G1 X22.657
X22.701
G3 Y11.745 I0. J0.943
G1 X2.
G2 Y13.631 I0. J0.943
G1 X22.701
G3 Y15.516 I0. J0.943
G1 X22.575
X2.126
G2 Y17.402 I0. J0.943
G1 X2.601
X22.1
G3 Y19.287 I0. J0.943
G1 X21.211
X3.49
G2 Y21.173 I0. J0.943
G1 X4.952
X19.749
G0 Z5.08
X19.101 Y2.318
Z2.794
G1 Z-0.889 F1016.
X18.33
X6.371
X4.35
G2 Y4.203 I0. J0.943
G1 X20.351
X21.582
G3 Y6.089 I0. J0.943
G1 X3.119
X2.388
G2 Y7.974 I0. J0.943
G1 X22.313
X22.657
G3 Y9.86 I0. J0.943
G1 X2.044
X2.
G2 Y11.745 I0. J0.943
G1 X22.701
G3 Y13.631 I0. J0.943
G1 X2.
G2 Y15.516 I0. J0.943
G1 X2.126
X22.575
G3 Y17.402 I0. J0.943
G1 X22.1
X2.601
G2 Y19.287 I0. J0.943
G1 X3.49
X21.211
G3 Y21.173 I0. J0.943
G1 X19.749
X4.952
G0 Z11.43
G53 Z0.

(ENGRAVE1)
M5
M1
T2 M6
S16500 M3
G4 P4.
G55
G0 X2.305 Y11.839
Z15.24
Z4.191
G1 Z-0.889 F1270.
X2.313 Y11.853 Z-0.9
X2.305 Y11.858 Z-0.889
X2.313 Y11.853 Z-0.9
X2.324 Y11.858 Z-0.899
X2.361 Y11.88 Z-0.897
X2.426 Y11.929 Z-0.894
X2.447 Y11.942 Z-0.897
X2.471 Y11.953 Z-0.907
X2.501 Y11.961 Z-0.925
X2.529 Y11.966 Z-0.946
X2.546 Y12.018 Z-0.925
X2.553 Y12.044 Z-0.917
X2.539 Y12.067 Z-0.889
X2.553 Y12.044 Z-0.917
X2.576 Y12.067 Z-0.889
X2.553 Y12.044 Z-0.917
X2.546 Y12.018 Z-0.925
X2.529 Y11.966 Z-0.946
X2.543 Y11.936 Z-0.93
X2.551 Y11.905 Z-0.92
X2.553 Y11.875 Z-0.917
Y11.305
X2.53 Y11.282 Z-0.889
X2.553 Y11.305 Z-0.917
X2.576 Y11.282 Z-0.889
G0 Z5.08
X2.52 Y12.667
Z4.191
G1 Z-0.899 F1270.
X2.493
X2.459 Y12.672 Z-0.9
X2.429 Y12.682 Z-0.902
X2.406 Y12.694 Z-0.904
X2.381 Y12.717 Z-0.907
X2.357 Y12.744 Z-0.91
X2.347 Y12.764
X2.328 Y12.811 Z-0.913
X2.314 Y12.861 Z-0.918
X2.306 Y12.91 Z-0.921
X2.301 Y12.981 Z-0.922
Y13.106
X2.304 Y13.178 Z-0.921
X2.311 Y13.231 Z-0.919
X2.322 Y13.28 Z-0.915
X2.331 Y13.31 Z-0.912
X2.347 Y13.35 Z-0.908
X2.363 Y13.38 Z-0.909
X2.379 Y13.398 Z-0.907
X2.402 Y13.419 Z-0.905
X2.424 Y13.432 Z-0.904
X2.451 Y13.442 Z-0.901
X2.485 Y13.448 Z-0.899
X2.508 Y13.449
X2.544 Y13.445 Z-0.9
X2.572 Y13.437 Z-0.902
X2.596 Y13.426 Z-0.904
X2.618 Y13.409 Z-0.905
X2.645 Y13.379 Z-0.909
X2.658 Y13.357
X2.674 Y13.319 Z-0.911
X2.689 Y13.273 Z-0.916
X2.699 Y13.225 Z-0.919
X2.706 Y13.164 Z-0.921
X2.708 Y13.067 Z-0.922
X2.706 Y12.969 Z-0.921
X2.701 Y12.909 Z-0.92
X2.692 Y12.859 Z-0.918
X2.679 Y12.809 Z-0.912
X2.662 Y12.767 Z-0.908
X2.645 Y12.735 Z-0.909
X2.623 Y12.711 Z-0.906
X2.603 Y12.694 Z-0.905
X2.581 Y12.682 Z-0.903
X2.552 Y12.672 Z-0.9
X2.52 Y12.667 Z-0.899
G0 Z5.08
X2.79 Y10.812
Z4.191
G1 Z-1.102 F1270.
X5.161 Y6.042
G0 Z5.08
X2.939 Y14.109
Z4.191
G1 Z-1.057 F1270.
X4.652 Y18.24
G0 Z5.08
X2.985 Y11.373
Z4.191
G1 Z-0.889 F1270.
X3.014 Y11.357 Z-0.912
X3.026 Y11.377 Z-0.89
X3.014 Y11.357 Z-0.912
X3.035 Y11.329 Z-0.91
X3.042 Y11.32
X3.052 Y11.312 Z-0.908
X3.081 Y11.293 Z-0.906
X3.106 Y11.283 Z-0.903
X3.137 Y11.276 Z-0.9
X3.163 Y11.274 Z-0.899
X3.2 Y11.278 Z-0.898
X3.235 Y11.285 Z-0.899
X3.263 Y11.296 Z-0.901
X3.288 Y11.311 Z-0.902
X3.32 Y11.341 Z-0.905
X3.338 Y11.361 Z-0.908
X3.351 Y11.386 Z-0.91
X3.372 Y11.433 Z-0.913
X3.387 Y11.478 Z-0.916
X3.397 Y11.528 Z-0.918
X3.403 Y11.596 Z-0.919
X3.402 Y11.626 Z-0.922
X3.395 Y11.657 Z-0.931
X3.385 Y11.684 Z-0.943
X3.348 Y11.674 Z-0.909
X3.322 Y11.664 Z-0.89
X3.348 Y11.674 Z-0.909
X3.385 Y11.684 Z-0.943
X3.391 Y11.722 Z-0.935
X3.394 Y11.763 Z-0.93
X3.392 Y11.812 Z-0.925
X3.385 Y11.861 Z-0.92
X3.373 Y11.903 Z-0.915
X3.356 Y11.94 Z-0.913
X3.338 Y11.972
X3.334 Y11.978 Z-0.912
X3.312 Y12.002 Z-0.909
X3.284 Y12.025 Z-0.907
X3.261 Y12.039 Z-0.905
X3.231 Y12.049 Z-0.902
X3.185 Y12.057 Z-0.9
X3.156 Z-0.899
X3.121 Y12.051 Z-0.9
X3.092 Y12.042 Z-0.901
X3.068 Y12.028 Z-0.902
X3.033 Y11.999 Z-0.905
X3.022 Y11.987 Z-0.906
X2.998 Y11.947 Z-0.91
X2.986 Y11.92 Z-0.912
X2.978 Y11.889 Z-0.914
X2.973 Y11.83 Z-0.915
X2.976 Y11.776 Z-0.914
X2.982 Y11.742 Z-0.913
X2.992 Y11.712 Z-0.911
X3.016 Y11.671 Z-0.907
X3.027 Y11.655 Z-0.905
X3.054 Y11.628 Z-0.901
X3.077 Y11.612 Z-0.899
X3.103 Y11.601 Z-0.895
X3.136 Y11.593 Z-0.892
X3.164 Y11.59 Z-0.889
G0 Z5.08
X2.989 Y12.796
Z4.191
G1 Z-0.89 F1270.
X2.99 Y12.794 Z-0.891
X3.017 Y12.779 Z-0.913
X3.03 Y12.801 Z-0.889
X3.017 Y12.779 Z-0.913
X3.034 Y12.754 Z-0.911
X3.06 Y12.722 Z-0.908
X3.081 Y12.706 Z-0.906
X3.115 Y12.685 Z-0.903
X3.142 Y12.675 Z-0.901
X3.177 Y12.669 Z-0.9
X3.214 Y12.666 Z-0.899
X3.261 Y12.673 Z-0.901
X3.293 Y12.682 Z-0.903
X3.317 Y12.695 Z-0.905
X3.348 Y12.718 Z-0.908
X3.369 Y12.737 Z-0.911
X3.38 Y12.751 Z-0.912
X3.402 Y12.786 Z-0.916
X3.414 Y12.814 Z-0.918
X3.42 Y12.844 Z-0.919
X3.424 Y12.883 Z-0.92
X3.422 Y12.917 Z-0.918
X3.416 Y12.941 Z-0.916
X3.404 Y12.972 Z-0.91
X3.381 Y13.003 Z-0.901
X3.363 Y13.02 Z-0.893
X3.352 Y13.028 Z-0.889
G0 Z5.08
X3.004 Y13.335
Z4.191
G1 Z-0.889 F1270.
X3.026 Y13.348 Z-0.908
X3.036 Y13.33 Z-0.889
X3.026 Y13.348 Z-0.908
X3.04 Y13.371 Z-0.909
X3.059 Y13.395 Z-0.907
X3.08 Y13.413 Z-0.905
X3.105 Y13.428 Z-0.902
X3.134 Y13.441 Z-0.9
X3.165 Y13.447 Z-0.899
X3.2 Y13.45
X3.24 Y13.446
X3.27 Y13.439 Z-0.902
X3.293 Y13.429 Z-0.904
X3.325 Y13.408 Z-0.906
X3.35 Y13.382 Z-0.911
X3.354 Y13.377 Z-0.912
X3.37 Y13.352 Z-0.915
X3.378 Y13.331 Z-0.917
X3.385 Y13.292
X3.381 Y13.257 Z-0.914
X3.372 Y13.225 Z-0.91
X3.36 Y13.203 Z-0.904
X3.342 Y13.182 Z-0.897
X3.314 Y13.155 Z-0.889
X3.313
G0 Z5.08
X3.209 Y13.096
Z4.191
G1 Z-0.89 F1270.
X3.212 Y13.099 Z-0.893
X3.209 Y13.101 Z-0.889
X3.212 Y13.099 Z-0.893
X3.234 Y13.1 Z-0.897
X3.264 Y13.103 Z-0.907
X3.268 Y13.098 Z-0.901
X3.281 Y13.083 Z-0.889
X3.268 Y13.098 Z-0.901
X3.264 Y13.103 Z-0.907
X3.271 Y13.113 Z-0.9
X3.286 Y13.131 Z-0.891
X3.293 Y13.137 Z-0.889
G0 Z5.08
X4.998 Y18.572
Z4.191
G1 Z-1.067 F1270.
X8.372 Y21.109
G0 Z5.08
X5.52 Y5.577
Z4.191
G1 Z-1.072 F1270.
X10.001 Y3.03
G0 Z5.08
X9.492 Y21.652
Z4.191
G1 Z-0.89 F1270.
X9.506 Y21.709 Z-0.944
X9.555 Y21.699 Z-0.909
X9.579 Y21.692 Z-0.889
X9.555 Y21.699 Z-0.909
X9.506 Y21.709 Z-0.944
X9.479 Y21.732 Z-0.943
X9.463 Y21.745 Z-0.942
X9.412 Y21.773 Z-0.937
X9.371 Y21.789 Z-0.935
X9.334 Y21.798 Z-0.933
X9.296 Y21.802 Z-0.929
X9.252 Y21.801 Z-0.927
X9.197 Y21.794 Z-0.926
X9.168 Y21.787 Z-0.925
X9.105 Y21.765
X9.069 Y21.748 Z-0.927
X9.034 Y21.725 Z-0.928
X9.007 Y21.701 Z-0.929
X8.98 Y21.672 Z-0.931
X8.946 Y21.628 Z-0.933
X8.933 Y21.605 Z-0.935
X8.904 Y21.521 Z-0.939
X8.892 Y21.469 Z-0.942
X8.888 Y21.432 Z-0.944
Y21.385 Z-0.945
X8.893 Y21.326 Z-0.947
X8.908 Y21.243 Z-0.949
X8.934 Y21.148 Z-0.947
X8.955 Y21.093 Z-0.946
X8.976 Y21.055 Z-0.945
X9.004 Y21.015 Z-0.943
X9.037 Y20.978 Z-0.939
X9.082 Y20.933 Z-0.935
X9.123 Y20.909 Z-0.933
X9.173 Y20.885 Z-0.931
X9.211 Y20.872 Z-0.929
X9.243 Y20.866 Z-0.928
X9.282 Y20.864 Z-0.926
X9.338 Y20.868 Z-0.925
X9.39 Y20.876 Z-0.926
X9.448 Y20.895 Z-0.927
X9.489 Y20.913 Z-0.93
X9.519 Y20.934 Z-0.933
X9.554 Y20.965 Z-0.936
X9.583 Y20.996 Z-0.939
X9.619 Y21.057 Z-0.943
X9.636 Y21.099 Z-0.944
X9.642 Y21.121 Z-0.945
X9.604 Y21.171 Z-0.89
X9.642 Y21.121 Z-0.945
X9.697 Y21.162 Z-0.889
G0 Z5.08
X9.868 Y21.95
Z4.191
G1 Z-0.889 F1270.
X9.945 Y21.9 Z-0.967
X9.938 Y21.863 Z-0.949
X9.937 Y21.827 Z-0.939
X9.941 Y21.793 Z-0.935
X10.098 Y21.053
X10.144 Y21.023 Z-0.889
X10.098 Y21.053 Z-0.935
X10.069 Y21.007 Z-0.889
X10.098 Y21.053 Z-0.935
X9.941 Y21.793
X9.937 Y21.827 Z-0.939
X9.938 Y21.863 Z-0.949
X9.945 Y21.9 Z-0.967
X9.98 Y21.917 Z-0.955
X10.017 Y21.928 Z-0.952
X10.05 Y21.932 Z-0.955
X10.08 Y21.995 Z-0.889
X10.05 Y21.932 Z-0.955
X10.08 Y21.909 Z-0.936
X10.103 Y21.884 Z-0.925
X10.122 Y21.854 Z-0.921
X10.379 Y21.338 Z-0.926
X10.399 Y21.307 Z-0.93
X10.424 Y21.279 Z-0.943
X10.456 Y21.255 Z-0.964
X10.494 Y21.233 Z-0.993
X10.506 Y21.174 Z-0.975
X10.466 Y21.092 Z-0.89
X10.506 Y21.174 Z-0.975
X10.577 Y21.115 Z-0.889
X10.506 Y21.174 Z-0.975
X10.494 Y21.233 Z-0.993
X10.52 Y21.268 Z-0.963
X10.539 Y21.304 Z-0.942
X10.551 Y21.34 Z-0.929
X10.557 Y21.376 Z-0.924
X10.581 Y21.952 Z-0.921
X10.586 Y21.986 Z-0.925
X10.597 Y22.019 Z-0.936
X10.614 Y22.052 Z-0.955
X10.561 Y22.097 Z-0.889
X10.614 Y22.052 Z-0.955
X10.647 Y22.062 Z-0.952
X10.685 Y22.067 Z-0.955
X10.724 Y22.065 Z-0.967
X10.774 Y22.142 Z-0.889
X10.724 Y22.065 Z-0.967
X10.746 Y22.035 Z-0.949
X10.761 Y22.003 Z-0.939
X10.771 Y21.969 Z-0.935
X10.929 Y21.23
X10.974 Y21.2 Z-0.889
X10.929 Y21.23 Z-0.935
X10.899 Y21.184 Z-0.889
G0 Z5.08
X10.63 Y2.532
Z4.191
G1 Z-0.889 F1270.
X10.638 Y2.54 Z-0.899
X10.647 Y2.532 Z-0.889
X10.638 Y2.54 Z-0.899
Y2.911
X10.642 Y2.943 Z-0.904
X10.653 Y2.976 Z-0.916
X10.677 Z-0.9
X10.692 Z-0.893
X10.71 Z-0.89
X10.99
X11.059 Y2.978
X11.1 Y2.982 Z-0.892
X11.143 Y2.992 Z-0.894
X11.183 Y3.009 Z-0.895
X11.229 Y3.035
X11.259 Y3.061 Z-0.9
X11.275 Y3.081 Z-0.899
X11.295 Y3.112 Z-0.9
X11.309 Y3.142 Z-0.901
X11.318 Y3.178
X11.324 Y3.234 Z-0.902
X11.322 Y3.272
X11.318 Y3.305
X11.306 Y3.341
X11.291 Y3.373
X11.275 Y3.4 Z-0.901
X11.25 Y3.427 Z-0.9
X11.232 Y3.442 Z-0.898
X11.203 Y3.46 Z-0.895
X11.168 Y3.475 Z-0.893
X11.137 Y3.484 Z-0.89
X11.074 Y3.492
X10.71 Y3.494
X10.678 Y3.49 Z-0.895
X10.646 Y3.478 Z-0.909
X10.63 Y3.495 Z-0.889
X10.646 Y3.478 Z-0.909
X10.64 Y3.454 Z-0.902
X10.638 Y3.43 Z-0.899
Y3.04
X10.642 Y3.008 Z-0.904
X10.653 Y2.976 Z-0.916
G0 Z5.08
X11.112 Y22.214
Z4.191
G1 Z-0.889 F1270.
X11.178 Y22.171 Z-0.956
X11.208 Y22.193 Z-0.938
X11.239 Y22.209 Z-0.927
X11.271 Y22.219 Z-0.923
X11.421 Y22.25
X11.495 Y22.264 Z-0.925
X11.559 Y22.272 Z-0.927
X11.61 Y22.271 Z-0.93
X11.635 Y22.269 Z-0.932
X11.679 Y22.259 Z-0.935
X11.708 Y22.248 Z-0.937
X11.739 Y22.232 Z-0.938
X11.767 Y22.212 Z-0.94
X11.8 Y22.182 Z-0.941
X11.828 Y22.151 Z-0.943
X11.857 Y22.108 Z-0.944
X11.89 Y22.04 Z-0.947
X11.908 Y21.993 Z-0.948
X11.931 Y21.905 Z-0.949
X11.946 Y21.825
X11.952 Y21.773 Z-0.948
X11.953 Y21.695 Z-0.945
X11.948 Y21.65 Z-0.942
X11.939 Y21.605 Z-0.94
X11.926 Y21.567 Z-0.937
X11.903 Y21.52 Z-0.935
X11.879 Y21.488 Z-0.932
X11.852 Y21.46 Z-0.93
X11.821 Y21.437 Z-0.927
X11.791 Y21.42 Z-0.926
X11.748 Y21.4 Z-0.925
X11.691 Y21.382 Z-0.923
X11.62 Y21.366
X11.46 Y21.332
X11.426 Y21.328 Z-0.927
X11.391 Y21.33 Z-0.937
X11.355 Y21.338 Z-0.956
X11.312 Y21.272 Z-0.889
X11.355 Y21.338 Z-0.956
X11.342 Y21.368 Z-0.947
X11.333 Y21.399 Z-0.945
X11.183 Y22.105
X11.178 Y22.138 Z-0.947
Y22.171 Z-0.956
G0 Z5.08
X11.671 Y2.532
Z4.191
G1 Z-0.889 F1270.
X11.679 Y2.54 Z-0.899
X11.688 Y2.532 Z-0.889
X11.679 Y2.54 Z-0.899
Y3.486
X11.688 Y3.495 Z-0.889
X11.679 Y3.486 Z-0.899
X11.671 Y3.495 Z-0.889
G0 Z5.08
X12.022 Y2.532
Z4.191
G1 Z-0.889 F1270.
X12.033 Y2.537 Z-0.896
X12.036 Y2.531 Z-0.889
X12.033 Y2.537 Z-0.896
X12.325 Y2.939 Z-0.89
X12.333 Y2.952 Z-0.889
G0 Z5.08
X12.069 Y3.495
Z4.191
G1 Z-0.889 F1270.
X12.081 Y3.489 Z-0.897
X12.084 Y3.495 Z-0.889
X12.081 Y3.489 Z-0.897
X12.328 Y3.138 Z-0.894
X12.349 Y3.106 Z-0.892
X12.361 Y3.091 Z-0.894
X12.383 Y3.072 Z-0.903
X12.399 Y3.06 Z-0.915
X12.429 Y3.084 Z-0.892
X12.439 Y3.093 Z-0.889
X12.429 Y3.084 Z-0.892
X12.399 Y3.06 Z-0.915
X12.4 Y3.04 Z-0.912
X12.401 Y3.016 Z-0.916
X12.381 Y3.002 Z-0.9
X12.357 Y2.982 Z-0.89
X12.351 Y2.975 Z-0.889
X12.357 Y2.982 Z-0.89
X12.381 Y3.002 Z-0.9
X12.401 Y3.016 Z-0.916
X12.421 Y3.001 Z-0.903
X12.437 Y2.986 Z-0.898
X12.754 Y2.54 Z-0.9
X12.75 Y2.531 Z-0.889
X12.754 Y2.54 Z-0.9
X12.771 Y2.531 Z-0.889
G0 Z5.08
X12.493 Y3.165
Z4.191
G1 Z-0.889 F1270.
X12.522 Y3.206 Z-0.89
X12.54 Y3.23
X12.682 Y3.419 Z-0.889
G0 Z5.08
X13.089 Y2.532
Z4.191
G1 Z-0.889 F1270.
X13.106 Y2.548 Z-0.909
X13.138 Y2.536 Z-0.895
X13.17 Y2.532 Z-0.89
X13.775
X13.17
X13.138 Y2.536 Z-0.895
X13.106 Y2.548 Z-0.909
X13.1 Y2.572 Z-0.902
X13.098 Y2.596 Z-0.899
Y2.968
X13.101 Y3. Z-0.904
X13.112 Y3.032 Z-0.916
X13.136 Z-0.899
X13.152 Z-0.893
X13.17 Z-0.89
X13.709
X13.17
X13.152 Z-0.893
X13.136 Z-0.899
X13.112 Z-0.916
X13.101 Y3.064 Z-0.904
X13.098 Y3.096 Z-0.899
Y3.43
X13.1 Y3.454 Z-0.902
X13.106 Y3.478 Z-0.909
X13.089 Y3.495 Z-0.889
X13.106 Y3.478 Z-0.909
X13.138 Y3.49 Z-0.895
X13.17 Y3.494 Z-0.89
X13.75
G0 Z5.08
X13.477 Y21.527
Z4.191
G1 Z-0.889 F1270.
X13.478 Y21.519 Z-0.896
X13.488 Y21.464 Z-0.945
X13.556 Y21.476 Z-0.889
X13.488 Y21.464 Z-0.945
X13.473 Y21.448 Z-0.944
X13.439 Y21.419 Z-0.943
X13.379 Y21.38 Z-0.939
X13.339 Y21.366 Z-0.936
X13.296 Y21.354 Z-0.933
X13.261 Y21.35 Z-0.931
X13.218 Y21.351 Z-0.928
X13.153 Y21.361 Z-0.926
X13.103 Y21.377 Z-0.925
X13.052 Y21.399 Z-0.926
X13.017 Y21.419 Z-0.928
X12.995 Y21.436 Z-0.929
X12.965 Y21.465 Z-0.93
X12.929 Y21.512 Z-0.933
X12.903 Y21.552 Z-0.935
X12.884 Y21.612 Z-0.939
X12.871 Y21.663 Z-0.943
X12.864 Y21.713 Z-0.945
Y21.76 Z-0.947
X12.871 Y21.823
X12.889 Y21.907 Z-0.949
X12.914 Y21.988 Z-0.947
X12.935 Y22.042 Z-0.945
X12.957 Y22.085 Z-0.944
X12.977 Y22.115 Z-0.942
X13.012 Y22.157 Z-0.939
X13.076 Y22.218 Z-0.935
X13.098 Y22.233 Z-0.933
X13.149 Y22.257 Z-0.931
X13.193 Y22.273 Z-0.929
X13.225 Y22.28 Z-0.928
X13.263 Y22.284 Z-0.927
X13.308 Y22.282 Z-0.925
X13.378 Y22.271
X13.405 Y22.264 Z-0.926
X13.457 Y22.245 Z-0.927
X13.49 Y22.228 Z-0.929
X13.523 Y22.206 Z-0.933
X13.549 Y22.183 Z-0.935
X13.579 Y22.15 Z-0.936
X13.612 Y22.102 Z-0.942
X13.621 Y22.083 Z-0.943
X13.634 Y22.05 Z-0.944
X13.596 Y22.005 Z-0.889
X13.634 Y22.05 Z-0.944
X13.672 Y22.02 Z-0.909
X13.691 Y22.003 Z-0.889
G0 Z5.08
X14.014 Y21.841
Z4.191
G1 Z-0.94 F1270.
X13.992 Y21.791 Z-0.942
X13.967 Y21.72 Z-0.943
X13.932 Y21.596 Z-0.944
X13.911 Y21.507 Z-0.943
X13.9 Y21.444 Z-0.942
X13.896 Y21.395 Z-0.939
Y21.337 Z-0.933
X13.901 Y21.286 Z-0.93
X13.909 Y21.246
X13.914 Y21.235 Z-0.928
X13.937 Y21.192 Z-0.923
X13.954 Y21.17 Z-0.922
X13.977 Y21.149 Z-0.92
X14.005 Y21.132 Z-0.917
X14.047 Y21.114 Z-0.916
X14.085 Y21.105
X14.12 Y21.103 Z-0.918
X14.152 Y21.105 Z-0.922
X14.18 Y21.113 Z-0.923
X14.204 Y21.124 Z-0.924
X14.24 Y21.147 Z-0.928
X14.267 Y21.175 Z-0.927
X14.294 Y21.21 Z-0.93
X14.32 Y21.25 Z-0.936
X14.348 Y21.304 Z-0.94
X14.372 Y21.363 Z-0.942
X14.399 Y21.446 Z-0.943
X14.434 Y21.578
X14.45 Y21.661 Z-0.942
X14.457 Y21.723 Z-0.939
X14.458 Y21.783 Z-0.933
X14.453 Y21.836 Z-0.929
X14.444 Y21.882 Z-0.928
X14.441 Y21.893 Z-0.929
X14.42 Y21.933 Z-0.924
X14.405 Y21.955 Z-0.923
X14.385 Y21.974 Z-0.922
X14.359 Y21.993 Z-0.918
X14.328 Y22.008 Z-0.916
X14.292 Y22.02
X14.243 Y22.026 Z-0.918
X14.211 Y22.025 Z-0.921
X14.187 Y22.02 Z-0.923
X14.163 Y22.011
X14.125 Y21.99 Z-0.927
X14.114 Y21.982 Z-0.928
X14.098 Y21.965 Z-0.927
X14.067 Y21.929 Z-0.929
X14.044 Y21.895 Z-0.933
X14.014 Y21.841 Z-0.94
G0 Z5.08
X14.097 Y2.532
Z4.191
G1 Z-0.889 F1270.
X14.113 Y2.548 Z-0.909
X14.145 Y2.536 Z-0.895
X14.177 Y2.532 Z-0.89
X14.65
X14.177
X14.145 Y2.536 Z-0.895
X14.113 Y2.548 Z-0.909
X14.107 Y2.572 Z-0.902
X14.105 Y2.596 Z-0.899
Y3.486
X14.114 Y3.495 Z-0.889
X14.105 Y3.486 Z-0.899
X14.097 Y3.495 Z-0.889
G0 Z5.08
X14.637 Y20.95
Z4.191
G1 Z-0.889 F1270.
X14.705 Y20.989 Z-0.956
X14.707 Y21.022 Z-0.947
X14.713 Y21.054 Z-0.945
X14.9 Y21.752
X14.911 Y21.783 Z-0.947
X14.926 Y21.812 Z-0.956
X14.887 Y21.88 Z-0.889
X14.926 Y21.812 Z-0.956
X14.962 Y21.818 Z-0.938
X14.997 Z-0.927
X15.03 Y21.812 Z-0.923
X15.249 Y21.752 Z-0.925
X15.311 Y21.729 Z-0.927
X15.348 Y21.71 Z-0.929
X15.384 Y21.688 Z-0.933
X15.416 Y21.659 Z-0.936
X15.44 Y21.631 Z-0.937
X15.457 Y21.604 Z-0.939
X15.475 Y21.568 Z-0.94
X15.489 Y21.528 Z-0.942
X15.498 Y21.487 Z-0.943
X15.502 Y21.439 Z-0.945
Y21.408 Z-0.946
X15.498 Y21.341 Z-0.947
X15.489 Y21.291 Z-0.948
X15.469 Y21.208 Z-0.949
X15.442 Y21.125 Z-0.948
X15.422 Y21.079 Z-0.947
X15.389 Y21.019 Z-0.944
X15.365 Y20.984 Z-0.941
X15.336 Y20.951 Z-0.939
X15.307 Y20.926 Z-0.936
X15.276 Y20.903 Z-0.935
X15.27 Y20.899 Z-0.934
X15.245 Y20.887 Z-0.932
X15.21 Y20.875 Z-0.93
X15.172 Y20.867 Z-0.928
X15.133 Y20.865 Z-0.926
X15.096 Y20.866 Z-0.925
X15.043 Y20.873 Z-0.924
X14.796 Y20.937 Z-0.923
X14.764 Y20.948 Z-0.926
X14.734 Y20.966 Z-0.937
X14.705 Y20.989 Z-0.956
G0 Z5.08
X15.107 Y3.163
Z4.191
G1 Z-1.06 F1270.
X19.504 Y5.926
G0 Z5.08
X15.701 Y20.665
Z4.191
G1 Z-0.889 F1270.
X15.769 Y20.704 Z-0.956
X15.798 Y20.681 Z-0.937
X15.828 Y20.663 Z-0.926
X15.859 Y20.652 Z-0.923
X16.359 Y20.518
X16.394 Y20.537 Z-0.889
X16.359 Y20.518 Z-0.923
X16.379 Y20.483 Z-0.889
X16.359 Y20.518 Z-0.923
X15.859 Y20.652
X15.828 Y20.663 Z-0.926
X15.798 Y20.681 Z-0.937
X15.769 Y20.704 Z-0.956
X15.771 Y20.737 Z-0.947
X15.777 Y20.769 Z-0.945
X15.854 Y21.056
X15.864 Y21.085 Z-0.947
X15.878 Y21.113 Z-0.955
X15.896 Y21.139 Z-0.967
X15.931 Y21.13 Z-0.941
X15.954 Y21.124 Z-0.929
X15.984 Y21.116 Z-0.923
X16.424 Y20.998
X16.458 Y21.018 Z-0.889
X16.424 Y20.998 Z-0.923
X16.444 Y20.964 Z-0.889
X16.424 Y20.998 Z-0.923
X15.984 Y21.116
X15.954 Y21.124 Z-0.929
X15.931 Y21.13 Z-0.941
X15.896 Y21.139 Z-0.967
X15.894 Y21.172 Z-0.955
X15.895 Y21.203 Z-0.947
X15.901 Y21.233 Z-0.945
X15.964 Y21.467
X15.975 Y21.498 Z-0.947
X15.99 Y21.527 Z-0.956
X15.95 Y21.595 Z-0.889
X15.99 Y21.527 Z-0.956
X16.026 Y21.533 Z-0.938
X16.061 Z-0.927
X16.094 Y21.527 Z-0.923
X16.574 Y21.399
X16.594 Y21.364 Z-0.889
X16.574 Y21.399 Z-0.923
X16.608 Y21.419 Z-0.889
G0 Z5.08
X16.897 Y20.61
Z4.191
G1 Z-1.046 F1270.
X19.903 Y18.149
G0 Z5.08
X19.809 Y6.337
Z4.191
G1 Z-1.053 F1270.
X21.815 Y10.774
G0 Z5.08
X20.201 Y17.794
Z4.191
G1 Z-0.994 F1270.
X21.747 Y14.273
G0 Z5.08
X21.251 Y12.719
Z4.191
G1 Z-0.889 F1270.
X21.262 Y12.727 Z-0.9
X21.328 Y12.768 Z-0.948
X21.331 Y12.77 Z-0.951
X21.366 Y12.751 Z-0.928
X21.401 Y12.74 Z-0.914
X21.437 Y12.736 Z-0.91
X21.702
X21.719 Y12.753 Z-0.889
X21.702 Y12.736 Z-0.91
X21.719 Y12.719 Z-0.889
X21.702 Y12.736 Z-0.91
X21.437
X21.401 Y12.74 Z-0.914
X21.366 Y12.751 Z-0.928
X21.331 Y12.77 Z-0.951
X21.336 Y12.797 Z-0.936
X21.343 Y12.821 Z-0.925
X21.352 Y12.843 Z-0.919
X21.37 Y12.87 Z-0.914
X21.4 Y12.907 Z-0.911
X21.436 Y12.944 Z-0.91
X21.527 Y13.03 Z-0.909
X21.587 Y13.089 Z-0.911
X21.635 Y13.144
X21.654 Y13.173 Z-0.912
X21.674 Y13.21 Z-0.913
X21.686 Y13.244 Z-0.915
X21.693 Y13.281 Z-0.917
X21.695 Y13.313 Z-0.918
X21.689 Y13.359 Z-0.917
X21.68 Y13.387
X21.665 Y13.413 Z-0.914
X21.649 Y13.433 Z-0.912
X21.623 Y13.456 Z-0.908
X21.589 Y13.477 Z-0.905
X21.558 Y13.488 Z-0.902
X21.525 Y13.493 Z-0.9
X21.482 Y13.495 Z-0.899
X21.436 Y13.49 Z-0.9
X21.405 Y13.481 Z-0.902
X21.379 Y13.468 Z-0.905
X21.346 Y13.446 Z-0.908
X21.341 Y13.442 Z-0.909
X21.33 Y13.429 Z-0.911
X21.308 Y13.397 Z-0.914
X21.297 Y13.374 Z-0.915
X21.312 Y13.351 Z-0.89
X21.297 Y13.374 Z-0.915
X21.267 Y13.355 Z-0.889
G0 Z5.08
X21.281 Y11.348
Z4.191
G1 Z-0.889 F1270.
X21.311 Y11.332 Z-0.912
X21.322 Y11.352 Z-0.89
X21.311 Y11.332 Z-0.912
X21.33 Y11.305 Z-0.91
X21.339 Y11.295
X21.36 Y11.278 Z-0.907
X21.389 Y11.262 Z-0.905
X21.417 Y11.254 Z-0.901
X21.448 Y11.25 Z-0.9
X21.478 Z-0.898
X21.526 Y11.258 Z-0.899
X21.554 Y11.268 Z-0.901
X21.58 Y11.283 Z-0.902
X21.606 Y11.305 Z-0.904
X21.628 Y11.328 Z-0.906
X21.634 Y11.336 Z-0.908
X21.647 Y11.361 Z-0.91
X21.668 Y11.409 Z-0.913
X21.684 Y11.453 Z-0.916
X21.693 Y11.503 Z-0.918
X21.699 Y11.571 Z-0.919
X21.698 Y11.602 Z-0.922
X21.692 Y11.633 Z-0.931
X21.681 Y11.66 Z-0.943
X21.654 Y11.653 Z-0.918
X21.624 Y11.642 Z-0.893
X21.617 Y11.639 Z-0.889
X21.624 Y11.642 Z-0.893
X21.654 Y11.653 Z-0.918
X21.681 Y11.66 Z-0.943
X21.684 Y11.673 Z-0.94
X21.689 Y11.718 Z-0.932
Y11.774 Z-0.926
X21.684 Y11.821 Z-0.922
X21.675 Y11.861 Z-0.917
X21.66 Y11.9 Z-0.913
X21.634 Y11.948
X21.611 Y11.974 Z-0.909
X21.581 Y12. Z-0.907
X21.558 Y12.013 Z-0.905
X21.531 Y12.023 Z-0.902
X21.496 Y12.031 Z-0.9
X21.462 Y12.033 Z-0.899
X21.417 Y12.027 Z-0.9
X21.388 Y12.017 Z-0.901
X21.364 Y12.003 Z-0.902
X21.335 Y11.98 Z-0.904
X21.318 Y11.962 Z-0.906
X21.29 Y11.913 Z-0.911
X21.278 Y11.883 Z-0.913
X21.272 Y11.849 Z-0.914
X21.269 Y11.794 Z-0.915
X21.274 Y11.735 Z-0.914
X21.282 Y11.704 Z-0.912
X21.295 Y11.674 Z-0.909
X21.318 Y11.637 Z-0.906
X21.325 Y11.628 Z-0.904
X21.347 Y11.607 Z-0.902
X21.375 Y11.586 Z-0.899
X21.401 Y11.575 Z-0.895
X21.434 Y11.567 Z-0.892
X21.46 Y11.566 Z-0.889
X21.461
G0 Z5.08
X21.988 Y11.348
Z4.191
G1 Z-0.889 F1270.
X22.017 Y11.332 Z-0.912
X22.028 Y11.352 Z-0.89
X22.017 Y11.332 Z-0.912
X22.036 Y11.305 Z-0.91
X22.045 Y11.295
X22.065 Y11.279 Z-0.907
X22.095 Y11.262 Z-0.905
X22.124 Y11.254 Z-0.901
X22.154 Y11.25 Z-0.9
X22.185 Z-0.898
X22.232 Y11.258 Z-0.899
X22.261 Y11.269 Z-0.901
X22.286 Y11.283 Z-0.902
X22.312 Y11.305 Z-0.904
X22.334 Y11.328 Z-0.906
X22.341 Y11.337 Z-0.908
X22.353 Y11.361 Z-0.91
X22.375 Y11.409 Z-0.913
X22.39 Y11.453 Z-0.916
X22.4 Y11.503 Z-0.918
X22.406 Y11.571 Z-0.919
X22.405 Y11.602 Z-0.922
X22.398 Y11.633 Z-0.931
X22.387 Y11.659 Z-0.943
X22.36 Y11.653 Z-0.918
X22.33 Y11.642 Z-0.893
X22.323 Y11.639 Z-0.889
X22.33 Y11.642 Z-0.893
X22.36 Y11.653 Z-0.918
X22.387 Y11.659 Z-0.943
X22.394 Y11.702 Z-0.934
X22.396 Y11.745 Z-0.929
X22.394 Y11.795 Z-0.924
X22.388 Y11.836 Z-0.92
X22.377 Y11.874 Z-0.915
X22.361 Y11.909 Z-0.913
X22.341 Y11.948
X22.317 Y11.974 Z-0.909
X22.287 Y12. Z-0.907
X22.265 Y12.013 Z-0.905
X22.238 Y12.023 Z-0.902
X22.202 Y12.031 Z-0.9
X22.168 Y12.033 Z-0.899
X22.124 Y12.027 Z-0.9
X22.095 Y12.017 Z-0.901
X22.07 Y12.003 Z-0.902
X22.042 Y11.98 Z-0.904
X22.025 Y11.962 Z-0.906
X21.996 Y11.913 Z-0.911
X21.985 Y11.883 Z-0.913
X21.979 Y11.849 Z-0.914
X21.975 Y11.797 Z-0.915
X21.981 Y11.734 Z-0.914
X21.988 Y11.704 Z-0.912
X22.002 Y11.674 Z-0.909
X22.026 Y11.635 Z-0.906
X22.043 Y11.616 Z-0.902
X22.073 Y11.591 Z-0.9
X22.096 Y11.579 Z-0.897
X22.127 Y11.57 Z-0.893
X22.162 Y11.566 Z-0.89
X22.168 Z-0.889
G0 Z5.08
X22.183 Y12.713
Z4.191
G1 Z-0.899 F1270.
X22.209
X22.248 Y12.72 Z-0.901
X22.274 Y12.729 Z-0.904
X22.298 Y12.743 Z-0.905
X22.32 Y12.764 Z-0.907
X22.336 Y12.781 Z-0.909
X22.352 Y12.812 Z-0.908
X22.366 Y12.846 Z-0.911
X22.377 Y12.881 Z-0.915
X22.388 Y12.93 Z-0.919
X22.395 Y12.984 Z-0.921
X22.399 Y13.057 Z-0.922
X22.398 Y13.17 Z-0.921
X22.394 Y13.241 Z-0.92
X22.386 Y13.29 Z-0.918
X22.374 Y13.34 Z-0.913
X22.356 Y13.386 Z-0.909
X22.339 Y13.42
X22.336 Y13.425
X22.33 Y13.433 Z-0.908
X22.303 Y13.46 Z-0.905
X22.283 Y13.474 Z-0.904
X22.259 Y13.485 Z-0.902
X22.232 Y13.491 Z-0.9
X22.195 Y13.496 Z-0.899
X22.158 Y13.492 Z-0.9
X22.128 Y13.484 Z-0.902
X22.105 Y13.473 Z-0.904
X22.082 Y13.456 Z-0.905
X22.054 Y13.426 Z-0.909
X22.038 Y13.396 Z-0.908
X22.024 Y13.362 Z-0.911
X22.013 Y13.327 Z-0.915
X22.001 Y13.276 Z-0.919
X21.995 Y13.223 Z-0.921
X21.991 Y13.152 Z-0.922
X21.992 Y13.018
X21.997 Y12.956 Z-0.921
X22.005 Y12.907 Z-0.918
X22.02 Y12.854 Z-0.913
X22.037 Y12.81 Z-0.91
X22.048 Y12.79
X22.073 Y12.761 Z-0.906
X22.093 Y12.743 Z-0.904
X22.119 Y12.728 Z-0.903
X22.147 Y12.719 Z-0.9
X22.179 Y12.713 Z-0.899
X22.183
G0 Z15.24
G53 Z0.

(2D POCKET INSIDE ROUGHING)
M5
M1
T1 M6
S16500 M3
G4 P4.
G55
G0 X12.39 Y12.664
Z11.43
Z3.175
G1 Z0.063 F1016.
X12.389 Y12.66 Z0.014
X12.386 Y12.649 Z-0.034
X12.382 Y12.63 Z-0.08
X12.376 Y12.605 Z-0.123
X12.37 Y12.573 Z-0.161
X12.364 Y12.536 Z-0.193
X12.359 Y12.494 Z-0.219
X12.354 Y12.448 Z-0.238
X12.351 Y12.4 Z-0.25
Y12.351 Z-0.254
G3 X14.89 Z-0.267 I1.27 J0.
X12.351 Z-0.279 I-1.27 J0.
X14.89 Z-0.292 I1.27 J0.
X12.351 Z-0.305 I-1.27 J0.
X14.89 Z-0.318 I1.27 J0.
X12.351 Z-0.33 I-1.27 J0.
X14.89 Z-0.343 I1.27 J0.
X12.351 Z-0.356 I-1.27 J0.
X14.89 Z-0.368 I1.27 J0.
X12.351 Z-0.381 I-1.27 J0.
X14.89 Z-0.394 I1.27 J0.
X12.351 Z-0.406 I-1.27 J0.
X14.89 Z-0.419 I1.27 J0.
X12.351 Z-0.432 I-1.27 J0.
X14.89 Z-0.445 I1.27 J0.
X12.351 Z-0.457 I-1.27 J0.
X14.89 Z-0.47 I1.27 J0.
X12.351 Z-0.483 I-1.27 J0.
X14.89 Z-0.495 I1.27 J0.
X12.351 Z-0.508 I-1.27 J0.
X14.89 Z-0.521 I1.27 J0.
X12.351 Z-0.533 I-1.27 J0.
X14.89 Z-0.546 I1.27 J0.
X12.351 Z-0.559 I-1.27 J0.
X14.89 Z-0.571 I1.27 J0.
X12.351 Z-0.584 I-1.27 J0.
X14.89 Z-0.597 I1.27 J0.
X12.351 Z-0.61 I-1.27 J0.
X14.89 Z-0.622 I1.27 J0.
X12.351 Z-0.635 I-1.27 J0.
X14.89 Z-0.648 I1.27 J0.
X12.351 Z-0.66 I-1.27 J0.
X14.89 Z-0.673 I1.27 J0.
X12.351 Z-0.686 I-1.27 J0.
X14.89 Z-0.698 I1.27 J0.
X12.351 Z-0.711 I-1.27 J0.
X14.89 Z-0.724 I1.27 J0.
X12.351 Z-0.737 I-1.27 J0.
X14.89 Z-0.749 I1.27 J0.
X12.351 Z-0.762 I-1.27 J0.
X14.89 Z-0.775 I1.27 J0.
X12.351 Z-0.787 I-1.27 J0.
X14.89 Z-0.8 I1.27 J0.
X12.351 Z-0.813 I-1.27 J0.
X14.89 Z-0.825 I1.27 J0.
X12.351 Z-0.838 I-1.27 J0.
X14.89 Z-0.851 I1.27 J0.
X12.351 Z-0.864 I-1.27 J0.
X14.89 Z-0.876 I1.27 J0.
X12.351 Z-0.889 I-1.27 J0.
X14.89 Z-0.902 I1.27 J0.
X12.351 Z-0.914 I-1.27 J0.
X14.89 Z-0.927 I1.27 J0.
X12.351 Z-0.94 I-1.27 J0.
X14.89 Z-0.952 I1.27 J0.
X12.351 Z-0.965 I-1.27 J0.
X14.89 Z-0.978 I1.27 J0.
X12.351 Z-0.991 I-1.27 J0.
X14.89 Z-1.003 I1.27 J0.
X12.351 Z-1.016 I-1.27 J0.
X14.89 Z-1.029 I1.27 J0.
X12.351 Z-1.041 I-1.27 J0.
X14.89 Z-1.054 I1.27 J0.
X12.351 Z-1.067 I-1.27 J0.
X14.89 Z-1.079 I1.27 J0.
X12.351 Z-1.092 I-1.27 J0.
X14.89 Z-1.105 I1.27 J0.
X12.351 Z-1.118 I-1.27 J0.
X14.89 Z-1.13 I1.27 J0.
X12.351 Z-1.143 I-1.27 J0.
X14.89 Z-1.156 I1.27 J0.
X12.351 Z-1.168 I-1.27 J0.
X14.89 Z-1.181 I1.27 J0.
X12.351 Z-1.194 I-1.27 J0.
X14.89 Z-1.206 I1.27 J0.
X12.351 Z-1.219 I-1.27 J0.
X14.89 Z-1.232 I1.27 J0.
X12.351 Z-1.245 I-1.27 J0.
X14.89 Z-1.257 I1.27 J0.
X12.351 Z-1.27 I-1.27 J0.
G1 X12.358 Y12.328
X12.377 Y12.314
X12.4
X12.419 Y12.328
X12.427 Y12.351
X12.419 Y12.384
X12.398 Y12.41
X12.367 Y12.425
X12.334
X12.303 Y12.41
X12.282 Y12.384
X12.274 Y12.351
X12.281 Y12.311
X12.301 Y12.277
X12.331 Y12.252
X12.369 Y12.238
X12.408
X12.446 Y12.252
X12.476 Y12.277
X12.496 Y12.311
X12.503 Y12.351
G3 X12.198 I-0.152 J0.
X12.579 I0.191 J0.
X12.122 I-0.229 J0.
X12.655 I0.267 J0.
X12.046 I-0.305 J0.
X12.731 I0.343 J0.
X11.969 I-0.381 J0.
X12.808 I0.419 J0.
X11.893 I-0.457 J0.
X12.884 I0.495 J0.
X11.817 I-0.533 J0.
X12.96 I0.572 J0.
X11.741 I-0.61 J0.
X13.036 I0.648 J0.
X11.665 I-0.686 J0.
X13.113 I0.724 J0.
X11.589 I-0.762 J0.
X13.189 I0.8 J0.
X11.512 I-0.838 J0.
X13.265 I0.876 J0.
X11.436 I-0.914 J0.
X13.341 I0.953 J0.
X11.36 I-0.991 J0.
X13.417 I1.029 J0.
X11.284 I-1.067 J0.
X13.493 I1.105 J0.
X11.208 I-1.143 J0.
X13.57 I1.181 J0.
X11.131 I-1.219 J0.
X13.646 I1.257 J0.
X11.055 I-1.295 J0.
X13.722 I1.333 J0.
X10.979 I-1.372 J0.
X13.798 I1.41 J0.
X10.903 I-1.448 J0.
X13.875 I1.486 J0.
X10.826 I-1.524 J0.
X13.951 I1.562 J0.
X10.75 I-1.6 J0.
X14.027 I1.638 J0.
X10.674 I-1.676 J0.
X14.103 I1.715 J0.
X10.598 I-1.753 J0.
X14.179 I1.791 J0.
X10.522 I-1.829 J0.
X14.255 I1.867 J0.
X10.446 I-1.905 J0.
X14.332 I1.943 J0.
X10.369 I-1.981 J0.
X14.408 I2.019 J0.
X10.293 I-2.057 J0.
X14.484 I2.095 J0.
X10.217 I-2.134 J0.
X14.56 I2.172 J0.
X10.141 I-2.21 J0.
X14.637 I2.248 J0.
X10.064 I-2.286 J0.
X14.713 I2.324 J0.
X9.988 I-2.362 J0.
X14.789 I2.4 J0.
X9.912 I-2.438 J0.
X14.865 I2.477 J0.
X9.836 I-2.515 J0.
X14.941 I2.553 J0.
X9.76 I-2.591 J0.
X15.017 I2.629 J0.
X9.684 I-2.667 J0.
X15.094 I2.705 J0.
X9.607 I-2.743 J0.
X15.17 I2.781 J0.
X9.531 I-2.819 J0.
X15.246 I2.858 J0.
X9.455 I-2.896 J0.
X15.322 I2.934 J0.
X9.379 I-2.972 J0.
X15.399 I3.01 J0.
X9.302 I-3.048 J0.
X15.475 I3.086 J0.
X9.226 I-3.124 J0.
X15.551 I3.162 J0.
X9.15 I-3.2 J0.
X15.627 I3.239 J0.
X9.074 I-3.277 J0.
X15.703 I3.315 J0.
X8.998 I-3.353 J0.
X15.78 I3.391 J0.
X8.922 I-3.429 J0.
X15.856 I3.467 J0.
X8.845 I-3.505 J0.
X15.932 I3.543 J0.
X8.769 I-3.581 J0.
X16.008 I3.62 J0.
X8.693 I-3.658 J0.
X16.084 I3.696 J0.
X8.617 I-3.734 J0.
X16.16 I3.772 J0.
X8.54 I-3.81 J0.
X16.237 I3.848 J0.
X8.464 I-3.886 J0.
X16.313 I3.924 J0.
X8.388 I-3.962 J0.
X16.389 I4.001 J0.
X8.312 I-4.039 J0.
X16.465 I4.077 J0.
X8.236 I-4.115 J0.
X16.542 I4.153 J0.
X8.16 I-4.191 J0.
X16.618 I4.229 J0.
X8.083 I-4.267 J0.
X16.694 I4.305 J0.
X8.007 I-4.343 J0.
X16.77 I4.382 J0.
X7.931 I-4.42 J0.
X16.846 I4.458 J0.
X7.855 I-4.496 J0.
X16.923 I4.534 J0.
X7.779 I-4.572 J0.
X16.999 I4.61 J0.
X7.702 I-4.648 J0.
X17.075 I4.686 J0.
X7.626 I-4.724 J0.
X17.151 I4.763 J0.
X7.55 I-4.801 J0.
X17.227 I4.839 J0.
X7.474 I-4.877 J0.
X17.303 I4.915 J0.
X7.398 I-4.953 J0.
X17.38 I4.991 J0.
X7.321 I-5.029 J0.
X17.456 I5.067 J0.
X7.245 I-5.105 J0.
X17.532 I5.144 J0.
X7.169 I-5.182 J0.
X17.608 I5.22 J0.
X7.093 I-5.258 J0.
X17.684 I5.296 J0.
X7.016 I-5.334 J0.
X17.761 I5.372 J0.
X6.94 I-5.41 J0.
X17.837 I5.448 J0.
X6.864 I-5.486 J0.
X17.913 I5.525 J0.
X6.788 I-5.563 J0.
X17.989 I5.601 J0.
X6.712 I-5.639 J0.
X18.066 I5.677 J0.
X6.635 I-5.715 J0.
X18.142 I5.753 J0.
X6.559 I-5.791 J0.
X18.218 I5.829 J0.
X6.483 I-5.867 J0.
X18.294 I5.906 J0.
X6.407 I-5.944 J0.
X18.37 I5.982 J0.
X6.331 I-6.02 J0.
X18.447 I6.058 J0.
X6.254 I-6.096 J0.
X18.523 I6.134 J0.
X6.178 I-6.172 J0.
X18.599 I6.21 J0.
X6.102 I-6.248 J0.
X18.675 I6.287 J0.
X6.026 I-6.325 J0.
X18.751 I6.363 J0.
X5.95 I-6.401 J0.
X18.827 I6.439 J0.
X5.873 I-6.477 J0.
X18.904 I6.515 J0.
X5.797 I-6.553 J0.
X18.98 I6.591 J0.
X5.721 I-6.629 J0.
X19.056 I6.668 J0.
X5.645 I-6.706 J0.
X19.132 I6.744 J0.
X5.569 I-6.782 J0.
X19.208 I6.82 J0.
X5.492 I-6.858 J0.
X19.285 I6.896 J0.
X5.416 I-6.934 J0.
X19.361 I6.972 J0.
X5.34 I-7.01 J0.
X19.437 I7.049 J0.
X5.264 I-7.087 J0.
X19.462 I7.099 J0.
X5.239 I-7.112 J0.
X19.462 I7.112 J0.
G1 X19.455 Y12.398
X19.434 Y12.442
X19.4 Y12.477
X19.358 Y12.5
X19.31 Y12.509
X15.702 Y12.651
X15.683 Y12.653
X15.633
X15.585 Y12.637
X13.224 Y11.429
G3 X13.25 Y11.136 I0.072 J-0.141
X13.991 Y13.565 Z-1.284 I0.371 J1.215
X13.25 Y11.136 Z-1.298 I-0.371 J-1.215
X13.991 Y13.565 Z-1.312 I0.371 J1.215
X13.25 Y11.136 Z-1.326 I-0.371 J-1.215
X13.991 Y13.565 Z-1.34 I0.371 J1.215
X13.25 Y11.136 Z-1.354 I-0.371 J-1.215
X13.991 Y13.565 Z-1.367 I0.371 J1.215
X13.25 Y11.136 Z-1.381 I-0.371 J-1.215
X13.991 Y13.565 Z-1.395 I0.371 J1.215
X13.25 Y11.136 Z-1.409 I-0.371 J-1.215
X13.991 Y13.565 Z-1.423 I0.371 J1.215
X13.25 Y11.136 Z-1.437 I-0.371 J-1.215
X13.991 Y13.565 Z-1.451 I0.371 J1.215
X13.25 Y11.136 Z-1.465 I-0.371 J-1.215
X13.991 Y13.565 Z-1.479 I0.371 J1.215
X13.25 Y11.136 Z-1.493 I-0.371 J-1.215
X13.991 Y13.565 Z-1.507 I0.371 J1.215
X13.25 Y11.136 Z-1.521 I-0.371 J-1.215
X13.991 Y13.565 Z-1.535 I0.371 J1.215
X13.25 Y11.136 Z-1.549 I-0.371 J-1.215
X13.991 Y13.565 Z-1.562 I0.371 J1.215
X13.25 Y11.136 Z-1.576 I-0.371 J-1.215
X13.991 Y13.565 Z-1.59 I0.371 J1.215
X13.25 Y11.136 Z-1.604 I-0.371 J-1.215
X13.991 Y13.565 Z-1.618 I0.371 J1.215
X13.25 Y11.136 Z-1.632 I-0.371 J-1.215
X13.991 Y13.565 Z-1.646 I0.371 J1.215
X13.25 Y11.136 Z-1.66 I-0.371 J-1.215
X13.991 Y13.565 Z-1.674 I0.371 J1.215
X13.25 Y11.136 Z-1.688 I-0.371 J-1.215
X13.991 Y13.565 Z-1.702 I0.371 J1.215
X13.25 Y11.136 Z-1.716 I-0.371 J-1.215
X13.991 Y13.565 Z-1.73 I0.371 J1.215
X13.25 Y11.136 Z-1.744 I-0.371 J-1.215
X13.991 Y13.565 Z-1.757 I0.371 J1.215
X13.25 Y11.136 Z-1.771 I-0.371 J-1.215
X13.991 Y13.565 Z-1.785 I0.371 J1.215
X13.25 Y11.136 Z-1.799 I-0.371 J-1.215
X13.991 Y13.565 Z-1.813 I0.371 J1.215
X13.25 Y11.136 Z-1.827 I-0.371 J-1.215
X13.991 Y13.565 Z-1.841 I0.371 J1.215
X13.25 Y11.136 Z-1.855 I-0.371 J-1.215
X13.991 Y13.565 Z-1.869 I0.371 J1.215
X13.25 Y11.136 Z-1.883 I-0.371 J-1.215
X13.991 Y13.565 Z-1.897 I0.371 J1.215
X12.351 Y12.351 Z-1.905 I-0.371 J-1.215
G1 X12.358 Y12.328
X12.377 Y12.314
X12.4
X12.419 Y12.328
X12.427 Y12.351
X12.419 Y12.384
X12.398 Y12.41
X12.367 Y12.425
X12.334
X12.303 Y12.41
X12.282 Y12.384
X12.274 Y12.351
X12.281 Y12.311
X12.301 Y12.277
X12.331 Y12.252
X12.369 Y12.238
X12.408
X12.446 Y12.252
X12.476 Y12.277
X12.496 Y12.311
X12.503 Y12.351
G3 X12.198 I-0.152 J0.
X12.579 I0.191 J0.
X12.122 I-0.229 J0.
X12.655 I0.267 J0.
X12.046 I-0.305 J0.
X12.731 I0.343 J0.
X11.969 I-0.381 J0.
X12.808 I0.419 J0.
X11.893 I-0.457 J0.
X12.884 I0.495 J0.
X11.817 I-0.533 J0.
X12.96 I0.572 J0.
X11.741 I-0.61 J0.
X13.036 I0.648 J0.
X11.665 I-0.686 J0.
X13.113 I0.724 J0.
X11.589 I-0.762 J0.
X13.189 I0.8 J0.
X11.512 I-0.838 J0.
X13.265 I0.876 J0.
X11.436 I-0.914 J0.
X13.341 I0.953 J0.
X11.36 I-0.991 J0.
X13.417 I1.029 J0.
X11.284 I-1.067 J0.
X13.493 I1.105 J0.
X11.208 I-1.143 J0.
X13.57 I1.181 J0.
X11.131 I-1.219 J0.
X13.646 I1.257 J0.
X11.055 I-1.295 J0.
X13.722 I1.333 J0.
X10.979 I-1.372 J0.
X13.798 I1.41 J0.
X10.903 I-1.448 J0.
X13.875 I1.486 J0.
X10.826 I-1.524 J0.
X13.951 I1.562 J0.
X10.75 I-1.6 J0.
X14.027 I1.638 J0.
X10.674 I-1.676 J0.
X14.103 I1.715 J0.
X10.598 I-1.753 J0.
X14.179 I1.791 J0.
X10.522 I-1.829 J0.
X14.255 I1.867 J0.
X10.446 I-1.905 J0.
X14.332 I1.943 J0.
X10.369 I-1.981 J0.
X14.408 I2.019 J0.
X10.293 I-2.057 J0.
X14.484 I2.095 J0.
X10.217 I-2.134 J0.
X14.56 I2.172 J0.
X10.141 I-2.21 J0.
X14.637 I2.248 J0.
X10.064 I-2.286 J0.
X14.713 I2.324 J0.
X9.988 I-2.362 J0.
X14.789 I2.4 J0.
X9.912 I-2.438 J0.
X14.865 I2.477 J0.
X9.836 I-2.515 J0.
X14.941 I2.553 J0.
X9.76 I-2.591 J0.
X15.017 I2.629 J0.
X9.684 I-2.667 J0.
X15.094 I2.705 J0.
X9.607 I-2.743 J0.
X15.17 I2.781 J0.
X9.531 I-2.819 J0.
X15.246 I2.858 J0.
X9.455 I-2.896 J0.
X15.322 I2.934 J0.
X9.379 I-2.972 J0.
X15.399 I3.01 J0.
X9.302 I-3.048 J0.
X15.475 I3.086 J0.
X9.226 I-3.124 J0.
X15.551 I3.162 J0.
X9.15 I-3.2 J0.
X15.627 I3.239 J0.
X9.074 I-3.277 J0.
X15.703 I3.315 J0.
X8.998 I-3.353 J0.
X15.78 I3.391 J0.
X8.922 I-3.429 J0.
X15.856 I3.467 J0.
X8.845 I-3.505 J0.
X15.932 I3.543 J0.
X8.769 I-3.581 J0.
X16.008 I3.62 J0.
X8.693 I-3.658 J0.
X16.084 I3.696 J0.
X8.617 I-3.734 J0.
X16.16 I3.772 J0.
X8.54 I-3.81 J0.
X16.237 I3.848 J0.
X8.464 I-3.886 J0.
X16.313 I3.924 J0.
X8.388 I-3.962 J0.
X16.389 I4.001 J0.
X8.312 I-4.039 J0.
X16.465 I4.077 J0.
X8.236 I-4.115 J0.
X16.542 I4.153 J0.
X8.16 I-4.191 J0.
X16.618 I4.229 J0.
X8.083 I-4.267 J0.
X16.694 I4.305 J0.
X8.007 I-4.343 J0.
X16.77 I4.382 J0.
X7.931 I-4.42 J0.
X16.846 I4.458 J0.
X7.855 I-4.496 J0.
X16.923 I4.534 J0.
X7.779 I-4.572 J0.
X16.999 I4.61 J0.
X7.702 I-4.648 J0.
X17.075 I4.686 J0.
X7.626 I-4.724 J0.
X17.151 I4.763 J0.
X7.55 I-4.801 J0.
X17.227 I4.839 J0.
X7.474 I-4.877 J0.
X17.303 I4.915 J0.
X7.398 I-4.953 J0.
X17.38 I4.991 J0.
X7.321 I-5.029 J0.
X17.456 I5.067 J0.
X7.245 I-5.105 J0.
X17.532 I5.144 J0.
X7.169 I-5.182 J0.
X17.608 I5.22 J0.
X7.093 I-5.258 J0.
X17.684 I5.296 J0.
X7.016 I-5.334 J0.
X17.761 I5.372 J0.
X6.94 I-5.41 J0.
X17.837 I5.448 J0.
X6.864 I-5.486 J0.
X17.913 I5.525 J0.
X6.788 I-5.563 J0.
X17.989 I5.601 J0.
X6.712 I-5.639 J0.
X18.066 I5.677 J0.
X6.635 I-5.715 J0.
X18.142 I5.753 J0.
X6.559 I-5.791 J0.
X18.218 I5.829 J0.
X6.483 I-5.867 J0.
X18.294 I5.906 J0.
X6.407 I-5.944 J0.
X18.37 I5.982 J0.
X6.331 I-6.02 J0.
X18.447 I6.058 J0.
X6.254 I-6.096 J0.
X18.523 I6.134 J0.
X6.178 I-6.172 J0.
X18.599 I6.21 J0.
X6.102 I-6.248 J0.
X18.675 I6.287 J0.
X6.026 I-6.325 J0.
X18.751 I6.363 J0.
X5.95 I-6.401 J0.
X18.827 I6.439 J0.
X5.873 I-6.477 J0.
X18.904 I6.515 J0.
X5.797 I-6.553 J0.
X18.98 I6.591 J0.
X5.721 I-6.629 J0.
X19.056 I6.668 J0.
X5.645 I-6.706 J0.
X19.132 I6.744 J0.
X5.569 I-6.782 J0.
X19.208 I6.82 J0.
X5.492 I-6.858 J0.
X19.285 I6.896 J0.
X5.416 I-6.934 J0.
X19.361 I6.972 J0.
X5.34 I-7.01 J0.
X19.437 I7.049 J0.
X5.264 I-7.087 J0.
X19.462 I7.099 J0.
X5.239 I-7.112 J0.
X19.462 I7.112 J0.
G1 X19.455 Y12.398
X19.434 Y12.442
X19.4 Y12.477
X19.358 Y12.5
X19.31 Y12.509
X15.702 Y12.651
X15.683 Y12.653
X15.633
X15.585 Y12.637
X13.224 Y11.429
G3 X13.25 Y11.136 I0.072 J-0.141
X13.991 Y13.565 Z-1.919 I0.371 J1.215
X13.25 Y11.136 Z-1.933 I-0.371 J-1.215
X13.991 Y13.565 Z-1.947 I0.371 J1.215
X13.25 Y11.136 Z-1.961 I-0.371 J-1.215
X13.991 Y13.565 Z-1.975 I0.371 J1.215
X13.25 Y11.136 Z-1.989 I-0.371 J-1.215
X13.991 Y13.565 Z-2.002 I0.371 J1.215
X13.25 Y11.136 Z-2.016 I-0.371 J-1.215
X13.991 Y13.565 Z-2.03 I0.371 J1.215
X13.25 Y11.136 Z-2.044 I-0.371 J-1.215
X13.991 Y13.565 Z-2.058 I0.371 J1.215
X13.25 Y11.136 Z-2.072 I-0.371 J-1.215
X13.991 Y13.565 Z-2.086 I0.371 J1.215
X13.25 Y11.136 Z-2.1 I-0.371 J-1.215
X13.991 Y13.565 Z-2.114 I0.371 J1.215
X13.25 Y11.136 Z-2.128 I-0.371 J-1.215
X13.991 Y13.565 Z-2.142 I0.371 J1.215
X13.25 Y11.136 Z-2.156 I-0.371 J-1.215
X13.991 Y13.565 Z-2.17 I0.371 J1.215
X13.25 Y11.136 Z-2.184 I-0.371 J-1.215
X13.991 Y13.565 Z-2.197 I0.371 J1.215
X13.25 Y11.136 Z-2.211 I-0.371 J-1.215
X13.991 Y13.565 Z-2.225 I0.371 J1.215
X13.25 Y11.136 Z-2.239 I-0.371 J-1.215
X13.991 Y13.565 Z-2.253 I0.371 J1.215
X13.25 Y11.136 Z-2.267 I-0.371 J-1.215
X13.991 Y13.565 Z-2.281 I0.371 J1.215
X13.25 Y11.136 Z-2.295 I-0.371 J-1.215
X13.991 Y13.565 Z-2.309 I0.371 J1.215
X13.25 Y11.136 Z-2.323 I-0.371 J-1.215
X13.991 Y13.565 Z-2.337 I0.371 J1.215
X13.25 Y11.136 Z-2.351 I-0.371 J-1.215
X13.991 Y13.565 Z-2.365 I0.371 J1.215
X13.25 Y11.136 Z-2.379 I-0.371 J-1.215
X13.991 Y13.565 Z-2.392 I0.371 J1.215
X13.25 Y11.136 Z-2.406 I-0.371 J-1.215
X13.991 Y13.565 Z-2.42 I0.371 J1.215
X13.25 Y11.136 Z-2.434 I-0.371 J-1.215
X13.991 Y13.565 Z-2.448 I0.371 J1.215
X13.25 Y11.136 Z-2.462 I-0.371 J-1.215
X13.991 Y13.565 Z-2.476 I0.371 J1.215
X13.25 Y11.136 Z-2.49 I-0.371 J-1.215
X13.991 Y13.565 Z-2.504 I0.371 J1.215
X13.25 Y11.136 Z-2.518 I-0.371 J-1.215
X13.991 Y13.565 Z-2.532 I0.371 J1.215
X12.351 Y12.351 Z-2.54 I-0.371 J-1.215
G1 X12.358 Y12.328
X12.377 Y12.314
X12.4
X12.419 Y12.328
X12.427 Y12.351
X12.419 Y12.384
X12.398 Y12.41
X12.367 Y12.425
X12.334
X12.303 Y12.41
X12.282 Y12.384
X12.274 Y12.351
X12.281 Y12.311
X12.301 Y12.277
X12.331 Y12.252
X12.369 Y12.238
X12.408
X12.446 Y12.252
X12.476 Y12.277
X12.496 Y12.311
X12.503 Y12.351
G3 X12.198 I-0.152 J0.
X12.579 I0.191 J0.
X12.122 I-0.229 J0.
X12.655 I0.267 J0.
X12.046 I-0.305 J0.
X12.731 I0.343 J0.
X11.969 I-0.381 J0.
X12.808 I0.419 J0.
X11.893 I-0.457 J0.
X12.884 I0.495 J0.
X11.817 I-0.533 J0.
X12.96 I0.572 J0.
X11.741 I-0.61 J0.
X13.036 I0.648 J0.
X11.665 I-0.686 J0.
X13.113 I0.724 J0.
X11.589 I-0.762 J0.
X13.189 I0.8 J0.
X11.512 I-0.838 J0.
X13.265 I0.876 J0.
X11.436 I-0.914 J0.
X13.341 I0.953 J0.
X11.36 I-0.991 J0.
X13.417 I1.029 J0.
X11.284 I-1.067 J0.
X13.493 I1.105 J0.
X11.208 I-1.143 J0.
X13.57 I1.181 J0.
X11.131 I-1.219 J0.
X13.646 I1.257 J0.
X11.055 I-1.295 J0.
X13.722 I1.333 J0.
X10.979 I-1.372 J0.
X13.798 I1.41 J0.
X10.903 I-1.448 J0.
X13.875 I1.486 J0.
X10.826 I-1.524 J0.
X13.951 I1.562 J0.
X10.75 I-1.6 J0.
X14.027 I1.638 J0.
X10.674 I-1.676 J0.
X14.103 I1.715 J0.
X10.598 I-1.753 J0.
X14.179 I1.791 J0.
X10.522 I-1.829 J0.
X14.255 I1.867 J0.
X10.446 I-1.905 J0.
X14.332 I1.943 J0.
X10.369 I-1.981 J0.
X14.408 I2.019 J0.
X10.293 I-2.057 J0.
X14.484 I2.095 J0.
X10.217 I-2.134 J0.
X14.56 I2.172 J0.
X10.141 I-2.21 J0.
X14.637 I2.248 J0.
X10.064 I-2.286 J0.
X14.713 I2.324 J0.
X9.988 I-2.362 J0.
X14.789 I2.4 J0.
X9.912 I-2.438 J0.
X14.865 I2.477 J0.
X9.836 I-2.515 J0.
X14.941 I2.553 J0.
X9.76 I-2.591 J0.
X15.017 I2.629 J0.
X9.684 I-2.667 J0.
X15.094 I2.705 J0.
X9.607 I-2.743 J0.
X15.17 I2.781 J0.
X9.531 I-2.819 J0.
X15.246 I2.858 J0.
X9.455 I-2.896 J0.
X15.322 I2.934 J0.
X9.379 I-2.972 J0.
X15.399 I3.01 J0.
X9.302 I-3.048 J0.
X15.475 I3.086 J0.
X9.226 I-3.124 J0.
X15.551 I3.162 J0.
X9.15 I-3.2 J0.
X15.627 I3.239 J0.
X9.074 I-3.277 J0.
X15.703 I3.315 J0.
X8.998 I-3.353 J0.
X15.78 I3.391 J0.
X8.922 I-3.429 J0.
X15.856 I3.467 J0.
X8.845 I-3.505 J0.
X15.932 I3.543 J0.
X8.769 I-3.581 J0.
X16.008 I3.62 J0.
X8.693 I-3.658 J0.
X16.084 I3.696 J0.
X8.617 I-3.734 J0.
X16.16 I3.772 J0.
X8.54 I-3.81 J0.
X16.237 I3.848 J0.
X8.464 I-3.886 J0.
X16.313 I3.924 J0.
X8.388 I-3.962 J0.
X16.389 I4.001 J0.
X8.312 I-4.039 J0.
X16.465 I4.077 J0.
X8.236 I-4.115 J0.
X16.542 I4.153 J0.
X8.16 I-4.191 J0.
X16.618 I4.229 J0.
X8.083 I-4.267 J0.
X16.694 I4.305 J0.
X8.007 I-4.343 J0.
X16.77 I4.382 J0.
X7.931 I-4.42 J0.
X16.846 I4.458 J0.
X7.855 I-4.496 J0.
X16.923 I4.534 J0.
X7.779 I-4.572 J0.
X16.999 I4.61 J0.
X7.702 I-4.648 J0.
X17.075 I4.686 J0.
X7.626 I-4.724 J0.
X17.151 I4.763 J0.
X7.55 I-4.801 J0.
X17.227 I4.839 J0.
X7.474 I-4.877 J0.
X17.303 I4.915 J0.
X7.398 I-4.953 J0.
X17.38 I4.991 J0.
X7.321 I-5.029 J0.
X17.456 I5.067 J0.
X7.245 I-5.105 J0.
X17.532 I5.144 J0.
X7.169 I-5.182 J0.
X17.608 I5.22 J0.
X7.093 I-5.258 J0.
X17.684 I5.296 J0.
X7.016 I-5.334 J0.
X17.761 I5.372 J0.
X6.94 I-5.41 J0.
X17.837 I5.448 J0.
X6.864 I-5.486 J0.
X17.913 I5.525 J0.
X6.788 I-5.563 J0.
X17.989 I5.601 J0.
X6.712 I-5.639 J0.
X18.066 I5.677 J0.
X6.635 I-5.715 J0.
X18.142 I5.753 J0.
X6.559 I-5.791 J0.
X18.218 I5.829 J0.
X6.483 I-5.867 J0.
X18.294 I5.906 J0.
X6.407 I-5.944 J0.
X18.37 I5.982 J0.
X6.331 I-6.02 J0.
X18.447 I6.058 J0.
X6.254 I-6.096 J0.
X18.523 I6.134 J0.
X6.178 I-6.172 J0.
X18.599 I6.21 J0.
X6.102 I-6.248 J0.
X18.675 I6.287 J0.
X6.026 I-6.325 J0.
X18.751 I6.363 J0.
X5.95 I-6.401 J0.
X18.827 I6.439 J0.
X5.873 I-6.477 J0.
X18.904 I6.515 J0.
X5.797 I-6.553 J0.
X18.98 I6.591 J0.
X5.721 I-6.629 J0.
X19.056 I6.668 J0.
X5.645 I-6.706 J0.
X19.132 I6.744 J0.
X5.569 I-6.782 J0.
X19.208 I6.82 J0.
X5.492 I-6.858 J0.
X19.285 I6.896 J0.
X5.416 I-6.934 J0.
X19.361 I6.972 J0.
X5.34 I-7.01 J0.
X19.437 I7.049 J0.
X5.264 I-7.087 J0.
X19.462 I7.099 J0.
X5.239 I-7.112 J0.
X19.462 I7.112 J0.
G1 X19.455 Y12.398
X19.434 Y12.442
X19.4 Y12.477
X19.358 Y12.5
X19.31 Y12.509
X15.702 Y12.651
X15.683 Y12.653
X15.633
X15.585 Y12.637
X13.224 Y11.429
G3 X13.25 Y11.136 I0.072 J-0.141
X13.991 Y13.565 Z-2.554 I0.371 J1.215
X13.25 Y11.136 Z-2.568 I-0.371 J-1.215
X13.991 Y13.565 Z-2.582 I0.371 J1.215
X13.25 Y11.136 Z-2.596 I-0.371 J-1.215
X13.991 Y13.565 Z-2.61 I0.371 J1.215
X13.25 Y11.136 Z-2.624 I-0.371 J-1.215
X13.991 Y13.565 Z-2.637 I0.371 J1.215
X13.25 Y11.136 Z-2.651 I-0.371 J-1.215
X13.991 Y13.565 Z-2.665 I0.371 J1.215
X13.25 Y11.136 Z-2.679 I-0.371 J-1.215
X13.991 Y13.565 Z-2.693 I0.371 J1.215
X13.25 Y11.136 Z-2.707 I-0.371 J-1.215
X13.991 Y13.565 Z-2.721 I0.371 J1.215
X13.25 Y11.136 Z-2.735 I-0.371 J-1.215
X13.991 Y13.565 Z-2.749 I0.371 J1.215
X13.25 Y11.136 Z-2.763 I-0.371 J-1.215
X13.991 Y13.565 Z-2.777 I0.371 J1.215
X13.25 Y11.136 Z-2.791 I-0.371 J-1.215
X13.991 Y13.565 Z-2.805 I0.371 J1.215
X13.25 Y11.136 Z-2.819 I-0.371 J-1.215
X13.991 Y13.565 Z-2.832 I0.371 J1.215
X13.25 Y11.136 Z-2.846 I-0.371 J-1.215
X13.991 Y13.565 Z-2.86 I0.371 J1.215
X13.25 Y11.136 Z-2.874 I-0.371 J-1.215
X13.991 Y13.565 Z-2.888 I0.371 J1.215
X13.25 Y11.136 Z-2.902 I-0.371 J-1.215
X13.991 Y13.565 Z-2.916 I0.371 J1.215
X13.25 Y11.136 Z-2.93 I-0.371 J-1.215
X13.991 Y13.565 Z-2.944 I0.371 J1.215
X13.25 Y11.136 Z-2.958 I-0.371 J-1.215
X13.991 Y13.565 Z-2.972 I0.371 J1.215
X13.25 Y11.136 Z-2.986 I-0.371 J-1.215
X13.991 Y13.565 Z-3. I0.371 J1.215
X13.25 Y11.136 Z-3.014 I-0.371 J-1.215
X13.991 Y13.565 Z-3.027 I0.371 J1.215
X13.25 Y11.136 Z-3.041 I-0.371 J-1.215
X13.991 Y13.565 Z-3.055 I0.371 J1.215
X13.25 Y11.136 Z-3.069 I-0.371 J-1.215
X13.991 Y13.565 Z-3.083 I0.371 J1.215
X13.25 Y11.136 Z-3.097 I-0.371 J-1.215
X13.991 Y13.565 Z-3.111 I0.371 J1.215
X13.25 Y11.136 Z-3.125 I-0.371 J-1.215
X13.991 Y13.565 Z-3.139 I0.371 J1.215
X13.25 Y11.136 Z-3.153 I-0.371 J-1.215
X13.991 Y13.565 Z-3.167 I0.371 J1.215
X12.351 Y12.351 Z-3.175 I-0.371 J-1.215
G1 X12.358 Y12.328
X12.377 Y12.314
X12.4
X12.419 Y12.328
X12.427 Y12.351
X12.419 Y12.384
X12.398 Y12.41
X12.367 Y12.425
X12.334
X12.303 Y12.41
X12.282 Y12.384
X12.274 Y12.351
X12.281 Y12.311
X12.301 Y12.277
X12.331 Y12.252
X12.369 Y12.238
X12.408
X12.446 Y12.252
X12.476 Y12.277
X12.496 Y12.311
X12.503 Y12.351
G3 X12.198 I-0.152 J0.
X12.579 I0.191 J0.
X12.122 I-0.229 J0.
X12.655 I0.267 J0.
X12.046 I-0.305 J0.
X12.731 I0.343 J0.
X11.969 I-0.381 J0.
X12.808 I0.419 J0.
X11.893 I-0.457 J0.
X12.884 I0.495 J0.
X11.817 I-0.533 J0.
X12.96 I0.572 J0.
X11.741 I-0.61 J0.
X13.036 I0.648 J0.
X11.665 I-0.686 J0.
X13.113 I0.724 J0.
X11.589 I-0.762 J0.
X13.189 I0.8 J0.
X11.512 I-0.838 J0.
X13.265 I0.876 J0.
X11.436 I-0.914 J0.
X13.341 I0.953 J0.
X11.36 I-0.991 J0.
X13.417 I1.029 J0.
X11.284 I-1.067 J0.
X13.493 I1.105 J0.
X11.208 I-1.143 J0.
X13.57 I1.181 J0.
X11.131 I-1.219 J0.
X13.646 I1.257 J0.
X11.055 I-1.295 J0.
X13.722 I1.333 J0.
X10.979 I-1.372 J0.
X13.798 I1.41 J0.
X10.903 I-1.448 J0.
X13.875 I1.486 J0.
X10.826 I-1.524 J0.
X13.951 I1.562 J0.
X10.75 I-1.6 J0.
X14.027 I1.638 J0.
X10.674 I-1.676 J0.
X14.103 I1.715 J0.
X10.598 I-1.753 J0.
X14.179 I1.791 J0.
X10.522 I-1.829 J0.
X14.255 I1.867 J0.
X10.446 I-1.905 J0.
X14.332 I1.943 J0.
X10.369 I-1.981 J0.
X14.408 I2.019 J0.
X10.293 I-2.057 J0.
X14.484 I2.095 J0.
X10.217 I-2.134 J0.
X14.56 I2.172 J0.
X10.141 I-2.21 J0.
X14.637 I2.248 J0.
X10.064 I-2.286 J0.
X14.713 I2.324 J0.
X9.988 I-2.362 J0.
X14.789 I2.4 J0.
X9.912 I-2.438 J0.
X14.865 I2.477 J0.
X9.836 I-2.515 J0.
X14.941 I2.553 J0.
X9.76 I-2.591 J0.
X15.017 I2.629 J0.
X9.684 I-2.667 J0.
X15.094 I2.705 J0.
X9.607 I-2.743 J0.
X15.17 I2.781 J0.
X9.531 I-2.819 J0.
X15.246 I2.858 J0.
X9.455 I-2.896 J0.
X15.322 I2.934 J0.
X9.379 I-2.972 J0.
X15.399 I3.01 J0.
X9.302 I-3.048 J0.
X15.475 I3.086 J0.
X9.226 I-3.124 J0.
X15.551 I3.162 J0.
X9.15 I-3.2 J0.
X15.627 I3.239 J0.
X9.074 I-3.277 J0.
X15.703 I3.315 J0.
X8.998 I-3.353 J0.
X15.78 I3.391 J0.
X8.922 I-3.429 J0.
X15.856 I3.467 J0.
X8.845 I-3.505 J0.
X15.932 I3.543 J0.
X8.769 I-3.581 J0.
X16.008 I3.62 J0.
X8.693 I-3.658 J0.
X16.084 I3.696 J0.
X8.617 I-3.734 J0.
X16.16 I3.772 J0.
X8.54 I-3.81 J0.
X16.237 I3.848 J0.
X8.464 I-3.886 J0.
X16.313 I3.924 J0.
X8.388 I-3.962 J0.
X16.389 I4.001 J0.
X8.312 I-4.039 J0.
X16.465 I4.077 J0.
X8.236 I-4.115 J0.
X16.542 I4.153 J0.
X8.16 I-4.191 J0.
X16.618 I4.229 J0.
X8.083 I-4.267 J0.
X16.694 I4.305 J0.
X8.007 I-4.343 J0.
X16.77 I4.382 J0.
X7.931 I-4.42 J0.
X16.846 I4.458 J0.
X7.855 I-4.496 J0.
X16.923 I4.534 J0.
X7.779 I-4.572 J0.
X16.999 I4.61 J0.
X7.702 I-4.648 J0.
X17.075 I4.686 J0.
X7.626 I-4.724 J0.
X17.151 I4.763 J0.
X7.55 I-4.801 J0.
X17.227 I4.839 J0.
X7.474 I-4.877 J0.
X17.303 I4.915 J0.
X7.398 I-4.953 J0.
X17.38 I4.991 J0.
X7.321 I-5.029 J0.
X17.456 I5.067 J0.
X7.245 I-5.105 J0.
X17.532 I5.144 J0.
X7.169 I-5.182 J0.
X17.608 I5.22 J0.
X7.093 I-5.258 J0.
X17.684 I5.296 J0.
X7.016 I-5.334 J0.
X17.761 I5.372 J0.
X6.94 I-5.41 J0.
X17.837 I5.448 J0.
X6.864 I-5.486 J0.
X17.913 I5.525 J0.
X6.788 I-5.563 J0.
X17.989 I5.601 J0.
X6.712 I-5.639 J0.
X18.066 I5.677 J0.
X6.635 I-5.715 J0.
X18.142 I5.753 J0.
X6.559 I-5.791 J0.
X18.218 I5.829 J0.
X6.483 I-5.867 J0.
X18.294 I5.906 J0.
X6.407 I-5.944 J0.
X18.37 I5.982 J0.
X6.331 I-6.02 J0.
X18.447 I6.058 J0.
X6.254 I-6.096 J0.
X18.523 I6.134 J0.
X6.178 I-6.172 J0.
X18.599 I6.21 J0.
X6.102 I-6.248 J0.
X18.675 I6.287 J0.
X6.026 I-6.325 J0.
X18.751 I6.363 J0.
X5.95 I-6.401 J0.
X18.827 I6.439 J0.
X5.873 I-6.477 J0.
X18.904 I6.515 J0.
X5.797 I-6.553 J0.
X18.98 I6.591 J0.
X5.721 I-6.629 J0.
X19.056 I6.668 J0.
X5.645 I-6.706 J0.
X19.132 I6.744 J0.
X5.569 I-6.782 J0.
X19.208 I6.82 J0.
X5.492 I-6.858 J0.
X19.285 I6.896 J0.
X5.416 I-6.934 J0.
X19.361 I6.972 J0.
X5.34 I-7.01 J0.
X19.437 I7.049 J0.
X5.264 I-7.087 J0.
X19.462 I7.099 J0.
X5.239 I-7.112 J0.
X19.462 I7.112 J0.
G1 X19.459 Y12.4 Z-3.171
X19.447 Y12.447 Z-3.159
X19.43 Y12.49 Z-3.14
X19.409 Y12.527 Z-3.114
X19.386 Y12.557 Z-3.082
X19.364 Y12.58 Z-3.044
X19.345 Y12.597 Z-3.002
X19.329 Y12.609 Z-2.956
X19.32 Y12.616 Z-2.907
X19.317 Y12.618 Z-2.858
G0 Z11.43

(2D CONTOUR1)
G55
G0 X12.414 Y0.37
Z11.43
Z1.305
G1 Z0.203 F51.
X12.383 Y0.383 F1016.
X12.351 Y0.387
G2 Y24.314 I0. J11.963
Y0.387 I0. J-11.963
G1 X12.339 Y0.391
X12.331 Y0.4
X12.324 Y0.409
X12.312 Y0.413
G2 X12.389 Y24.288 I0.038 J11.938
X12.312 Y0.413 I-0.038 J-11.938
G1 X12.28 Y0.408
X12.249 Y0.396
X12.414 Y0.37
Z0.152 F51.
X12.383 Y0.383 F1016.
X12.351 Y0.387
G2 Y24.314 I0. J11.963
Y0.387 I0. J-11.963
G1 X12.339 Y0.391
X12.331 Y0.4
X12.324 Y0.409
X12.312 Y0.413
G2 X12.389 Y24.288 I0.038 J11.938
X12.312 Y0.413 I-0.038 J-11.938
G1 X12.28 Y0.408
X12.249 Y0.396
X12.414 Y0.37
Z0.102 F51.
X12.383 Y0.383 F1016.
X12.351 Y0.387
G2 Y24.314 I0. J11.963
Y0.387 I0. J-11.963
G1 X12.339 Y0.391
X12.331 Y0.4
X12.324 Y0.409
X12.312 Y0.413
G2 X12.389 Y24.288 I0.038 J11.938
X12.312 Y0.413 I-0.038 J-11.938
G1 X12.28 Y0.408
X12.249 Y0.396
X12.414 Y0.37
Z0.051 F51.
X12.383 Y0.383 F1016.
X12.351 Y0.387
G2 Y24.314 I0. J11.963
Y0.387 I0. J-11.963
G1 X12.339 Y0.391
X12.331 Y0.4
X12.324 Y0.409
X12.312 Y0.413
G2 X12.389 Y24.288 I0.038 J11.938
X12.312 Y0.413 I-0.038 J-11.938
G1 X12.28 Y0.408
X12.249 Y0.396
X12.414 Y0.37
Z0. F51.
X12.383 Y0.383 F1016.
X12.351 Y0.387
G2 Y24.314 I0. J11.963
Y0.387 I0. J-11.963
G1 X12.339 Y0.391
X12.331 Y0.4
X12.324 Y0.409
X12.312 Y0.413
G2 X12.389 Y24.288 I0.038 J11.938
X12.312 Y0.413 I-0.038 J-11.938
G1 X12.28 Y0.408
X12.249 Y0.396
X12.414 Y0.37
Z-0.051 F51.
X12.383 Y0.383 F1016.
X12.351 Y0.387
G2 Y24.314 I0. J11.963
Y0.387 I0. J-11.963
G1 X12.339 Y0.391
X12.331 Y0.4
X12.324 Y0.409
X12.312 Y0.413
G2 X12.389 Y24.288 I0.038 J11.938
X12.312 Y0.413 I-0.038 J-11.938
G1 X12.28 Y0.408
X12.249 Y0.396
X12.414 Y0.37
Z-0.102 F51.
X12.383 Y0.383 F1016.
X12.351 Y0.387
G2 Y24.314 I0. J11.963
Y0.387 I0. J-11.963
G1 X12.339 Y0.391
X12.331 Y0.4
X12.324 Y0.409
X12.312 Y0.413
G2 X12.389 Y24.288 I0.038 J11.938
X12.312 Y0.413 I-0.038 J-11.938
G1 X12.28 Y0.408
X12.249 Y0.396
X12.414 Y0.37
Z-0.152 F51.
X12.383 Y0.383 F1016.
X12.351 Y0.387
G2 Y24.314 I0. J11.963
Y0.387 I0. J-11.963
G1 X12.339 Y0.391
X12.331 Y0.4
X12.324 Y0.409
X12.312 Y0.413
G2 X12.389 Y24.288 I0.038 J11.938
X12.312 Y0.413 I-0.038 J-11.938
G1 X12.28 Y0.408
X12.249 Y0.396
X12.414 Y0.37
Z-0.203 F51.
X12.383 Y0.383 F1016.
X12.351 Y0.387
G2 Y24.314 I0. J11.963
Y0.387 I0. J-11.963
G1 X12.339 Y0.391
X12.331 Y0.4
X12.324 Y0.409
X12.312 Y0.413
G2 X12.389 Y24.288 I0.038 J11.938
X12.312 Y0.413 I-0.038 J-11.938
G1 X12.28 Y0.408
X12.249 Y0.396
X12.414 Y0.37
Z-0.254 F51.
X12.383 Y0.383 F1016.
X12.351 Y0.387
G2 Y24.314 I0. J11.963
Y0.387 I0. J-11.963
G1 X12.339 Y0.391
X12.331 Y0.4
X12.324 Y0.409
X12.312 Y0.413
G2 X12.389 Y24.288 I0.038 J11.938
X12.312 Y0.413 I-0.038 J-11.938
G1 X12.28 Y0.408
X12.249 Y0.396
X12.414 Y0.37
Z-0.305 F51.
X12.383 Y0.383 F1016.
X12.351 Y0.387
G2 Y24.314 I0. J11.963
Y0.387 I0. J-11.963
G1 X12.339 Y0.391
X12.331 Y0.4
X12.324 Y0.409
X12.312 Y0.413
G2 X12.389 Y24.288 I0.038 J11.938
X12.312 Y0.413 I-0.038 J-11.938
G1 X12.28 Y0.408
X12.249 Y0.396
X12.414 Y0.37
Z-0.356 F51.
X12.383 Y0.383 F1016.
X12.351 Y0.387
G2 Y24.314 I0. J11.963
Y0.387 I0. J-11.963
G1 X12.339 Y0.391
X12.331 Y0.4
X12.324 Y0.409
X12.312 Y0.413
G2 X12.389 Y24.288 I0.038 J11.938
X12.312 Y0.413 I-0.038 J-11.938
G1 X12.28 Y0.408
X12.249 Y0.396
X12.414 Y0.37
Z-0.406 F51.
X12.383 Y0.383 F1016.
X12.351 Y0.387
G2 Y24.314 I0. J11.963
Y0.387 I0. J-11.963
G1 X12.339 Y0.391
X12.331 Y0.4
X12.324 Y0.409
X12.312 Y0.413
G2 X12.389 Y24.288 I0.038 J11.938
X12.312 Y0.413 I-0.038 J-11.938
G1 X12.28 Y0.408
X12.249 Y0.396
X12.414 Y0.37
Z-0.457 F51.
X12.383 Y0.383 F1016.
X12.351 Y0.387
G2 Y24.314 I0. J11.963
Y0.387 I0. J-11.963
G1 X12.339 Y0.391
X12.331 Y0.4
X12.324 Y0.409
X12.312 Y0.413
G2 X12.389 Y24.288 I0.038 J11.938
X12.312 Y0.413 I-0.038 J-11.938
G1 X12.28 Y0.408
X12.249 Y0.396
X12.414 Y0.37
Z-0.508 F51.
X12.383 Y0.383 F1016.
X12.351 Y0.387
G2 Y24.314 I0. J11.963
Y0.387 I0. J-11.963
G1 X12.339 Y0.391
X12.331 Y0.4
X12.324 Y0.409
X12.312 Y0.413
G2 X12.389 Y24.288 I0.038 J11.938
X12.312 Y0.413 I-0.038 J-11.938
G1 X12.28 Y0.408
X12.249 Y0.396
X12.414 Y0.37
Z-0.559 F51.
X12.383 Y0.383 F1016.
X12.351 Y0.387
G2 Y24.314 I0. J11.963
Y0.387 I0. J-11.963
G1 X12.339 Y0.391
X12.331 Y0.4
X12.324 Y0.409
X12.312 Y0.413
G2 X12.389 Y24.288 I0.038 J11.938
X12.312 Y0.413 I-0.038 J-11.938
G1 X12.28 Y0.408
X12.249 Y0.396
X12.414 Y0.37
Z-0.61 F51.
X12.383 Y0.383 F1016.
X12.351 Y0.387
G2 Y24.314 I0. J11.963
Y0.387 I0. J-11.963
G1 X12.339 Y0.391
X12.331 Y0.4
X12.324 Y0.409
X12.312 Y0.413
G2 X12.389 Y24.288 I0.038 J11.938
X12.312 Y0.413 I-0.038 J-11.938
G1 X12.28 Y0.408
X12.249 Y0.396
X12.414 Y0.37
Z-0.66 F51.
X12.383 Y0.383 F1016.
X12.351 Y0.387
G2 Y24.314 I0. J11.963
Y0.387 I0. J-11.963
G1 X12.339 Y0.391
X12.331 Y0.4
X12.324 Y0.409
X12.312 Y0.413
G2 X12.389 Y24.288 I0.038 J11.938
X12.312 Y0.413 I-0.038 J-11.938
G1 X12.28 Y0.408
X12.249 Y0.396
X12.414 Y0.37
Z-0.711 F51.
X12.383 Y0.383 F1016.
X12.351 Y0.387
G2 Y24.314 I0. J11.963
Y0.387 I0. J-11.963
G1 X12.339 Y0.391
X12.331 Y0.4
X12.324 Y0.409
X12.312 Y0.413
G2 X12.389 Y24.288 I0.038 J11.938
X12.312 Y0.413 I-0.038 J-11.938
G1 X12.28 Y0.408
X12.249 Y0.396
X12.414 Y0.37
Z-0.762 F51.
X12.383 Y0.383 F1016.
X12.351 Y0.387
G2 Y24.314 I0. J11.963
Y0.387 I0. J-11.963
G1 X12.339 Y0.391
X12.331 Y0.4
X12.324 Y0.409
X12.312 Y0.413
G2 X12.389 Y24.288 I0.038 J11.938
X12.312 Y0.413 I-0.038 J-11.938
G1 X12.28 Y0.408
X12.249 Y0.396
X12.414 Y0.37
Z-0.813 F51.
X12.383 Y0.383 F1016.
X12.351 Y0.387
G2 Y24.314 I0. J11.963
Y0.387 I0. J-11.963
G1 X12.339 Y0.391
X12.331 Y0.4
X12.324 Y0.409
X12.312 Y0.413
G2 X12.389 Y24.288 I0.038 J11.938
X12.312 Y0.413 I-0.038 J-11.938
G1 X12.28 Y0.408
X12.249 Y0.396
X12.414 Y0.37
Z-0.864 F51.
X12.383 Y0.383 F1016.
X12.351 Y0.387
G2 Y24.314 I0. J11.963
Y0.387 I0. J-11.963
G1 X12.339 Y0.391
X12.331 Y0.4
X12.324 Y0.409
X12.312 Y0.413
G2 X12.389 Y24.288 I0.038 J11.938
X12.312 Y0.413 I-0.038 J-11.938
G1 X12.28 Y0.408
X12.249 Y0.396
X12.414 Y0.37
Z-0.914 F51.
X12.383 Y0.383 F1016.
X12.351 Y0.387
G2 Y24.314 I0. J11.963
Y0.387 I0. J-11.963
G1 X12.339 Y0.391
X12.331 Y0.4
X12.324 Y0.409
X12.312 Y0.413
G2 X12.389 Y24.288 I0.038 J11.938
X12.312 Y0.413 I-0.038 J-11.938
G1 X12.28 Y0.408
X12.249 Y0.396
X12.414 Y0.37
Z-0.965 F51.
X12.383 Y0.383 F1016.
X12.351 Y0.387
G2 Y24.314 I0. J11.963
Y0.387 I0. J-11.963
G1 X12.339 Y0.391
X12.331 Y0.4
X12.324 Y0.409
X12.312 Y0.413
G2 X12.389 Y24.288 I0.038 J11.938
X12.312 Y0.413 I-0.038 J-11.938
G1 X12.28 Y0.408
X12.249 Y0.396
X12.414 Y0.37
Z-1.016 F51.
X12.383 Y0.383 F1016.
X12.351 Y0.387
G2 Y24.314 I0. J11.963
Y0.387 I0. J-11.963
G1 X12.339 Y0.391
X12.331 Y0.4
X12.324 Y0.409
X12.312 Y0.413
G2 X12.389 Y24.288 I0.038 J11.938
X12.312 Y0.413 I-0.038 J-11.938
G1 X12.28 Y0.408
X12.249 Y0.396
X12.414 Y0.37
Z-1.067 F51.
X12.383 Y0.383 F1016.
X12.351 Y0.387
G2 Y24.314 I0. J11.963
Y0.387 I0. J-11.963
G1 X12.339 Y0.391
X12.331 Y0.4
X12.324 Y0.409
X12.312 Y0.413
G2 X12.389 Y24.288 I0.038 J11.938
X12.312 Y0.413 I-0.038 J-11.938
G1 X12.28 Y0.408
X12.249 Y0.396
X12.414 Y0.37
Z-1.118 F51.
X12.383 Y0.383 F1016.
X12.351 Y0.387
G2 Y24.314 I0. J11.963
Y0.387 I0. J-11.963
G1 X12.339 Y0.391
X12.331 Y0.4
X12.324 Y0.409
X12.312 Y0.413
G2 X12.389 Y24.288 I0.038 J11.938
X12.312 Y0.413 I-0.038 J-11.938
G1 X12.28 Y0.408
X12.249 Y0.396
X12.414 Y0.37
Z-1.168 F51.
X12.383 Y0.383 F1016.
X12.351 Y0.387
G2 Y24.314 I0. J11.963
Y0.387 I0. J-11.963
G1 X12.339 Y0.391
X12.331 Y0.4
X12.324 Y0.409
X12.312 Y0.413
G2 X12.389 Y24.288 I0.038 J11.938
X12.312 Y0.413 I-0.038 J-11.938
G1 X12.28 Y0.408
X12.249 Y0.396
X12.414 Y0.37
Z-1.219 F51.
X12.383 Y0.383 F1016.
X12.351 Y0.387
G2 Y24.314 I0. J11.963
Y0.387 I0. J-11.963
G1 X12.339 Y0.391
X12.331 Y0.4
X12.324 Y0.409
X12.312 Y0.413
G2 X12.389 Y24.288 I0.038 J11.938
X12.312 Y0.413 I-0.038 J-11.938
G1 X12.28 Y0.408
X12.249 Y0.396
X12.414 Y0.37
Z-1.27 F51.
X12.383 Y0.383 F1016.
X12.351 Y0.387
G2 Y24.314 I0. J11.963
Y0.387 I0. J-11.963
G1 X12.339 Y0.391
X12.331 Y0.4
X12.324 Y0.409
X12.312 Y0.413
G2 X12.389 Y24.288 I0.038 J11.938
X12.312 Y0.413 I-0.038 J-11.938
G1 X12.28 Y0.408
X12.249 Y0.396
X12.414 Y0.37
Z-1.321 F51.
X12.383 Y0.383 F1016.
X12.351 Y0.387
G2 Y24.314 I0. J11.963
Y0.387 I0. J-11.963
G1 X12.339 Y0.391
X12.331 Y0.4
X12.324 Y0.409
X12.312 Y0.413
G2 X12.389 Y24.288 I0.038 J11.938
X12.312 Y0.413 I-0.038 J-11.938
G1 X12.28 Y0.408
X12.249 Y0.396
X12.414 Y0.37
Z-1.372 F51.
X12.383 Y0.383 F1016.
X12.351 Y0.387
G2 Y24.314 I0. J11.963
Y0.387 I0. J-11.963
G1 X12.339 Y0.391
X12.331 Y0.4
X12.324 Y0.409
X12.312 Y0.413
G2 X12.389 Y24.288 I0.038 J11.938
X12.312 Y0.413 I-0.038 J-11.938
G1 X12.28 Y0.408
X12.249 Y0.396
X12.414 Y0.37
Z-1.422 F51.
X12.383 Y0.383 F1016.
X12.351 Y0.387
G2 Y24.314 I0. J11.963
Y0.387 I0. J-11.963
G1 X12.339 Y0.391
X12.331 Y0.4
X12.324 Y0.409
X12.312 Y0.413
G2 X12.389 Y24.288 I0.038 J11.938
X12.312 Y0.413 I-0.038 J-11.938
G1 X12.28 Y0.408
X12.249 Y0.396
X12.414 Y0.37
Z-1.473 F51.
X12.383 Y0.383 F1016.
X12.351 Y0.387
G2 Y24.314 I0. J11.963
Y0.387 I0. J-11.963
G1 X12.339 Y0.391
X12.331 Y0.4
X12.324 Y0.409
X12.312 Y0.413
G2 X12.389 Y24.288 I0.038 J11.938
X12.312 Y0.413 I-0.038 J-11.938
G1 X12.28 Y0.408
X12.249 Y0.396
X12.414 Y0.37
Z-1.524 F51.
X12.383 Y0.383 F1016.
X12.351 Y0.387
G2 Y24.314 I0. J11.963
Y0.387 I0. J-11.963
G1 X12.339 Y0.391
X12.331 Y0.4
X12.324 Y0.409
X12.312 Y0.413
G2 X12.389 Y24.288 I0.038 J11.938
X12.312 Y0.413 I-0.038 J-11.938
G1 X12.28 Y0.408
X12.249 Y0.396
X12.414 Y0.37
Z-1.575 F51.
X12.383 Y0.383 F1016.
X12.351 Y0.387
G2 Y24.314 I0. J11.963
Y0.387 I0. J-11.963
G1 X12.339 Y0.391
X12.331 Y0.4
X12.324 Y0.409
X12.312 Y0.413
G2 X12.389 Y24.288 I0.038 J11.938
X12.312 Y0.413 I-0.038 J-11.938
G1 X12.28 Y0.408
X12.249 Y0.396
X12.414 Y0.37
Z-1.626 F51.
X12.383 Y0.383 F1016.
X12.351 Y0.387
G2 Y24.314 I0. J11.963
Y0.387 I0. J-11.963
G1 X12.339 Y0.391
X12.331 Y0.4
X12.324 Y0.409
X12.312 Y0.413
G2 X12.389 Y24.288 I0.038 J11.938
X12.312 Y0.413 I-0.038 J-11.938
G1 X12.28 Y0.408
X12.249 Y0.396
X12.414 Y0.37
Z-1.676 F51.
X12.383 Y0.383 F1016.
X12.351 Y0.387
G2 Y24.314 I0. J11.963
Y0.387 I0. J-11.963
G1 X12.339 Y0.391
X12.331 Y0.4
X12.324 Y0.409
X12.312 Y0.413
G2 X12.389 Y24.288 I0.038 J11.938
X12.312 Y0.413 I-0.038 J-11.938
G1 X12.28 Y0.408
X12.249 Y0.396
X12.414 Y0.37
Z-1.727 F51.
X12.383 Y0.383 F1016.
X12.351 Y0.387
G2 Y24.314 I0. J11.963
Y0.387 I0. J-11.963
G1 X12.339 Y0.391
X12.331 Y0.4
X12.324 Y0.409
X12.312 Y0.413
G2 X12.389 Y24.288 I0.038 J11.938
X12.312 Y0.413 I-0.038 J-11.938
G1 X12.28 Y0.408
X12.249 Y0.396
X12.414 Y0.37
Z-1.778 F51.
X12.383 Y0.383 F1016.
X12.351 Y0.387
G2 Y24.314 I0. J11.963
Y0.387 I0. J-11.963
G1 X12.339 Y0.391
X12.331 Y0.4
X12.324 Y0.409
X12.312 Y0.413
G2 X12.389 Y24.288 I0.038 J11.938
X12.312 Y0.413 I-0.038 J-11.938
G1 X12.28 Y0.408
X12.249 Y0.396
X12.414 Y0.37
Z-1.829 F51.
X12.383 Y0.383 F1016.
X12.351 Y0.387
G2 Y24.314 I0. J11.963
Y0.387 I0. J-11.963
G1 X12.339 Y0.391
X12.331 Y0.4
X12.324 Y0.409
X12.312 Y0.413
G2 X12.389 Y24.288 I0.038 J11.938
X12.312 Y0.413 I-0.038 J-11.938
G1 X12.28 Y0.408
X12.249 Y0.396
X12.414 Y0.37
Z-1.88 F51.
X12.383 Y0.383 F1016.
X12.351 Y0.387
G2 Y24.314 I0. J11.963
Y0.387 I0. J-11.963
G1 X12.339 Y0.391
X12.331 Y0.4
X12.324 Y0.409
X12.312 Y0.413
G2 X12.389 Y24.288 I0.038 J11.938
X12.312 Y0.413 I-0.038 J-11.938
G1 X12.28 Y0.408
X12.249 Y0.396
X12.414 Y0.37
Z-1.93 F51.
X12.383 Y0.383 F1016.
X12.351 Y0.387
G2 Y24.314 I0. J11.963
Y0.387 I0. J-11.963
G1 X12.339 Y0.391
X12.331 Y0.4
X12.324 Y0.409
X12.312 Y0.413
G2 X12.389 Y24.288 I0.038 J11.938
X12.312 Y0.413 I-0.038 J-11.938
G1 X12.28 Y0.408
X12.249 Y0.396
X12.414 Y0.37
Z-1.981 F51.
X12.383 Y0.383 F1016.
X12.351 Y0.387
G2 Y24.314 I0. J11.963
Y0.387 I0. J-11.963
G1 X12.339 Y0.391
X12.331 Y0.4
X12.324 Y0.409
X12.312 Y0.413
G2 X12.389 Y24.288 I0.038 J11.938
X12.312 Y0.413 I-0.038 J-11.938
G1 X12.28 Y0.408
X12.249 Y0.396
X12.414 Y0.37
Z-2.032 F51.
X12.383 Y0.383 F1016.
X12.351 Y0.387
G2 Y24.314 I0. J11.963
Y0.387 I0. J-11.963
G1 X12.339 Y0.391
X12.331 Y0.4
X12.324 Y0.409
X12.312 Y0.413
G2 X12.389 Y24.288 I0.038 J11.938
X12.312 Y0.413 I-0.038 J-11.938
G1 X12.28 Y0.408
X12.249 Y0.396
X12.414 Y0.37
Z-2.083 F51.
X12.383 Y0.383 F1016.
X12.351 Y0.387
G2 Y24.314 I0. J11.963
Y0.387 I0. J-11.963
G1 X12.339 Y0.391
X12.331 Y0.4
X12.324 Y0.409
X12.312 Y0.413
G2 X12.389 Y24.288 I0.038 J11.938
X12.312 Y0.413 I-0.038 J-11.938
G1 X12.28 Y0.408
X12.249 Y0.396
X12.414 Y0.37
Z-2.134 F51.
X12.383 Y0.383 F1016.
X12.351 Y0.387
G2 Y24.314 I0. J11.963
Y0.387 I0. J-11.963
G1 X12.339 Y0.391
X12.331 Y0.4
X12.324 Y0.409
X12.312 Y0.413
G2 X12.389 Y24.288 I0.038 J11.938
X12.312 Y0.413 I-0.038 J-11.938
G1 X12.28 Y0.408
X12.249 Y0.396
X12.414 Y0.37
Z-2.184 F51.
X12.383 Y0.383 F1016.
X12.351 Y0.387
G2 Y24.314 I0. J11.963
Y0.387 I0. J-11.963
G1 X12.339 Y0.391
X12.331 Y0.4
X12.324 Y0.409
X12.312 Y0.413
G2 X12.389 Y24.288 I0.038 J11.938
X12.312 Y0.413 I-0.038 J-11.938
G1 X12.28 Y0.408
X12.249 Y0.396
X12.414 Y0.37
Z-2.235 F51.
X12.383 Y0.383 F1016.
X12.351 Y0.387
G2 Y24.314 I0. J11.963
Y0.387 I0. J-11.963
G1 X12.339 Y0.391
X12.331 Y0.4
X12.324 Y0.409
X12.312 Y0.413
G2 X12.389 Y24.288 I0.038 J11.938
X12.312 Y0.413 I-0.038 J-11.938
G1 X12.28 Y0.408
X12.249 Y0.396
X12.414 Y0.37
Z-2.286 F51.
X12.383 Y0.383 F1016.
X12.351 Y0.387
G2 Y24.314 I0. J11.963
Y0.387 I0. J-11.963
G1 X12.339 Y0.391
X12.331 Y0.4
X12.324 Y0.409
X12.312 Y0.413
G2 X12.389 Y24.288 I0.038 J11.938
X12.312 Y0.413 I-0.038 J-11.938
G1 X12.28 Y0.408
X12.249 Y0.396
X12.414 Y0.37
Z-2.337 F51.
X12.383 Y0.383 F1016.
X12.351 Y0.387
G2 Y24.314 I0. J11.963
Y0.387 I0. J-11.963
G1 X12.339 Y0.391
X12.331 Y0.4
X12.324 Y0.409
X12.312 Y0.413
G2 X12.389 Y24.288 I0.038 J11.938
X12.312 Y0.413 I-0.038 J-11.938
G1 X12.28 Y0.408
X12.249 Y0.396
X12.414 Y0.37
Z-2.388 F51.
X12.383 Y0.383 F1016.
X12.351 Y0.387
G2 Y24.314 I0. J11.963
Y0.387 I0. J-11.963
G1 X12.339 Y0.391
X12.331 Y0.4
X12.324 Y0.409
X12.312 Y0.413
G2 X12.389 Y24.288 I0.038 J11.938
X12.312 Y0.413 I-0.038 J-11.938
G1 X12.28 Y0.408
X12.249 Y0.396
X12.414 Y0.37
Z-2.438 F51.
X12.383 Y0.383 F1016.
X12.351 Y0.387
G2 Y24.314 I0. J11.963
Y0.387 I0. J-11.963
G1 X12.339 Y0.391
X12.331 Y0.4
X12.324 Y0.409
X12.312 Y0.413
G2 X12.389 Y24.288 I0.038 J11.938
X12.312 Y0.413 I-0.038 J-11.938
G1 X12.28 Y0.408
X12.249 Y0.396
X12.414 Y0.37
Z-2.489 F51.
X12.383 Y0.383 F1016.
X12.351 Y0.387
G2 Y24.314 I0. J11.963
Y0.387 I0. J-11.963
G1 X12.339 Y0.391
X12.331 Y0.4
X12.324 Y0.409
X12.312 Y0.413
G2 X12.389 Y24.288 I0.038 J11.938
X12.312 Y0.413 I-0.038 J-11.938
G1 X12.28 Y0.408
X12.249 Y0.396
X12.414 Y0.37
Z-2.54 F51.
X12.383 Y0.383 F1016.
X12.351 Y0.387
G2 Y24.314 I0. J11.963
Y0.387 I0. J-11.963
G1 X12.339 Y0.391
X12.331 Y0.4
X12.324 Y0.409
X12.312 Y0.413
G2 X12.389 Y24.288 I0.038 J11.938
X12.312 Y0.413 I-0.038 J-11.938
G1 X12.28 Y0.408
X12.249 Y0.396
X12.414 Y0.37
Z-2.591 F51.
X12.383 Y0.383 F1016.
X12.351 Y0.387
G2 Y24.314 I0. J11.963
Y0.387 I0. J-11.963
G1 X12.339 Y0.391
X12.331 Y0.4
X12.324 Y0.409
X12.312 Y0.413
G2 X12.389 Y24.288 I0.038 J11.938
X12.312 Y0.413 I-0.038 J-11.938
G1 X12.28 Y0.408
X12.249 Y0.396
X12.414 Y0.37
Z-2.642 F51.
X12.383 Y0.383 F1016.
X12.351 Y0.387
G2 Y24.314 I0. J11.963
Y0.387 I0. J-11.963
G1 X12.339 Y0.391
X12.331 Y0.4
X12.324 Y0.409
X12.312 Y0.413
G2 X12.389 Y24.288 I0.038 J11.938
X12.312 Y0.413 I-0.038 J-11.938
G1 X12.28 Y0.408
X12.249 Y0.396
X12.414 Y0.37
Z-2.692 F51.
X12.383 Y0.383 F1016.
X12.351 Y0.387
G2 Y24.314 I0. J11.963
Y0.387 I0. J-11.963
G1 X12.339 Y0.391
X12.331 Y0.4
X12.324 Y0.409
X12.312 Y0.413
G2 X12.389 Y24.288 I0.038 J11.938
X12.312 Y0.413 I-0.038 J-11.938
G1 X12.28 Y0.408
X12.249 Y0.396
X12.414 Y0.37
Z-2.743 F51.
X12.383 Y0.383 F1016.
X12.351 Y0.387
G2 Y24.314 I0. J11.963
Y0.387 I0. J-11.963
G1 X12.339 Y0.391
X12.331 Y0.4
X12.324 Y0.409
X12.312 Y0.413
G2 X12.389 Y24.288 I0.038 J11.938
X12.312 Y0.413 I-0.038 J-11.938
G1 X12.28 Y0.408
X12.249 Y0.396
X12.414 Y0.37
Z-2.794 F51.
X12.383 Y0.383 F1016.
X12.351 Y0.387
G2 Y24.314 I0. J11.963
Y0.387 I0. J-11.963
G1 X12.339 Y0.391
X12.331 Y0.4
X12.324 Y0.409
X12.312 Y0.413
G2 X12.389 Y24.288 I0.038 J11.938
X12.312 Y0.413 I-0.038 J-11.938
G1 X12.28 Y0.408
X12.249 Y0.396
X12.414 Y0.37
Z-2.845 F51.
X12.383 Y0.383 F1016.
X12.351 Y0.387
G2 Y24.314 I0. J11.963
Y0.387 I0. J-11.963
G1 X12.339 Y0.391
X12.331 Y0.4
X12.324 Y0.409
X12.312 Y0.413
G2 X12.389 Y24.288 I0.038 J11.938
X12.312 Y0.413 I-0.038 J-11.938
G1 X12.28 Y0.408
X12.249 Y0.396
X12.414 Y0.37
Z-2.896 F51.
X12.383 Y0.383 F1016.
X12.351 Y0.387
G2 Y24.314 I0. J11.963
Y0.387 I0. J-11.963
G1 X12.339 Y0.391
X12.331 Y0.4
X12.324 Y0.409
X12.312 Y0.413
G2 X12.389 Y24.288 I0.038 J11.938
X12.312 Y0.413 I-0.038 J-11.938
G1 X12.28 Y0.408
X12.249 Y0.396
X12.414 Y0.37
Z-2.946 F51.
X12.383 Y0.383 F1016.
X12.351 Y0.387
G2 Y24.314 I0. J11.963
Y0.387 I0. J-11.963
G1 X12.339 Y0.391
X12.331 Y0.4
X12.324 Y0.409
X12.312 Y0.413
G2 X12.389 Y24.288 I0.038 J11.938
X12.312 Y0.413 I-0.038 J-11.938
G1 X12.28 Y0.408
X12.249 Y0.396
X12.414 Y0.37
Z-2.997 F51.
X12.383 Y0.383 F1016.
X12.351 Y0.387
G2 Y24.314 I0. J11.963
Y0.387 I0. J-11.963
G1 X12.339 Y0.391
X12.331 Y0.4
X12.324 Y0.409
X12.312 Y0.413
G2 X12.389 Y24.288 I0.038 J11.938
X12.312 Y0.413 I-0.038 J-11.938
G1 X12.28 Y0.408
X12.249 Y0.396
X12.414 Y0.37
Z-3.048 F51.
X12.383 Y0.383 F1016.
X12.351 Y0.387
G2 Y24.314 I0. J11.963
Y0.387 I0. J-11.963
G1 X12.339 Y0.391
X12.331 Y0.4
X12.324 Y0.409
X12.312 Y0.413
G2 X12.389 Y24.288 I0.038 J11.938
X12.312 Y0.413 I-0.038 J-11.938
G1 X12.28 Y0.408
X12.249 Y0.396
X12.414 Y0.37
Z-3.099 F51.
X12.383 Y0.383 F1016.
X12.351 Y0.387
G2 Y24.314 I0. J11.963
Y0.387 I0. J-11.963
G1 X12.339 Y0.391
X12.331 Y0.4
X12.324 Y0.409
X12.312 Y0.413
G2 X12.389 Y24.288 I0.038 J11.938
X12.312 Y0.413 I-0.038 J-11.938
G1 X12.28 Y0.408
X12.249 Y0.396
X12.414 Y0.37
Z-3.15 F51.
X12.383 Y0.383 F1016.
X12.351 Y0.387
G2 Y24.314 I0. J11.963
Y0.387 I0. J-11.963
G1 X12.339 Y0.391
X12.331 Y0.4
X12.324 Y0.409
X12.312 Y0.413
G2 X12.389 Y24.288 I0.038 J11.938
X12.312 Y0.413 I-0.038 J-11.938
G1 X12.28 Y0.408
X12.249 Y0.396
X12.414 Y0.37
Z-3.175 F51.
X12.383 Y0.383 F1016.
X12.351 Y0.387
G2 Y24.314 I0. J11.963
Y0.387 I0. J-11.963
G1 X12.339 Y0.391
X12.331 Y0.4
X12.324 Y0.409
X12.312 Y0.413
G2 X12.389 Y24.288 I0.038 J11.938
X12.312 Y0.413 I-0.038 J-11.938
G1 X12.28 Y0.408
X12.249 Y0.396
G0 Z11.43

G53 Z0.
M30
