(RING)
(T1  D=3.175 CR=0. - ZMIN=-3.175 - FLAT END MILL)
G0 G90 G94 G17
G21
G53 G0 Z0.

(FACE)
M5
M9
T1
S26000 M3
G4 P4.
G55
G0 X19.201 Y2.33
Z11.43
Z2.794
G1 Z0.25 F2500.
X18.43
X6.398
X4.364
G2 Y4.227 I0. J0.949
G1 X20.464
X21.702
G3 Y6.124 I0. J0.949
G1 X3.126
X2.39
G2 Y8.021 I0. J0.949
G1 X22.438
X22.784
G3 Y9.918 I0. J0.949
G1 X2.044
X2.
G2 Y11.815 I0. J0.949
G1 X22.828
G3 Y13.712 I0. J0.949
G1 X2.
G2 Y15.609 I0. J0.949
G1 X2.13
X22.698
G3 Y17.506 I0. J0.949
G1 X22.216
X2.612
G2 Y19.403 I0. J0.949
G1 X3.511
X21.317
G3 Y21.3 I0. J0.949
G1 X19.839
X4.989
G0 Z5.08
X5.627 Y2.33
Z2.794
G1 Z0.2 F2500.
X6.398
X18.43
X20.464
G3 Y4.227 I0. J0.949
G1 X4.364
X3.126
G2 Y6.124 I0. J0.949
G1 X21.702
X22.438
G3 Y8.021 I0. J0.949
G1 X2.39
X2.044
G2 Y9.918 I0. J0.949
G1 X22.784
X22.828
G3 Y11.815 I0. J0.949
G1 X2.
G2 Y13.712 I0. J0.949
G1 X22.828
G3 Y15.609 I0. J0.949
G1 X22.698
X2.13
G2 Y17.506 I0. J0.949
G1 X2.612
X22.216
G3 Y19.403 I0. J0.949
G1 X21.317
X3.511
G2 Y21.3 I0. J0.949
G1 X4.989
X19.839
G0 Z5.08
X19.201 Y2.33
Z2.794
G1 Z0.15 F2500.
X18.43
X6.398
X4.364
G2 Y4.227 I0. J0.949
G1 X20.464
X21.702
G3 Y6.124 I0. J0.949
G1 X3.126
X2.39
G2 Y8.021 I0. J0.949
G1 X22.438
X22.784
G3 Y9.918 I0. J0.949
G1 X2.044
X2.
G2 Y11.815 I0. J0.949
G1 X22.828
G3 Y13.712 I0. J0.949
G1 X2.
G2 Y15.609 I0. J0.949
G1 X2.13
X22.698
G3 Y17.506 I0. J0.949
G1 X22.216
X2.612
G2 Y19.403 I0. J0.949
G1 X3.511
X21.317
G3 Y21.3 I0. J0.949
G1 X19.839
X4.989
G0 Z5.08
X5.627 Y2.33
Z2.794
G1 Z0.1 F2500.
X6.398
X18.43
X20.464
G3 Y4.227 I0. J0.949
G1 X4.364
X3.126
G2 Y6.124 I0. J0.949
G1 X21.702
X22.438
G3 Y8.021 I0. J0.949
G1 X2.39
X2.044
G2 Y9.918 I0. J0.949
G1 X22.784
X22.828
G3 Y11.815 I0. J0.949
G1 X2.
G2 Y13.712 I0. J0.949
G1 X22.828
G3 Y15.609 I0. J0.949
G1 X22.698
X2.13
G2 Y17.506 I0. J0.949
G1 X2.612
X22.216
G3 Y19.403 I0. J0.949
G1 X21.317
X3.511
G2 Y21.3 I0. J0.949
G1 X4.989
X19.839
G0 Z5.08
X19.201 Y2.33
Z2.794
G1 Z0.05 F2500.
X18.43
X6.398
X4.364
G2 Y4.227 I0. J0.949
G1 X20.464
X21.702
G3 Y6.124 I0. J0.949
G1 X3.126
X2.39
G2 Y8.021 I0. J0.949
G1 X22.438
X22.784
G3 Y9.918 I0. J0.949
G1 X2.044
X2.
G2 Y11.815 I0. J0.949
G1 X22.828
G3 Y13.712 I0. J0.949
G1 X2.
G2 Y15.609 I0. J0.949
G1 X2.13
X22.698
G3 Y17.506 I0. J0.949
G1 X22.216
X2.612
G2 Y19.403 I0. J0.949
G1 X3.511
X21.317
G3 Y21.3 I0. J0.949
G1 X19.839
X4.989
G0 Z5.08
X5.627 Y2.33
Z2.794
G1 Z0. F2500.
X6.398
X18.43
X20.464
G3 Y4.227 I0. J0.949
G1 X4.364
X3.126
G2 Y6.124 I0. J0.949
G1 X21.702
X22.438
G3 Y8.021 I0. J0.949
G1 X2.39
X2.044
G2 Y9.918 I0. J0.949
G1 X22.784
X22.828
G3 Y11.815 I0. J0.949
G1 X2.
G2 Y13.712 I0. J0.949
G1 X22.828
G3 Y15.609 I0. J0.949
G1 X22.698
X2.13
G2 Y17.506 I0. J0.949
G1 X2.612
X22.216
G3 Y19.403 I0. J0.949
G1 X21.317
X3.511
G2 Y21.3 I0. J0.949
G1 X4.989
X19.839
G0 Z11.43

(ENGRAVE1)
S16500 M3
G4 P4.
G55
M8
G0 Z15.24
X2.415 Y11.554
Z5.08
G1 Z0. F1270.
X2.422 Y11.564 Z-0.008
X2.416 Y11.568 Z0.
X2.422 Y11.564 Z-0.008
X2.489 Y11.601 Z-0.007
X2.546 Y11.639 Z-0.008
X2.601 Y11.682
X2.629 Y11.705
X2.645 Y11.715 Z-0.012
X2.663 Y11.724 Z-0.019
X2.694 Y11.734 Z-0.037
X2.714 Y11.738 Z-0.051
X2.737 Y11.8 Z-0.024
X2.756 Y11.862 Z-0.001
Y11.863 Z0.
Y11.862 Z-0.001
X2.737 Y11.8 Z-0.024
X2.714 Y11.738 Z-0.051
X2.73 Y11.707 Z-0.032
X2.739 Y11.675 Z-0.021
X2.742 Y11.644 Z-0.017
Y10.726
X2.757 Y10.712 Z0.
X2.742 Y10.726 Z-0.017
X2.728 Y10.712 Z0.
G0 Z5.08
X2.683 Y12.559
G1 Z-0.001 F1270.
X2.718 Y12.562 Z-0.002
X2.765 Y12.57 Z-0.004
X2.799 Y12.582 Z-0.005
X2.833 Y12.6 Z-0.006
X2.869 Y12.626 Z-0.01
X2.906 Y12.666
X2.926 Y12.691 Z-0.011
X2.945 Y12.728 Z-0.015
X2.969 Y12.785 Z-0.017
X2.983 Y12.83 Z-0.016
X2.997 Y12.887
X3.009 Y12.956 Z-0.017
X3.014 Y13.015 Z-0.018
X3.016 Y13.114 Z-0.02
Y13.236 Z-0.019
X3.011 Y13.312 Z-0.018
X3. Y13.389 Z-0.016
X2.986 Y13.449 Z-0.017
X2.965 Y13.513 Z-0.016
X2.941 Y13.568 Z-0.013
X2.921 Y13.605 Z-0.011
X2.886 Y13.646
X2.859 Y13.67 Z-0.009
X2.827 Y13.692 Z-0.007
X2.794 Y13.707 Z-0.005
X2.76 Y13.719
X2.716 Y13.726 Z-0.003
X2.672 Y13.729 Z-0.001
X2.607 Y13.72 Z-0.003
X2.572 Y13.71 Z-0.004
X2.539 Y13.694 Z-0.005
X2.506 Y13.672 Z-0.007
X2.486 Y13.654 Z-0.008
X2.447 Y13.611 Z-0.01
X2.431 Y13.583 Z-0.014
X2.412 Y13.544 Z-0.016
X2.387 Y13.478 Z-0.018
X2.37 Y13.415 Z-0.016
X2.357 Y13.345 Z-0.017
X2.35 Y13.276 Z-0.019
X2.347 Y13.181 Z-0.02
X2.348 Y13.055 Z-0.019
X2.353 Y12.97 Z-0.018
X2.363 Y12.899 Z-0.017
X2.374 Y12.853 Z-0.016
X2.392 Y12.797 Z-0.015
X2.425 Y12.72 Z-0.011
X2.445 Y12.681 Z-0.01
X2.452 Y12.671 Z-0.012
X2.495 Y12.627 Z-0.009
X2.525 Y12.603 Z-0.007
X2.553 Y12.587 Z-0.006
X2.58 Y12.576 Z-0.005
X2.623 Y12.566 Z-0.002
X2.683 Y12.559 Z-0.001
G0 Z5.08
X20.88 Y11.607
G1 Z-0.02 F1270.
X20.881 Y11.576
X20.888 Y11.507
X20.898 Y11.469
X20.912 Y11.435
X20.935 Y11.395 Z-0.019
X20.97 Y11.347
X20.997 Y11.324 Z-0.018
X21.038 Y11.293 Z-0.017
X21.068 Y11.277 Z-0.015
X21.103 Y11.265 Z-0.012
X21.146 Y11.256 Z-0.009
X21.194 Y11.252 Z-0.007
X21.229 Y11.254 Z-0.004
X21.267 Y11.261 Z-0.001
X21.312 Y11.275 Z0.005
X21.339 Y11.288 Z0.008
X21.372 Y11.309 Z0.01
X21.401 Y11.333 Z0.013
X21.433 Y11.368 Z0.017
X21.451 Y11.391 Z0.015
X21.468 Y11.405 Z0.007
X21.491 Y11.418 Z-0.008
X21.52 Y11.431 Z-0.033
X21.534 Y11.435 Z-0.046
X21.541 Y11.48 Z-0.036
X21.545 Y11.528 Z-0.029
X21.544 Y11.592 Z-0.022
X21.539 Y11.636 Z-0.018
X21.528 Y11.697 Z-0.012
X21.514 Y11.747 Z-0.01
X21.494 Y11.788 Z-0.008
X21.47 Y11.828 Z-0.007
X21.445 Y11.859 Z-0.004
X21.418 Y11.884 Z-0.003
X21.378 Y11.914 Z-0.001
X21.345 Y11.933 Z0.001
X21.31 Y11.947 Z0.
X21.277 Y11.955 Z-0.001
X21.225 Y11.962 Z0.
X21.2 Z-0.002
X21.131 Y11.953 Z-0.005
X21.098 Y11.944 Z-0.008
X21.063 Y11.928 Z-0.011
X21.028 Y11.906 Z-0.013
X20.983 Y11.868 Z-0.016
X20.967 Y11.851 Z-0.018
X20.928 Y11.794 Z-0.019
X20.906 Y11.752 Z-0.021
X20.895 Y11.719
X20.886 Y11.674 Z-0.02
X20.88 Y11.607
G0 Z5.08
X21.944 Y12.67
G1 Z-0.012 F1270.
X21.991 Y12.623 Z-0.008
X22.023 Y12.598 Z-0.007
X22.05 Y12.584 Z-0.006
X22.083 Y12.572 Z-0.004
X22.126 Y12.564 Z-0.002
X22.18 Y12.558 Z-0.001
X22.237 Y12.565 Z-0.004
X22.276 Y12.575 Z-0.005
X22.304 Y12.587 Z-0.006
X22.335 Y12.606 Z-0.007
X22.363 Y12.627 Z-0.01
X22.403 Y12.67 Z-0.011
X22.419 Y12.691
X22.438 Y12.728 Z-0.015
X22.461 Y12.784 Z-0.017
X22.473 Y12.821 Z-0.016
X22.489 Y12.887
X22.499 Y12.942 Z-0.017
X22.506 Y13.013 Z-0.018
X22.508 Y13.107 Z-0.02
Y13.228 Z-0.019
X22.503 Y13.312 Z-0.018
X22.491 Y13.392 Z-0.016
X22.478 Y13.449 Z-0.017
X22.457 Y13.512 Z-0.016
X22.43 Y13.572 Z-0.013
X22.413 Y13.604 Z-0.011
X22.378 Y13.645
X22.351 Y13.669 Z-0.009
X22.319 Y13.691 Z-0.007
X22.286 Y13.707 Z-0.005
X22.251 Y13.718
X22.21 Y13.725 Z-0.003
X22.165 Y13.728 Z-0.001
X22.102 Y13.72 Z-0.003
X22.067 Y13.71 Z-0.004
X22.041 Y13.699 Z-0.005
X22.011 Y13.68 Z-0.006
X21.979 Y13.655 Z-0.008
X21.945 Y13.618 Z-0.009
X21.93 Y13.596 Z-0.012
X21.911 Y13.559 Z-0.016
X21.889 Y13.507 Z-0.017
X21.873 Y13.458
X21.858 Y13.396 Z-0.016
X21.847 Y13.331 Z-0.018
X21.841 Y13.257 Z-0.019
X21.839 Y13.143 Z-0.02
X21.842 Y13.011 Z-0.019
X21.85 Y12.929 Z-0.018
X21.861 Y12.871 Z-0.017
X21.877 Y12.815 Z-0.015
X21.904 Y12.748 Z-0.012
X21.937 Y12.68 Z-0.01
X21.944 Y12.67 Z-0.012
G0 Z5.08
X3.322 Y10.886
G1 Z0. F1270.
X3.337 Y10.875 Z-0.014
X3.345 Y10.888 Z-0.001
X3.337 Y10.875 Z-0.014
X3.347 Y10.848
X3.364 Y10.817 Z-0.013
X3.397 Y10.775 Z-0.011
X3.413 Y10.757 Z-0.009
X3.432 Y10.743 Z-0.007
X3.47 Y10.72 Z-0.005
X3.5 Y10.707 Z-0.004
X3.534 Y10.698 Z-0.002
X3.589 Y10.692 Z-0.001
X3.632 Y10.693 Z0.
X3.678 Y10.698 Z-0.001
X3.714 Y10.708 Z-0.002
X3.756 Y10.727 Z-0.003
X3.799 Y10.752 Z-0.005
X3.827 Y10.776 Z-0.006
X3.857 Y10.807 Z-0.008
X3.884 Y10.842 Z-0.01
X3.905 Y10.879 Z-0.012
X3.927 Y10.929
X3.939 Y10.965 Z-0.013
X3.959 Y11.041
X3.971 Y11.109 Z-0.014
X3.977 Y11.181 Z-0.015
X3.979 Y11.245 Z-0.017
X3.976 Y11.279 Z-0.021
X3.967 Y11.311 Z-0.033
X3.956 Y11.333 Z-0.046
G0 Z5.08
X3.332 Y12.798
G1 Z0. F1270.
X3.353 Y12.784 Z-0.02
X3.365 Y12.802 Z-0.001
X3.353 Y12.784 Z-0.02
X3.367 Y12.745
X3.384 Y12.714 Z-0.018
X3.415 Y12.671 Z-0.015
X3.442 Y12.642 Z-0.012
X3.464 Y12.622 Z-0.009
X3.511 Y12.593 Z-0.007
X3.546 Y12.577 Z-0.005
X3.584 Y12.567 Z-0.003
X3.633 Y12.56 Z-0.001
X3.676 Y12.559
X3.737 Y12.566 Z-0.002
X3.779 Y12.576 Z-0.004
X3.812 Y12.589 Z-0.006
X3.851 Y12.611 Z-0.008
X3.894 Y12.644 Z-0.01
X3.92 Y12.669 Z-0.014
X3.957 Y12.716 Z-0.017
X3.975 Y12.747 Z-0.019
X3.989 Y12.781 Z-0.021
X3.998 Y12.815 Z-0.022
X4.006 Y12.874
Y12.905 Z-0.023
X4. Y12.961 Z-0.024
X3.991 Y12.994 Z-0.022
X3.977 Y13.026 Z-0.02
X3.958 Y13.056 Z-0.018
X3.927 Y13.092 Z-0.012
X3.903 Y13.114 Z-0.006
X3.873 Y13.132 Z0.
G0 Z5.08
X3.352 Y13.514
G1 Z0. F1270.
X3.369 Y13.526 Z-0.017
X3.38 Y13.509 Z0.
X3.369 Y13.526 Z-0.017
X3.384 Y13.562 Z-0.016
X3.404 Y13.596 Z-0.014
X3.434 Y13.634 Z-0.011
X3.452 Y13.655 Z-0.01
X3.482 Y13.677 Z-0.007
X3.519 Y13.7 Z-0.006
X3.555 Y13.715 Z-0.004
X3.592 Y13.723 Z-0.002
X3.647 Y13.729 Z-0.001
X3.677 Y13.728
X3.727 Y13.723
X3.763 Y13.713 Z-0.002
X3.798 Y13.698 Z-0.004
X3.834 Y13.677 Z-0.007
X3.866 Y13.652 Z-0.01
X3.889 Y13.627 Z-0.012
X3.914 Y13.592 Z-0.014
X3.926 Y13.568 Z-0.015
X3.937 Y13.535 Z-0.018
X3.944 Y13.502 Z-0.019
X3.947 Y13.46 Z-0.02
X3.941 Y13.411 Z-0.019
X3.933 Y13.382 Z-0.016
X3.917 Y13.347 Z-0.012
X3.899 Y13.322 Z-0.008
X3.875 Y13.296 Z-0.005
X3.848 Y13.276 Z0.
G0 Z5.08
X3.69 Y13.199
G1 Z0. F1270.
X3.729 Y13.201 Z-0.008
X3.77 Y13.205 Z-0.022
X3.776 Y13.199 Z-0.016
X3.793 Y13.18 Z-0.001
X3.795 Y13.179 Z0.
X3.793 Y13.18 Z-0.001
X3.776 Y13.199 Z-0.016
X3.77 Y13.205 Z-0.022
X3.778 Y13.217 Z-0.014
X3.796 Y13.237 Z-0.001
X3.8 Y13.241 Z0.
G0 Z5.08
X3.697 Y11.161
G1 Z0. F1270.
X3.688 Y11.159 Z-0.001
X3.655 Y11.152 Z-0.004
X3.612 Y11.15 Z-0.007
X3.568 Y11.154 Z-0.009
X3.525 Y11.163 Z-0.012
X3.489 Y11.175 Z-0.015
X3.459 Y11.191 Z-0.017
X3.418 Y11.222 Z-0.018
X3.392 Y11.245 Z-0.019
X3.356 Y11.294
X3.333 Y11.333 Z-0.02
X3.319 Y11.368
X3.309 Y11.412
X3.302 Y11.476
X3.303 Y11.527
X3.31 Y11.584
X3.318 Y11.621 Z-0.021
X3.33 Y11.655
X3.35 Y11.692 Z-0.019
X3.389 Y11.749 Z-0.018
X3.395 Y11.757 Z-0.017
X3.442 Y11.798 Z-0.014
X3.476 Y11.822 Z-0.011
X3.508 Y11.838 Z-0.009
X3.545 Y11.849 Z-0.006
X3.6 Y11.858 Z-0.003
X3.636 Y11.861 Z-0.001
X3.69 Y11.855
X3.729 Y11.846 Z0.
X3.734 Y11.844
G0 Z5.08
X3.777 Y11.825
G1 Z0. F1270.
X3.8 Y11.813 Z-0.001
X3.839 Y11.782 Z-0.003
X3.866 Y11.757 Z-0.004
X3.891 Y11.726 Z-0.007
X3.916 Y11.686 Z-0.008
X3.937 Y11.642 Z-0.011
X3.95 Y11.595 Z-0.012
X3.961 Y11.534 Z-0.018
X3.966 Y11.481 Z-0.023
Y11.425 Z-0.029
X3.962 Y11.374 Z-0.037
X3.956 Y11.333 Z-0.046
X3.926 Y11.323 Z-0.019
X3.902 Y11.311 Z-0.001
G0 Z5.08
X8.094 Y21.258
G1 Z0. F1270.
X8.08 Y21.247 Z-0.003
X8.035 Y21.203 Z-0.014
X7.997 Y21.16 Z-0.025
X7.969 Y21.118 Z-0.035
X7.94 Y21.064 Z-0.05
X7.918 Y21.014 Z-0.063
X7.904 Y20.965 Z-0.075
X7.887 Y20.886 Z-0.09
X7.882 Y20.844 Z-0.097
X7.879 Y20.777 Z-0.108
X7.881 Y20.724 Z-0.116
X7.888 Y20.671 Z-0.12
X7.903 Y20.6 Z-0.124
X7.925 Y20.534 Z-0.123
X7.946 Y20.481 Z-0.121
X7.964 Y20.447 Z-0.117
X8.007 Y20.378 Z-0.107
X8.045 Y20.33 Z-0.095
X8.084 Y20.287 Z-0.084
X8.121 Y20.254 Z-0.071
X8.169 Y20.22 Z-0.055
X8.211 Y20.196 Z-0.042
X8.27 Y20.172 Z-0.026
X8.33 Y20.153 Z-0.01
X8.384 Y20.145 Z-0.001
X8.388 Z0.
G0 Z5.08
X8.644 Y21.337
G1 Z0. F1270.
X8.658 Y21.334 Z-0.006
X8.687 Y21.332 Z-0.022
X8.698 Y21.362 Z0.
X8.687 Y21.332 Z-0.022
X8.717 Y21.288 Z0.
G0 Z5.08
X9.152 Y21.536
G1 Z0. F1270.
X9.175 Y21.534 Z-0.009
X9.204 Y21.527 Z-0.026
X9.309 Y21.492 Z-0.099
X9.34 Y21.586 Z0.
X9.309 Y21.492 Z-0.099
X9.808 Y20.858 Z-0.097
X9.826 Y20.837 Z-0.099
X9.863 Y20.852 Z-0.058
X9.894 Y20.869 Z-0.024
X9.916 Y20.884 Z0.
X9.894 Y20.869 Z-0.024
X9.863 Y20.852 Z-0.058
X9.826 Y20.837 Z-0.099
X9.882 Y20.633 Z0.
G0 Z5.08
X9.377 Y20.422
G1 Z-0.001 F1270.
X9.381 Y20.426 Z-0.004
X9.387 Y20.425 Z0.
X9.381 Y20.426 Z-0.004
X9.379 Y20.433 Z0.
G0 Z5.08
X10.126 Y21.796
G1 Z0. F1270.
X10.143 Y21.794 Z-0.008
X10.173 Y21.785 Z-0.028
X10.255 Y21.74 Z-0.105
X10.296 Y21.801 Z-0.047
X10.331 Y21.848 Z-0.005
X10.337 Y21.853 Z0.
X10.331 Y21.848 Z-0.005
X10.296 Y21.801 Z-0.047
X10.255 Y21.74 Z-0.105
X10.486 Y20.879
X10.488 Y20.868
X10.502 Y20.815 Z-0.106
X10.466 Y20.76 Z-0.053
X10.427 Y20.708 Z-0.006
X10.421 Y20.702 Z-0.001
X10.427 Y20.708 Z-0.006
X10.466 Y20.76 Z-0.053
X10.502 Y20.815 Z-0.106
X10.572 Y20.78 Z-0.044
X10.604 Y20.766 Z-0.018
X10.63 Y20.758 Z0.
G0 Z5.08
X10.227 Y2.707
G1 Z0. F1270.
X10.253 Y2.734 Z-0.032
X10.28 Y2.707 Z0.
X10.253 Y2.734 Z-0.032
Y3.198
X10.257 Y3.234 Z-0.036
X10.268 Y3.27 Z-0.049
X10.286 Y3.306 Z-0.071
X10.311 Y3.342 Z-0.101
X10.343 Y3.378 Z-0.139
X10.568 Y3.602 Z-0.407
X10.768 Z-0.404
X10.799 Z-0.4
X10.804 Y3.603 Z-0.398
X10.822 Y3.617 Z-0.379
Y3.618 Z-0.378
X10.834 Y3.628 Z-0.363
X10.851 Y3.648 Z-0.336
X10.853 Y3.65 Z-0.333
X10.872 Y3.669 Z-0.302
X10.853 Y3.65 Z-0.333
X10.851 Y3.648 Z-0.336
X10.834 Y3.628 Z-0.363
X10.822 Y3.618 Z-0.378
Y3.617 Z-0.379
X10.804 Y3.603 Z-0.398
X10.838 Y3.581 Z-0.355
X10.804 Y3.603 Z-0.398
X10.799 Y3.602 Z-0.4
X10.768 Z-0.404
X10.568 Z-0.407
X10.227 Y3.943 Z0.
G0 Z5.08
X10.821 Y21.983
G1 Z0. F1270.
X10.847 Y21.975 Z-0.018
X10.912 Y21.944 Z-0.073
X11.233 Y21.762 Z-0.382
X11.321 Y21.709 Z-0.467
X11.368 Y21.679 Z-0.512
X11.425 Y21.636 Z-0.564
X11.426 Y21.634 Z-0.565
X11.427 Y21.633 Z-0.566
X11.44 Y21.606 Z-0.573
X11.455 Y21.558 Z-0.575
X11.462 Y21.531 Z-0.574
X11.465 Y21.506 Z-0.57
Y21.499 Z-0.568
X11.473 Y21.494 Z-0.559
X11.475 Z-0.556
X11.473 Z-0.559
X11.465 Y21.499 Z-0.568
X11.454 Y21.468 Z-0.546
X11.43 Y21.412 Z-0.501
X11.398 Y21.35 Z-0.444
X11.363 Y21.289 Z-0.385
X11.173 Y20.964 Z-0.071
X11.139 Y20.915 Z-0.024
X11.115 Y20.888 Z0.
G0 Z5.08
X11.528 Y2.707
G1 Z0. F1270.
X11.554 Y2.734 Z-0.032
X11.581 Y2.707 Z0.
X11.554 Y2.734 Z-0.032
Y3.917
X11.581 Y3.943 Z0.
X11.554 Y3.917 Z-0.032
X11.528 Y3.943 Z0.
G0 Z5.08
X11.951 Y2.707
G1 Z0. F1270.
X11.997 Y2.73 Z-0.028
X12.008 Y2.707 Z0.
X11.997 Y2.73 Z-0.028
X12.356 Y3.224 Z-0.02
X12.385 Y3.268 Z-0.018
X12.402 Y3.286 Z-0.02
X12.433 Y3.311 Z-0.033
X12.456 Y3.328 Z-0.053
X12.481 Y3.309 Z-0.037
X12.502 Y3.291 Z-0.03
X12.519 Y3.271 Z-0.027
X12.527 Y3.259 Z-0.028
X12.898 Y2.734 Z-0.032
X12.95 Y2.707 Z0.
X12.898 Y2.734 Z-0.032
X12.884 Y2.707 Z0.
X12.898 Y2.734 Z-0.032
X12.527 Y3.259 Z-0.028
X12.519 Y3.271 Z-0.027
X12.502 Y3.291 Z-0.03
X12.481 Y3.309 Z-0.037
X12.456 Y3.328 Z-0.053
X12.455 Y3.359 Z-0.048
X12.454 Y3.384 Z-0.051
X12.479 Y3.404 Z-0.03
X12.492 Y3.414 Z-0.023
X12.507 Y3.428 Z-0.018
X12.555 Y3.492 Z-0.019
X12.88 Y3.928 Z-0.018
X12.873 Y3.943 Z0.
X12.88 Y3.928 Z-0.018
X12.91 Y3.943 Z0.
X12.88 Y3.928 Z-0.018
X12.555 Y3.492 Z-0.019
X12.507 Y3.428 Z-0.018
X12.492 Y3.414 Z-0.023
X12.479 Y3.404 Z-0.03
X12.454 Y3.384 Z-0.051
X12.435 Y3.399 Z-0.037
X12.407 Y3.423 Z-0.025
X12.391 Y3.442 Z-0.023
X12.36 Y3.488 Z-0.026
X12.056 Y3.919 Z-0.029
X12.069 Y3.943 Z0.
X12.056 Y3.919 Z-0.029
X12.01 Y3.943 Z0.
G0 Z5.08
X13.111 Y20.966
G1 Z0. F1270.
X13.075 Y20.993 Z-0.008
X13.035 Y21.034 Z-0.021
X12.996 Y21.081 Z-0.037
X12.968 Y21.124 Z-0.05
X12.942 Y21.174 Z-0.065
X12.927 Y21.213 Z-0.077
X12.913 Y21.259 Z-0.087
X12.899 Y21.337 Z-0.104
X12.895 Y21.394 Z-0.111
X12.894 Y21.452 Z-0.119
X12.898 Y21.497 Z-0.122
X12.912 Y21.577 Z-0.124
X12.918 Y21.602
X12.941 Y21.672 Z-0.12
X12.961 Y21.721 Z-0.116
X12.99 Y21.775 Z-0.107
X13.028 Y21.834 Z-0.096
X13.074 Y21.89 Z-0.082
X13.116 Y21.934 Z-0.07
X13.146 Y21.96 Z-0.061
X13.2 Y21.998 Z-0.045
X13.253 Y22.029 Z-0.031
X13.3 Y22.048 Z-0.021
X13.369 Y22.07 Z-0.008
X13.402 Y22.077 Z-0.002
X13.413 Y22.078 Z0.
G0 Z5.08
X13.301 Y2.707
G1 Z0. F1270.
X13.338 Y2.744 Z-0.044
X13.364 Y2.733 Z-0.031
X13.391 Y2.726 Z-0.023
X13.418 Y2.724 Z-0.02
X14.174
X14.191 Y2.707 Z0.
X14.174 Y2.724 Z-0.02
X14.191 Y2.74 Z0.
X14.174 Y2.724 Z-0.02
X13.418
X13.391 Y2.726 Z-0.023
X13.364 Y2.733 Z-0.031
X13.338 Y2.744 Z-0.044
X13.33 Y2.774 Z-0.035
X13.327 Y2.804 Z-0.032
Y3.268
X13.329 Y3.295 Z-0.034
X13.335 Y3.322 Z-0.041
X13.345 Y3.348 Z-0.053
X13.375 Z-0.032
X13.394 Z-0.024
X13.418 Z-0.02
X14.092
X14.108 Y3.332 Z0.
X14.092 Y3.348 Z-0.02
X14.108 Y3.364 Z0.
X14.092 Y3.348 Z-0.02
X13.418
X13.394 Z-0.024
X13.375 Z-0.032
X13.345 Z-0.053
X13.335 Y3.375 Z-0.041
X13.329 Y3.402 Z-0.034
X13.327 Y3.428 Z-0.032
Y3.846
X13.33 Y3.876 Z-0.035
X13.338 Y3.907 Z-0.044
X13.301 Y3.943 Z0.
X13.338 Y3.907 Z-0.044
X13.364 Y3.918 Z-0.031
X13.391 Y3.924 Z-0.023
X13.418 Y3.926 Z-0.02
X14.143
X14.159 Y3.91 Z0.
X14.143 Y3.926 Z-0.02
X14.159 Y3.943 Z0.
G0 Z5.08
X13.929 Y21.87
G1 Z0. F1270.
X13.934 Y21.865 Z-0.003
X13.963 Y21.845 Z-0.022
X13.987 Y21.865 Z0.
X13.963 Y21.845 Z-0.022
X13.967 Y21.791 Z0.
G0 Z5.08
X14.379 Y20.859
G1 Z-0.284 F1270.
X14.385 Y20.867 Z-0.294
Y20.864 Z-0.292
Y20.863 Z-0.291
Y20.864 Z-0.292
Y20.867 Z-0.294
X14.392 Y20.89 Z-0.318
Y20.892 Z-0.319
Z-0.32
X14.398 Y20.91 Z-0.334
X14.401 Y20.92 Z-0.342
X14.405 Y20.933 Z-0.35
X14.413 Y20.966 Z-0.366
X14.421 Y21. Z-0.377
X14.438 Y21.061 Z-0.395
X14.449 Y21.106 Z-0.403
X14.471 Y21.185 Z-0.409
X14.475 Y21.2
X14.501 Y21.296 Z-0.402
X14.514 Y21.341 Z-0.393
X14.528 Y21.396 Z-0.377
X14.539 Y21.438 Z-0.363
X14.542 Y21.448 Z-0.359
X14.551 Y21.48 Z-0.343
Y21.482 Z-0.342
X14.56 Y21.515 Z-0.313
Y21.517 Z-0.311
X14.564 Y21.53 Z-0.297
Y21.531
G0 Z5.08
X14.56 Y2.707
G1 Z0. F1270.
X14.597 Y2.744 Z-0.044
X14.624 Y2.733 Z-0.031
X14.65 Y2.726 Z-0.023
X14.677 Y2.724 Z-0.02
X15.268
X15.285 Y2.74 Z0.
X15.268 Y2.724 Z-0.02
X15.285 Y2.707 Z0.
X15.268 Y2.724 Z-0.02
X14.677
X14.65 Y2.726 Z-0.023
X14.624 Y2.733 Z-0.031
X14.597 Y2.744 Z-0.044
X14.589 Y2.774 Z-0.035
X14.587 Y2.804 Z-0.032
Y3.917
X14.613 Y3.943 Z0.
X14.587 Y3.917 Z-0.032
X14.56 Y3.943 Z0.
G0 Z5.08
X15.026 Y20.465
G1 Z0. F1270.
X15.061 Y20.477 Z-0.024
X15.116 Y20.503 Z-0.071
X15.441 Y20.688 Z-0.385
X15.495 Y20.72 Z-0.437
X15.562 Y20.762 Z-0.501
X15.612 Y20.799 Z-0.548
X15.636 Y20.819 Z-0.568
X15.641 Y20.81 Z-0.556
X15.636 Y20.819 Z-0.568
X15.639 Y20.825 Z-0.57
X15.649 Y20.849 Z-0.574
X15.657 Y20.875 Z-0.575
X15.668 Y20.924 Z-0.573
X15.67 Y20.954 Z-0.566
X15.669 Y20.956 Z-0.565
Y20.958 Z-0.564
X15.643 Y21.022 Z-0.514
X15.616 Y21.073 Z-0.468
X15.566 Y21.164 Z-0.381
X15.379 Y21.482 Z-0.073
X15.339 Y21.54 Z-0.019
X15.32 Y21.56 Z-0.001
G0 Z5.08
X16.368 Y20.106
G1 Z0. F1270.
X16.371 Y20.107 Z-0.002
X16.422 Y20.127 Z-0.041
X16.497 Y20.164 Z-0.107
X16.539 Y20.101 Z-0.048
X16.575 Y20.061 Z-0.012
X16.592 Y20.046 Z0.
X16.575 Y20.061 Z-0.012
X16.539 Y20.101 Z-0.048
X16.497 Y20.164 Z-0.107
X16.507 Y20.206 Z-0.105
X16.521 Y20.26
X16.613 Y20.601
X16.624 Y20.634 Z-0.107
X16.69 Y20.617 Z-0.029
X16.718 Y20.609 Z0.
X16.69 Y20.617 Z-0.029
X16.624 Y20.634 Z-0.107
X16.631 Y20.669 Z-0.105
X16.726 Y21.026
X16.743 Y21.088
X16.84 Y21.144 Z-0.011
X16.853 Y21.15 Z0.
X16.84 Y21.144 Z-0.011
X16.743 Y21.088 Z-0.105
X16.702 Y21.153 Z-0.044
X16.665 Y21.199 Z-0.002
X16.663 Y21.2 Z-0.001
G0 Z5.08
X16.925 Y20.553
G1 Z0. F1270.
X16.929 Z-0.002
X16.973 Y20.541 Z-0.032
X17.014 Y20.591 Z-0.001
X17.015 Y20.592 Z0.
X17.014 Y20.591 Z-0.001
X16.973 Y20.541 Z-0.032
X16.981 Y20.497 Z-0.011
X16.983 Y20.472 Z0.
G0 Z5.08
X17.055 Y19.922
G1 Z0. F1270.
X17.1 Y19.921 Z-0.013
X17.141 Y19.922 Z-0.027
X17.154 Y19.896 Z-0.001
X17.141 Y19.922 Z-0.027
X17.188 Y19.975 Z0.
G0 Z5.08
X17.323 Y21.024
G1 Z0. F1270.
X17.359 Y21.002 Z-0.015
X17.38 Y20.987 Z-0.025
X17.406 Y21.002 Z0.
X17.38 Y20.987 Z-0.025
X17.387 Y20.938 Z-0.002
X17.388 Y20.933 Z0.
G0 Z5.08
X20.821 Y12.579
G1 Z0. F1270.
X20.823 Y12.58 Z-0.002
X20.877 Y12.617 Z-0.046
X20.907 Y12.602 Z-0.028
X20.937 Y12.593 Z-0.017
X20.967 Y12.59 Z-0.014
X21.516
X21.527 Y12.601 Z0.
X21.516 Y12.59 Z-0.014
X21.527 Y12.579 Z0.
X21.516 Y12.59 Z-0.014
X20.967
X20.937 Y12.593 Z-0.017
X20.907 Y12.602 Z-0.028
X20.877 Y12.617 Z-0.046
X20.878 Y12.642 Z-0.034
X20.884 Y12.669 Z-0.024
X20.894 Y12.695 Z-0.018
X20.911 Y12.72 Z-0.016
X20.946 Y12.764 Z-0.013
X20.99 Y12.811 Z-0.012
X21.057 Y12.874
X21.16 Y12.96 Z-0.011
X21.261 Y13.048 Z-0.012
X21.325 Y13.109 Z-0.013
X21.407 Y13.196 Z-0.016
X21.433 Y13.23 Z-0.017
X21.462 Y13.276 Z-0.018
X21.485 Y13.323 Z-0.02
X21.498 Y13.362 Z-0.021
X21.505 Y13.398
X21.509 Y13.444 Z-0.02
X21.502 Y13.501 Z-0.019
X21.492 Y13.541
X21.478 Y13.571 Z-0.017
X21.457 Y13.604 Z-0.015
X21.428 Y13.639 Z-0.014
X21.399 Y13.662 Z-0.01
X21.353 Y13.692 Z-0.008
X21.324 Y13.706 Z-0.006
X21.286 Y13.718 Z-0.004
X21.241 Y13.725 Z-0.002
X21.185 Y13.728 Z-0.001
X21.11 Y13.721 Z-0.002
X21.068 Y13.711 Z-0.004
X21.033 Y13.696 Z-0.006
X20.995 Y13.674 Z-0.008
X20.953 Y13.643 Z-0.012
X20.914 Y13.594 Z-0.014
X20.892 Y13.556 Z-0.016
X20.878 Y13.523 Z-0.017
X20.871 Y13.494 Z-0.018
X20.883 Y13.478 Z0.
X20.871 Y13.494 Z-0.018
X20.854 Y13.481 Z0.
G0 Z5.08
X20.9 Y10.988
G1 Z0. F1270.
X20.915 Y10.977 Z-0.014
X20.924 Y10.989 Z-0.001
X20.915 Y10.977 Z-0.014
X20.929 Y10.942
X20.949 Y10.91 Z-0.012
X20.976 Y10.876 Z-0.01
X20.994 Y10.857 Z-0.008
X21.023 Y10.837 Z-0.006
X21.057 Y10.817 Z-0.005
X21.091 Y10.805 Z-0.003
X21.123 Y10.798 Z-0.002
X21.173 Y10.793 Z-0.001
X21.198 Y10.794
X21.252 Y10.799
X21.288 Y10.808 Z-0.002
X21.322 Y10.822 Z-0.003
X21.357 Y10.841 Z-0.004
X21.393 Y10.867 Z-0.006
X21.427 Y10.899 Z-0.007
X21.454 Y10.932 Z-0.01
X21.471 Y10.959 Z-0.011
X21.494 Y11.003 Z-0.012
X21.514 Y11.053 Z-0.013
X21.533 Y11.127
X21.548 Y11.203 Z-0.014
X21.555 Y11.266 Z-0.015
X21.557 Y11.326 Z-0.016
X21.558 Y11.332
Y11.336
Y11.339
Y11.343
Y11.346 Z-0.017
X21.557 Y11.348
X21.554 Y11.381 Z-0.021
X21.545 Y11.413 Z-0.033
X21.534 Y11.435 Z-0.046
G0 Z5.08
X21.889 Y10.988
G1 Z0. F1270.
X21.904 Y10.977 Z-0.014
X21.913 Y10.989 Z-0.001
X21.904 Y10.977 Z-0.014
X21.912 Y10.954
X21.93 Y10.922 Z-0.013
X21.964 Y10.877 Z-0.011
X21.98 Y10.859 Z-0.009
X22. Y10.845 Z-0.007
X22.036 Y10.822 Z-0.006
X22.068 Y10.808 Z-0.004
X22.101 Y10.8 Z-0.002
X22.151 Y10.794 Z-0.001
X22.193 Z0.
X22.24 Y10.799 Z-0.001
X22.279 Y10.809 Z-0.002
X22.318 Y10.826 Z-0.003
X22.365 Y10.854 Z-0.005
X22.393 Y10.876 Z-0.006
X22.425 Y10.909 Z-0.008
X22.451 Y10.943 Z-0.01
X22.472 Y10.981 Z-0.012
X22.494 Y11.031
X22.504 Y11.059 Z-0.013
X22.524 Y11.135
X22.537 Y11.202 Z-0.014
X22.544 Y11.266 Z-0.015
X22.546 Y11.322 Z-0.016
Y11.328
Y11.334
Y11.338
Y11.34
Y11.344 Z-0.017
Y11.349
Y11.351
X22.543 Y11.381 Z-0.021
X22.534 Y11.413 Z-0.033
X22.523 Y11.435 Z-0.046
G0 Z5.08
X22.262 Y11.262
G1 Z0. F1270.
X22.227 Y11.255 Z-0.004
X22.188 Y11.252 Z-0.006
X22.151 Y11.254 Z-0.009
X22.102 Y11.262 Z-0.011
X22.066 Y11.273 Z-0.014
X22.042 Y11.284 Z-0.016
X22.007 Y11.307 Z-0.017
X21.967 Y11.339 Z-0.018
X21.948 Y11.362 Z-0.019
X21.916 Y11.407
X21.894 Y11.449 Z-0.02
X21.883 Y11.482
X21.874 Y11.527
X21.869 Y11.59
X21.87 Y11.622
X21.878 Y11.688
X21.887 Y11.729 Z-0.021
X21.901 Y11.764 Z-0.02
X21.919 Y11.797 Z-0.019
X21.956 Y11.851 Z-0.018
X21.963 Y11.859 Z-0.017
X21.995 Y11.888 Z-0.015
X22.037 Y11.919 Z-0.012
X22.068 Y11.937 Z-0.009
X22.108 Y11.95 Z-0.006
X22.143 Y11.957 Z-0.004
X22.2 Y11.963 Z-0.001
X22.223 Y11.961
X22.279 Y11.953 Z0.
X22.299 Y11.947
G0 Z5.08
X22.352 Y11.923
G1 Z0. F1270.
X22.384 Y11.903 Z-0.002
X22.427 Y11.866 Z-0.003
X22.454 Y11.834 Z-0.007
X22.479 Y11.796 Z-0.008
X22.5 Y11.753 Z-0.01
X22.509 Y11.729 Z-0.011
X22.521 Y11.678 Z-0.014
X22.53 Y11.62 Z-0.019
X22.533 Y11.582 Z-0.023
Y11.514 Z-0.031
X22.528 Y11.463 Z-0.039
X22.523 Y11.435 Z-0.046
X22.49 Y11.423 Z-0.016
X22.468 Y11.412 Z0.
G0 Z15.24

(2D POCKET INSIDE ROUGHING)
S26000 M3
G4 P4.
G55
M9
G0 X12.413 Y12.101
Z11.43
Z4.064
G1 Z0.952 F2500.
X12.414 Y12.105 Z0.903
X12.417 Y12.116 Z0.855
X12.421 Y12.134 Z0.809
X12.426 Y12.16 Z0.766
X12.432 Y12.191 Z0.728
X12.438 Y12.229 Z0.696
X12.444 Y12.271 Z0.67
X12.448 Y12.316 Z0.651
X12.451 Y12.364 Z0.639
X12.452 Y12.414 Z0.635
G3 X9.912 Z0.622 I-1.27 J0.
X12.452 Z0.61 I1.27 J0.
X9.912 Z0.597 I-1.27 J0.
X12.452 Z0.584 I1.27 J0.
X9.912 Z0.571 I-1.27 J0.
X12.452 Z0.559 I1.27 J0.
X9.912 Z0.546 I-1.27 J0.
X12.452 Z0.533 I1.27 J0.
X9.912 Z0.521 I-1.27 J0.
X12.452 Z0.508 I1.27 J0.
X9.912 Z0.495 I-1.27 J0.
X12.452 Z0.483 I1.27 J0.
X9.912 Z0.47 I-1.27 J0.
X12.452 Z0.457 I1.27 J0.
X9.912 Z0.444 I-1.27 J0.
X12.452 Z0.432 I1.27 J0.
X9.912 Z0.419 I-1.27 J0.
X12.452 Z0.406 I1.27 J0.
X9.912 Z0.394 I-1.27 J0.
X12.452 Z0.381 I1.27 J0.
X9.912 Z0.368 I-1.27 J0.
X12.452 Z0.356 I1.27 J0.
X9.912 Z0.343 I-1.27 J0.
X12.452 Z0.33 I1.27 J0.
X9.912 Z0.317 I-1.27 J0.
X12.452 Z0.305 I1.27 J0.
X9.912 Z0.292 I-1.27 J0.
X12.452 Z0.279 I1.27 J0.
X9.912 Z0.267 I-1.27 J0.
X12.452 Z0.254 I1.27 J0.
X9.912 Z0.241 I-1.27 J0.
X12.452 Z0.229 I1.27 J0.
X9.912 Z0.216 I-1.27 J0.
X12.452 Z0.203 I1.27 J0.
X9.912 Z0.19 I-1.27 J0.
X12.452 Z0.178 I1.27 J0.
X9.912 Z0.165 I-1.27 J0.
X12.452 Z0.152 I1.27 J0.
X9.912 Z0.14 I-1.27 J0.
X12.452 Z0.127 I1.27 J0.
X9.912 Z0.114 I-1.27 J0.
X12.452 Z0.102 I1.27 J0.
X9.912 Z0.089 I-1.27 J0.
X12.452 Z0.076 I1.27 J0.
X9.912 Z0.063 I-1.27 J0.
X12.452 Z0.051 I1.27 J0.
X9.912 Z0.038 I-1.27 J0.
X12.452 Z0.025 I1.27 J0.
X9.912 Z0.013 I-1.27 J0.
X12.452 Z0. I1.27 J0.
X9.912 Z-0.013 I-1.27 J0.
X12.452 Z-0.025 I1.27 J0.
X9.912 Z-0.038 I-1.27 J0.
X12.452 Z-0.051 I1.27 J0.
X9.912 Z-0.064 I-1.27 J0.
X12.452 Z-0.076 I1.27 J0.
X9.912 Z-0.089 I-1.27 J0.
X12.452 Z-0.102 I1.27 J0.
X9.912 Z-0.114 I-1.27 J0.
X12.452 Z-0.127 I1.27 J0.
X9.912 Z-0.14 I-1.27 J0.
X12.452 Z-0.152 I1.27 J0.
X9.912 Z-0.165 I-1.27 J0.
X12.452 Z-0.178 I1.27 J0.
X9.912 Z-0.191 I-1.27 J0.
X12.452 Z-0.203 I1.27 J0.
X9.912 Z-0.216 I-1.27 J0.
X12.452 Z-0.229 I1.27 J0.
X9.912 Z-0.241 I-1.27 J0.
X12.452 Z-0.254 I1.27 J0.
X9.912 Z-0.267 I-1.27 J0.
X12.452 Z-0.279 I1.27 J0.
X9.912 Z-0.292 I-1.27 J0.
X12.452 Z-0.305 I1.27 J0.
X9.912 Z-0.318 I-1.27 J0.
X12.452 Z-0.33 I1.27 J0.
X9.912 Z-0.343 I-1.27 J0.
X12.452 Z-0.356 I1.27 J0.
X9.912 Z-0.368 I-1.27 J0.
X12.452 Z-0.381 I1.27 J0.
G1 X12.445 Y12.436
X12.426 Y12.45
X12.402
X12.383 Y12.436
X12.376 Y12.414
X12.383 Y12.381
X12.405 Y12.354
X12.435 Y12.34
X12.469
X12.5 Y12.354
X12.521 Y12.381
X12.528 Y12.414
X12.521 Y12.453
X12.502 Y12.487
X12.471 Y12.513
X12.434 Y12.527
X12.394
X12.357 Y12.513
X12.326 Y12.487
X12.307 Y12.453
X12.3 Y12.414
G3 X12.604 I0.152 J0.
X12.224 I-0.191 J0.
X12.681 I0.229 J0.
X12.147 I-0.267 J0.
X12.757 I0.305 J0.
X12.071 I-0.343 J0.
X12.833 I0.381 J0.
X11.995 I-0.419 J0.
X12.909 I0.457 J0.
X11.919 I-0.495 J0.
X12.986 I0.533 J0.
X11.842 I-0.572 J0.
X13.062 I0.61 J0.
X11.766 I-0.648 J0.
X13.138 I0.686 J0.
X11.69 I-0.724 J0.
X13.214 I0.762 J0.
X11.614 I-0.8 J0.
X13.29 I0.838 J0.
X11.538 I-0.876 J0.
X13.366 I0.914 J0.
X11.462 I-0.953 J0.
X13.443 I0.991 J0.
X11.385 I-1.029 J0.
X13.519 I1.067 J0.
X11.309 I-1.105 J0.
X13.595 I1.143 J0.
X11.233 I-1.181 J0.
X13.671 I1.219 J0.
X11.157 I-1.257 J0.
X13.748 I1.295 J0.
X11.08 I-1.334 J0.
X13.824 I1.372 J0.
X11.004 I-1.41 J0.
X13.9 I1.448 J0.
X10.928 I-1.486 J0.
X13.976 I1.524 J0.
X10.852 I-1.562 J0.
X14.052 I1.6 J0.
X10.776 I-1.638 J0.
X14.128 I1.676 J0.
X10.7 I-1.715 J0.
X14.205 I1.753 J0.
X10.623 I-1.791 J0.
X14.281 I1.829 J0.
X10.547 I-1.867 J0.
X14.357 I1.905 J0.
X10.471 I-1.943 J0.
X14.433 I1.981 J0.
X10.395 I-2.019 J0.
X14.509 I2.057 J0.
X10.318 I-2.095 J0.
X14.586 I2.134 J0.
X10.242 I-2.172 J0.
X14.662 I2.21 J0.
X10.166 I-2.248 J0.
X14.738 I2.286 J0.
X10.09 I-2.324 J0.
X14.814 I2.362 J0.
X10.014 I-2.4 J0.
X14.891 I2.438 J0.
X9.938 I-2.477 J0.
X14.967 I2.515 J0.
X9.861 I-2.553 J0.
X15.043 I2.591 J0.
X9.785 I-2.629 J0.
X15.119 I2.667 J0.
X9.709 I-2.705 J0.
X15.195 I2.743 J0.
X9.633 I-2.781 J0.
X15.271 I2.819 J0.
X9.557 I-2.858 J0.
X15.348 I2.896 J0.
X9.48 I-2.934 J0.
X15.424 I2.972 J0.
X9.404 I-3.01 J0.
X15.5 I3.048 J0.
X9.328 I-3.086 J0.
X15.576 I3.124 J0.
X9.252 I-3.162 J0.
X15.653 I3.2 J0.
X9.175 I-3.239 J0.
X15.729 I3.277 J0.
X9.099 I-3.315 J0.
X15.805 I3.353 J0.
X9.023 I-3.391 J0.
X15.881 I3.429 J0.
X8.947 I-3.467 J0.
X15.957 I3.505 J0.
X8.871 I-3.543 J0.
X16.034 I3.581 J0.
X8.795 I-3.62 J0.
X16.11 I3.658 J0.
X8.718 I-3.696 J0.
X16.186 I3.734 J0.
X8.642 I-3.772 J0.
X16.262 I3.81 J0.
X8.566 I-3.848 J0.
X16.338 I3.886 J0.
X8.49 I-3.924 J0.
X16.414 I3.962 J0.
X8.413 I-4. J0.
X16.491 I4.039 J0.
X8.337 I-4.077 J0.
X16.567 I4.115 J0.
X8.261 I-4.153 J0.
X16.643 I4.191 J0.
X8.185 I-4.229 J0.
X16.719 I4.267 J0.
X8.109 I-4.305 J0.
X16.795 I4.343 J0.
X8.033 I-4.382 J0.
X16.872 I4.42 J0.
X7.956 I-4.458 J0.
X16.948 I4.496 J0.
X7.88 I-4.534 J0.
X17.024 I4.572 J0.
X7.804 I-4.61 J0.
X17.1 I4.648 J0.
X7.728 I-4.686 J0.
X17.177 I4.724 J0.
X7.652 I-4.763 J0.
X17.253 I4.801 J0.
X7.575 I-4.839 J0.
X17.329 I4.877 J0.
X7.499 I-4.915 J0.
X17.405 I4.953 J0.
X7.423 I-4.991 J0.
X17.481 I5.029 J0.
X7.347 I-5.067 J0.
X17.558 I5.105 J0.
X7.271 I-5.144 J0.
X17.634 I5.182 J0.
X7.194 I-5.22 J0.
X17.71 I5.258 J0.
X7.118 I-5.296 J0.
X17.786 I5.334 J0.
X7.042 I-5.372 J0.
X17.862 I5.41 J0.
X6.966 I-5.448 J0.
X17.938 I5.486 J0.
X6.89 I-5.524 J0.
X18.015 I5.563 J0.
X6.813 I-5.601 J0.
X18.091 I5.639 J0.
X6.737 I-5.677 J0.
X18.167 I5.715 J0.
X6.661 I-5.753 J0.
X18.243 I5.791 J0.
X6.585 I-5.829 J0.
X18.319 I5.867 J0.
X6.509 I-5.906 J0.
X18.396 I5.944 J0.
X6.432 I-5.982 J0.
X18.472 I6.02 J0.
X6.356 I-6.058 J0.
X18.548 I6.096 J0.
X6.28 I-6.134 J0.
X18.624 I6.172 J0.
X6.204 I-6.21 J0.
X18.701 I6.248 J0.
X6.128 I-6.287 J0.
X18.777 I6.325 J0.
X6.051 I-6.363 J0.
X18.853 I6.401 J0.
X5.975 I-6.439 J0.
X18.929 I6.477 J0.
X5.899 I-6.515 J0.
X18.955 I6.528 J0.
X5.873 I-6.541 J0.
X18.955 I6.541 J0.
G1 X18.948 Y12.459
X18.929 Y12.501
X18.898 Y12.535
X18.86 Y12.559
X18.815 Y12.572
X18.77 Y12.571
X13.457 Y11.683
X13.441 Y11.68
X13.398 Y11.674
X13.355 Y11.681
X13.315 Y11.699
X13.281 Y11.727
X11.625 Y13.583
X11.592 Y13.611
X11.553 Y13.629
G3 X10.811 Y11.199 Z-0.395 I-0.371 J-1.215
X11.553 Y13.629 Z-0.409 I0.371 J1.215
X10.811 Y11.199 Z-0.423 I-0.371 J-1.215
X11.553 Y13.629 Z-0.437 I0.371 J1.215
X10.811 Y11.199 Z-0.451 I-0.371 J-1.215
X11.553 Y13.629 Z-0.465 I0.371 J1.215
X10.811 Y11.199 Z-0.478 I-0.371 J-1.215
X11.553 Y13.629 Z-0.492 I0.371 J1.215
X10.811 Y11.199 Z-0.506 I-0.371 J-1.215
X11.553 Y13.629 Z-0.52 I0.371 J1.215
X10.811 Y11.199 Z-0.534 I-0.371 J-1.215
X11.553 Y13.629 Z-0.548 I0.371 J1.215
X10.811 Y11.199 Z-0.562 I-0.371 J-1.215
X11.553 Y13.629 Z-0.576 I0.371 J1.215
X10.811 Y11.199 Z-0.59 I-0.371 J-1.215
X11.553 Y13.629 Z-0.604 I0.371 J1.215
X10.811 Y11.199 Z-0.618 I-0.371 J-1.215
X11.553 Y13.629 Z-0.632 I0.371 J1.215
X10.811 Y11.199 Z-0.646 I-0.371 J-1.215
X11.553 Y13.629 Z-0.66 I0.371 J1.215
X10.811 Y11.199 Z-0.673 I-0.371 J-1.215
X11.553 Y13.629 Z-0.687 I0.371 J1.215
X10.811 Y11.199 Z-0.701 I-0.371 J-1.215
X11.553 Y13.629 Z-0.715 I0.371 J1.215
X10.811 Y11.199 Z-0.729 I-0.371 J-1.215
X11.553 Y13.629 Z-0.743 I0.371 J1.215
X10.811 Y11.199 Z-0.757 I-0.371 J-1.215
X11.553 Y13.629 Z-0.771 I0.371 J1.215
X10.811 Y11.199 Z-0.785 I-0.371 J-1.215
X11.553 Y13.629 Z-0.799 I0.371 J1.215
X10.811 Y11.199 Z-0.813 I-0.371 J-1.215
X11.553 Y13.629 Z-0.827 I0.371 J1.215
X10.811 Y11.199 Z-0.841 I-0.371 J-1.215
X11.553 Y13.629 Z-0.855 I0.371 J1.215
X10.811 Y11.199 Z-0.868 I-0.371 J-1.215
X11.553 Y13.629 Z-0.882 I0.371 J1.215
X10.811 Y11.199 Z-0.896 I-0.371 J-1.215
X11.553 Y13.629 Z-0.91 I0.371 J1.215
X10.811 Y11.199 Z-0.924 I-0.371 J-1.215
X11.553 Y13.629 Z-0.938 I0.371 J1.215
X10.811 Y11.199 Z-0.952 I-0.371 J-1.215
X11.553 Y13.629 Z-0.966 I0.371 J1.215
X10.811 Y11.199 Z-0.98 I-0.371 J-1.215
X11.553 Y13.629 Z-0.994 I0.371 J1.215
X10.811 Y11.199 Z-1.008 I-0.371 J-1.215
X12.452 Y12.414 Z-1.016 I0.371 J1.215
G1 X12.445 Y12.436
X12.426 Y12.45
X12.402
X12.383 Y12.436
X12.376 Y12.414
X12.383 Y12.381
X12.405 Y12.354
X12.435 Y12.34
X12.469
X12.5 Y12.354
X12.521 Y12.381
X12.528 Y12.414
X12.521 Y12.453
X12.502 Y12.487
X12.471 Y12.513
X12.434 Y12.527
X12.394
X12.357 Y12.513
X12.326 Y12.487
X12.307 Y12.453
X12.3 Y12.414
G3 X12.604 I0.152 J0.
X12.224 I-0.191 J0.
X12.681 I0.229 J0.
X12.147 I-0.267 J0.
X12.757 I0.305 J0.
X12.071 I-0.343 J0.
X12.833 I0.381 J0.
X11.995 I-0.419 J0.
X12.909 I0.457 J0.
X11.919 I-0.495 J0.
X12.986 I0.533 J0.
X11.842 I-0.572 J0.
X13.062 I0.61 J0.
X11.766 I-0.648 J0.
X13.138 I0.686 J0.
X11.69 I-0.724 J0.
X13.214 I0.762 J0.
X11.614 I-0.8 J0.
X13.29 I0.838 J0.
X11.538 I-0.876 J0.
X13.366 I0.914 J0.
X11.462 I-0.953 J0.
X13.443 I0.991 J0.
X11.385 I-1.029 J0.
X13.519 I1.067 J0.
X11.309 I-1.105 J0.
X13.595 I1.143 J0.
X11.233 I-1.181 J0.
X13.671 I1.219 J0.
X11.157 I-1.257 J0.
X13.748 I1.295 J0.
X11.08 I-1.334 J0.
X13.824 I1.372 J0.
X11.004 I-1.41 J0.
X13.9 I1.448 J0.
X10.928 I-1.486 J0.
X13.976 I1.524 J0.
X10.852 I-1.562 J0.
X14.052 I1.6 J0.
X10.776 I-1.638 J0.
X14.128 I1.676 J0.
X10.7 I-1.715 J0.
X14.205 I1.753 J0.
X10.623 I-1.791 J0.
X14.281 I1.829 J0.
X10.547 I-1.867 J0.
X14.357 I1.905 J0.
X10.471 I-1.943 J0.
X14.433 I1.981 J0.
X10.395 I-2.019 J0.
X14.509 I2.057 J0.
X10.318 I-2.095 J0.
X14.586 I2.134 J0.
X10.242 I-2.172 J0.
X14.662 I2.21 J0.
X10.166 I-2.248 J0.
X14.738 I2.286 J0.
X10.09 I-2.324 J0.
X14.814 I2.362 J0.
X10.014 I-2.4 J0.
X14.891 I2.438 J0.
X9.938 I-2.477 J0.
X14.967 I2.515 J0.
X9.861 I-2.553 J0.
X15.043 I2.591 J0.
X9.785 I-2.629 J0.
X15.119 I2.667 J0.
X9.709 I-2.705 J0.
X15.195 I2.743 J0.
X9.633 I-2.781 J0.
X15.271 I2.819 J0.
X9.557 I-2.858 J0.
X15.348 I2.896 J0.
X9.48 I-2.934 J0.
X15.424 I2.972 J0.
X9.404 I-3.01 J0.
X15.5 I3.048 J0.
X9.328 I-3.086 J0.
X15.576 I3.124 J0.
X9.252 I-3.162 J0.
X15.653 I3.2 J0.
X9.175 I-3.239 J0.
X15.729 I3.277 J0.
X9.099 I-3.315 J0.
X15.805 I3.353 J0.
X9.023 I-3.391 J0.
X15.881 I3.429 J0.
X8.947 I-3.467 J0.
X15.957 I3.505 J0.
X8.871 I-3.543 J0.
X16.034 I3.581 J0.
X8.795 I-3.62 J0.
X16.11 I3.658 J0.
X8.718 I-3.696 J0.
X16.186 I3.734 J0.
X8.642 I-3.772 J0.
X16.262 I3.81 J0.
X8.566 I-3.848 J0.
X16.338 I3.886 J0.
X8.49 I-3.924 J0.
X16.414 I3.962 J0.
X8.413 I-4. J0.
X16.491 I4.039 J0.
X8.337 I-4.077 J0.
X16.567 I4.115 J0.
X8.261 I-4.153 J0.
X16.643 I4.191 J0.
X8.185 I-4.229 J0.
X16.719 I4.267 J0.
X8.109 I-4.305 J0.
X16.795 I4.343 J0.
X8.033 I-4.382 J0.
X16.872 I4.42 J0.
X7.956 I-4.458 J0.
X16.948 I4.496 J0.
X7.88 I-4.534 J0.
X17.024 I4.572 J0.
X7.804 I-4.61 J0.
X17.1 I4.648 J0.
X7.728 I-4.686 J0.
X17.177 I4.724 J0.
X7.652 I-4.763 J0.
X17.253 I4.801 J0.
X7.575 I-4.839 J0.
X17.329 I4.877 J0.
X7.499 I-4.915 J0.
X17.405 I4.953 J0.
X7.423 I-4.991 J0.
X17.481 I5.029 J0.
X7.347 I-5.067 J0.
X17.558 I5.105 J0.
X7.271 I-5.144 J0.
X17.634 I5.182 J0.
X7.194 I-5.22 J0.
X17.71 I5.258 J0.
X7.118 I-5.296 J0.
X17.786 I5.334 J0.
X7.042 I-5.372 J0.
X17.862 I5.41 J0.
X6.966 I-5.448 J0.
X17.938 I5.486 J0.
X6.89 I-5.524 J0.
X18.015 I5.563 J0.
X6.813 I-5.601 J0.
X18.091 I5.639 J0.
X6.737 I-5.677 J0.
X18.167 I5.715 J0.
X6.661 I-5.753 J0.
X18.243 I5.791 J0.
X6.585 I-5.829 J0.
X18.319 I5.867 J0.
X6.509 I-5.906 J0.
X18.396 I5.944 J0.
X6.432 I-5.982 J0.
X18.472 I6.02 J0.
X6.356 I-6.058 J0.
X18.548 I6.096 J0.
X6.28 I-6.134 J0.
X18.624 I6.172 J0.
X6.204 I-6.21 J0.
X18.701 I6.248 J0.
X6.128 I-6.287 J0.
X18.777 I6.325 J0.
X6.051 I-6.363 J0.
X18.853 I6.401 J0.
X5.975 I-6.439 J0.
X18.929 I6.477 J0.
X5.899 I-6.515 J0.
X18.955 I6.528 J0.
X5.873 I-6.541 J0.
X18.955 I6.541 J0.
G1 X18.948 Y12.459
X18.929 Y12.501
X18.898 Y12.535
X18.86 Y12.559
X18.815 Y12.572
X18.77 Y12.571
X13.457 Y11.683
X13.441 Y11.68
X13.398 Y11.674
X13.355 Y11.681
X13.315 Y11.699
X13.281 Y11.727
X11.625 Y13.583
X11.592 Y13.611
X11.553 Y13.629
G3 X10.811 Y11.199 Z-1.03 I-0.371 J-1.215
X11.553 Y13.629 Z-1.044 I0.371 J1.215
X10.811 Y11.199 Z-1.058 I-0.371 J-1.215
X11.553 Y13.629 Z-1.072 I0.371 J1.215
X10.811 Y11.199 Z-1.086 I-0.371 J-1.215
X11.553 Y13.629 Z-1.1 I0.371 J1.215
X10.811 Y11.199 Z-1.113 I-0.371 J-1.215
X11.553 Y13.629 Z-1.127 I0.371 J1.215
X10.811 Y11.199 Z-1.141 I-0.371 J-1.215
X11.553 Y13.629 Z-1.155 I0.371 J1.215
X10.811 Y11.199 Z-1.169 I-0.371 J-1.215
X11.553 Y13.629 Z-1.183 I0.371 J1.215
X10.811 Y11.199 Z-1.197 I-0.371 J-1.215
X11.553 Y13.629 Z-1.211 I0.371 J1.215
X10.811 Y11.199 Z-1.225 I-0.371 J-1.215
X11.553 Y13.629 Z-1.239 I0.371 J1.215
X10.811 Y11.199 Z-1.253 I-0.371 J-1.215
X11.553 Y13.629 Z-1.267 I0.371 J1.215
X10.811 Y11.199 Z-1.281 I-0.371 J-1.215
X11.553 Y13.629 Z-1.295 I0.371 J1.215
X10.811 Y11.199 Z-1.308 I-0.371 J-1.215
X11.553 Y13.629 Z-1.322 I0.371 J1.215
X10.811 Y11.199 Z-1.336 I-0.371 J-1.215
X11.553 Y13.629 Z-1.35 I0.371 J1.215
X10.811 Y11.199 Z-1.364 I-0.371 J-1.215
X11.553 Y13.629 Z-1.378 I0.371 J1.215
X10.811 Y11.199 Z-1.392 I-0.371 J-1.215
X11.553 Y13.629 Z-1.406 I0.371 J1.215
X10.811 Y11.199 Z-1.42 I-0.371 J-1.215
X11.553 Y13.629 Z-1.434 I0.371 J1.215
X10.811 Y11.199 Z-1.448 I-0.371 J-1.215
X11.553 Y13.629 Z-1.462 I0.371 J1.215
X10.811 Y11.199 Z-1.476 I-0.371 J-1.215
X11.553 Y13.629 Z-1.49 I0.371 J1.215
X10.811 Y11.199 Z-1.503 I-0.371 J-1.215
X11.553 Y13.629 Z-1.517 I0.371 J1.215
X10.811 Y11.199 Z-1.531 I-0.371 J-1.215
X11.553 Y13.629 Z-1.545 I0.371 J1.215
X10.811 Y11.199 Z-1.559 I-0.371 J-1.215
X11.553 Y13.629 Z-1.573 I0.371 J1.215
X10.811 Y11.199 Z-1.587 I-0.371 J-1.215
X11.553 Y13.629 Z-1.601 I0.371 J1.215
X10.811 Y11.199 Z-1.615 I-0.371 J-1.215
X11.553 Y13.629 Z-1.629 I0.371 J1.215
X10.811 Y11.199 Z-1.643 I-0.371 J-1.215
X12.452 Y12.414 Z-1.651 I0.371 J1.215
G1 X12.445 Y12.436
X12.426 Y12.45
X12.402
X12.383 Y12.436
X12.376 Y12.414
X12.383 Y12.381
X12.405 Y12.354
X12.435 Y12.34
X12.469
X12.5 Y12.354
X12.521 Y12.381
X12.528 Y12.414
X12.521 Y12.453
X12.502 Y12.487
X12.471 Y12.513
X12.434 Y12.527
X12.394
X12.357 Y12.513
X12.326 Y12.487
X12.307 Y12.453
X12.3 Y12.414
G3 X12.604 I0.152 J0.
X12.224 I-0.191 J0.
X12.681 I0.229 J0.
X12.147 I-0.267 J0.
X12.757 I0.305 J0.
X12.071 I-0.343 J0.
X12.833 I0.381 J0.
X11.995 I-0.419 J0.
X12.909 I0.457 J0.
X11.919 I-0.495 J0.
X12.986 I0.533 J0.
X11.842 I-0.572 J0.
X13.062 I0.61 J0.
X11.766 I-0.648 J0.
X13.138 I0.686 J0.
X11.69 I-0.724 J0.
X13.214 I0.762 J0.
X11.614 I-0.8 J0.
X13.29 I0.838 J0.
X11.538 I-0.876 J0.
X13.366 I0.914 J0.
X11.462 I-0.953 J0.
X13.443 I0.991 J0.
X11.385 I-1.029 J0.
X13.519 I1.067 J0.
X11.309 I-1.105 J0.
X13.595 I1.143 J0.
X11.233 I-1.181 J0.
X13.671 I1.219 J0.
X11.157 I-1.257 J0.
X13.748 I1.295 J0.
X11.08 I-1.334 J0.
X13.824 I1.372 J0.
X11.004 I-1.41 J0.
X13.9 I1.448 J0.
X10.928 I-1.486 J0.
X13.976 I1.524 J0.
X10.852 I-1.562 J0.
X14.052 I1.6 J0.
X10.776 I-1.638 J0.
X14.128 I1.676 J0.
X10.7 I-1.715 J0.
X14.205 I1.753 J0.
X10.623 I-1.791 J0.
X14.281 I1.829 J0.
X10.547 I-1.867 J0.
X14.357 I1.905 J0.
X10.471 I-1.943 J0.
X14.433 I1.981 J0.
X10.395 I-2.019 J0.
X14.509 I2.057 J0.
X10.318 I-2.095 J0.
X14.586 I2.134 J0.
X10.242 I-2.172 J0.
X14.662 I2.21 J0.
X10.166 I-2.248 J0.
X14.738 I2.286 J0.
X10.09 I-2.324 J0.
X14.814 I2.362 J0.
X10.014 I-2.4 J0.
X14.891 I2.438 J0.
X9.938 I-2.477 J0.
X14.967 I2.515 J0.
X9.861 I-2.553 J0.
X15.043 I2.591 J0.
X9.785 I-2.629 J0.
X15.119 I2.667 J0.
X9.709 I-2.705 J0.
X15.195 I2.743 J0.
X9.633 I-2.781 J0.
X15.271 I2.819 J0.
X9.557 I-2.858 J0.
X15.348 I2.896 J0.
X9.48 I-2.934 J0.
X15.424 I2.972 J0.
X9.404 I-3.01 J0.
X15.5 I3.048 J0.
X9.328 I-3.086 J0.
X15.576 I3.124 J0.
X9.252 I-3.162 J0.
X15.653 I3.2 J0.
X9.175 I-3.239 J0.
X15.729 I3.277 J0.
X9.099 I-3.315 J0.
X15.805 I3.353 J0.
X9.023 I-3.391 J0.
X15.881 I3.429 J0.
X8.947 I-3.467 J0.
X15.957 I3.505 J0.
X8.871 I-3.543 J0.
X16.034 I3.581 J0.
X8.795 I-3.62 J0.
X16.11 I3.658 J0.
X8.718 I-3.696 J0.
X16.186 I3.734 J0.
X8.642 I-3.772 J0.
X16.262 I3.81 J0.
X8.566 I-3.848 J0.
X16.338 I3.886 J0.
X8.49 I-3.924 J0.
X16.414 I3.962 J0.
X8.413 I-4. J0.
X16.491 I4.039 J0.
X8.337 I-4.077 J0.
X16.567 I4.115 J0.
X8.261 I-4.153 J0.
X16.643 I4.191 J0.
X8.185 I-4.229 J0.
X16.719 I4.267 J0.
X8.109 I-4.305 J0.
X16.795 I4.343 J0.
X8.033 I-4.382 J0.
X16.872 I4.42 J0.
X7.956 I-4.458 J0.
X16.948 I4.496 J0.
X7.88 I-4.534 J0.
X17.024 I4.572 J0.
X7.804 I-4.61 J0.
X17.1 I4.648 J0.
X7.728 I-4.686 J0.
X17.177 I4.724 J0.
X7.652 I-4.763 J0.
X17.253 I4.801 J0.
X7.575 I-4.839 J0.
X17.329 I4.877 J0.
X7.499 I-4.915 J0.
X17.405 I4.953 J0.
X7.423 I-4.991 J0.
X17.481 I5.029 J0.
X7.347 I-5.067 J0.
X17.558 I5.105 J0.
X7.271 I-5.144 J0.
X17.634 I5.182 J0.
X7.194 I-5.22 J0.
X17.71 I5.258 J0.
X7.118 I-5.296 J0.
X17.786 I5.334 J0.
X7.042 I-5.372 J0.
X17.862 I5.41 J0.
X6.966 I-5.448 J0.
X17.938 I5.486 J0.
X6.89 I-5.524 J0.
X18.015 I5.563 J0.
X6.813 I-5.601 J0.
X18.091 I5.639 J0.
X6.737 I-5.677 J0.
X18.167 I5.715 J0.
X6.661 I-5.753 J0.
X18.243 I5.791 J0.
X6.585 I-5.829 J0.
X18.319 I5.867 J0.
X6.509 I-5.906 J0.
X18.396 I5.944 J0.
X6.432 I-5.982 J0.
X18.472 I6.02 J0.
X6.356 I-6.058 J0.
X18.548 I6.096 J0.
X6.28 I-6.134 J0.
X18.624 I6.172 J0.
X6.204 I-6.21 J0.
X18.701 I6.248 J0.
X6.128 I-6.287 J0.
X18.777 I6.325 J0.
X6.051 I-6.363 J0.
X18.853 I6.401 J0.
X5.975 I-6.439 J0.
X18.929 I6.477 J0.
X5.899 I-6.515 J0.
X18.955 I6.528 J0.
X5.873 I-6.541 J0.
X18.955 I6.541 J0.
G1 X18.948 Y12.459
X18.929 Y12.501
X18.898 Y12.535
X18.86 Y12.559
X18.815 Y12.572
X18.77 Y12.571
X13.457 Y11.683
X13.441 Y11.68
X13.398 Y11.674
X13.355 Y11.681
X13.315 Y11.699
X13.281 Y11.727
X11.625 Y13.583
X11.592 Y13.611
X11.553 Y13.629
G3 X10.811 Y11.199 Z-1.665 I-0.371 J-1.215
X11.553 Y13.629 Z-1.679 I0.371 J1.215
X10.811 Y11.199 Z-1.693 I-0.371 J-1.215
X11.553 Y13.629 Z-1.707 I0.371 J1.215
X10.811 Y11.199 Z-1.721 I-0.371 J-1.215
X11.553 Y13.629 Z-1.735 I0.371 J1.215
X10.811 Y11.199 Z-1.748 I-0.371 J-1.215
X11.553 Y13.629 Z-1.762 I0.371 J1.215
X10.811 Y11.199 Z-1.776 I-0.371 J-1.215
X11.553 Y13.629 Z-1.79 I0.371 J1.215
X10.811 Y11.199 Z-1.804 I-0.371 J-1.215
X11.553 Y13.629 Z-1.818 I0.371 J1.215
X10.811 Y11.199 Z-1.832 I-0.371 J-1.215
X11.553 Y13.629 Z-1.846 I0.371 J1.215
X10.811 Y11.199 Z-1.86 I-0.371 J-1.215
X11.553 Y13.629 Z-1.874 I0.371 J1.215
X10.811 Y11.199 Z-1.888 I-0.371 J-1.215
X11.553 Y13.629 Z-1.902 I0.371 J1.215
X10.811 Y11.199 Z-1.916 I-0.371 J-1.215
X11.553 Y13.629 Z-1.93 I0.371 J1.215
X10.811 Y11.199 Z-1.943 I-0.371 J-1.215
X11.553 Y13.629 Z-1.957 I0.371 J1.215
X10.811 Y11.199 Z-1.971 I-0.371 J-1.215
X11.553 Y13.629 Z-1.985 I0.371 J1.215
X10.811 Y11.199 Z-1.999 I-0.371 J-1.215
X11.553 Y13.629 Z-2.013 I0.371 J1.215
X10.811 Y11.199 Z-2.027 I-0.371 J-1.215
X11.553 Y13.629 Z-2.041 I0.371 J1.215
X10.811 Y11.199 Z-2.055 I-0.371 J-1.215
X11.553 Y13.629 Z-2.069 I0.371 J1.215
X10.811 Y11.199 Z-2.083 I-0.371 J-1.215
X11.553 Y13.629 Z-2.097 I0.371 J1.215
X10.811 Y11.199 Z-2.111 I-0.371 J-1.215
X11.553 Y13.629 Z-2.125 I0.371 J1.215
X10.811 Y11.199 Z-2.138 I-0.371 J-1.215
X11.553 Y13.629 Z-2.152 I0.371 J1.215
X10.811 Y11.199 Z-2.166 I-0.371 J-1.215
X11.553 Y13.629 Z-2.18 I0.371 J1.215
X10.811 Y11.199 Z-2.194 I-0.371 J-1.215
X11.553 Y13.629 Z-2.208 I0.371 J1.215
X10.811 Y11.199 Z-2.222 I-0.371 J-1.215
X11.553 Y13.629 Z-2.236 I0.371 J1.215
X10.811 Y11.199 Z-2.25 I-0.371 J-1.215
X11.553 Y13.629 Z-2.264 I0.371 J1.215
X10.811 Y11.199 Z-2.278 I-0.371 J-1.215
X12.452 Y12.414 Z-2.286 I0.371 J1.215
G1 X12.445 Y12.436
X12.426 Y12.45
X12.402
X12.383 Y12.436
X12.376 Y12.414
X12.383 Y12.381
X12.405 Y12.354
X12.435 Y12.34
X12.469
X12.5 Y12.354
X12.521 Y12.381
X12.528 Y12.414
X12.521 Y12.453
X12.502 Y12.487
X12.471 Y12.513
X12.434 Y12.527
X12.394
X12.357 Y12.513
X12.326 Y12.487
X12.307 Y12.453
X12.3 Y12.414
G3 X12.604 I0.152 J0.
X12.224 I-0.191 J0.
X12.681 I0.229 J0.
X12.147 I-0.267 J0.
X12.757 I0.305 J0.
X12.071 I-0.343 J0.
X12.833 I0.381 J0.
X11.995 I-0.419 J0.
X12.909 I0.457 J0.
X11.919 I-0.495 J0.
X12.986 I0.533 J0.
X11.842 I-0.572 J0.
X13.062 I0.61 J0.
X11.766 I-0.648 J0.
X13.138 I0.686 J0.
X11.69 I-0.724 J0.
X13.214 I0.762 J0.
X11.614 I-0.8 J0.
X13.29 I0.838 J0.
X11.538 I-0.876 J0.
X13.366 I0.914 J0.
X11.462 I-0.953 J0.
X13.443 I0.991 J0.
X11.385 I-1.029 J0.
X13.519 I1.067 J0.
X11.309 I-1.105 J0.
X13.595 I1.143 J0.
X11.233 I-1.181 J0.
X13.671 I1.219 J0.
X11.157 I-1.257 J0.
X13.748 I1.295 J0.
X11.08 I-1.334 J0.
X13.824 I1.372 J0.
X11.004 I-1.41 J0.
X13.9 I1.448 J0.
X10.928 I-1.486 J0.
X13.976 I1.524 J0.
X10.852 I-1.562 J0.
X14.052 I1.6 J0.
X10.776 I-1.638 J0.
X14.128 I1.676 J0.
X10.7 I-1.715 J0.
X14.205 I1.753 J0.
X10.623 I-1.791 J0.
X14.281 I1.829 J0.
X10.547 I-1.867 J0.
X14.357 I1.905 J0.
X10.471 I-1.943 J0.
X14.433 I1.981 J0.
X10.395 I-2.019 J0.
X14.509 I2.057 J0.
X10.318 I-2.095 J0.
X14.586 I2.134 J0.
X10.242 I-2.172 J0.
X14.662 I2.21 J0.
X10.166 I-2.248 J0.
X14.738 I2.286 J0.
X10.09 I-2.324 J0.
X14.814 I2.362 J0.
X10.014 I-2.4 J0.
X14.891 I2.438 J0.
X9.938 I-2.477 J0.
X14.967 I2.515 J0.
X9.861 I-2.553 J0.
X15.043 I2.591 J0.
X9.785 I-2.629 J0.
X15.119 I2.667 J0.
X9.709 I-2.705 J0.
X15.195 I2.743 J0.
X9.633 I-2.781 J0.
X15.271 I2.819 J0.
X9.557 I-2.858 J0.
X15.348 I2.896 J0.
X9.48 I-2.934 J0.
X15.424 I2.972 J0.
X9.404 I-3.01 J0.
X15.5 I3.048 J0.
X9.328 I-3.086 J0.
X15.576 I3.124 J0.
X9.252 I-3.162 J0.
X15.653 I3.2 J0.
X9.175 I-3.239 J0.
X15.729 I3.277 J0.
X9.099 I-3.315 J0.
X15.805 I3.353 J0.
X9.023 I-3.391 J0.
X15.881 I3.429 J0.
X8.947 I-3.467 J0.
X15.957 I3.505 J0.
X8.871 I-3.543 J0.
X16.034 I3.581 J0.
X8.795 I-3.62 J0.
X16.11 I3.658 J0.
X8.718 I-3.696 J0.
X16.186 I3.734 J0.
X8.642 I-3.772 J0.
X16.262 I3.81 J0.
X8.566 I-3.848 J0.
X16.338 I3.886 J0.
X8.49 I-3.924 J0.
X16.414 I3.962 J0.
X8.413 I-4. J0.
X16.491 I4.039 J0.
X8.337 I-4.077 J0.
X16.567 I4.115 J0.
X8.261 I-4.153 J0.
X16.643 I4.191 J0.
X8.185 I-4.229 J0.
X16.719 I4.267 J0.
X8.109 I-4.305 J0.
X16.795 I4.343 J0.
X8.033 I-4.382 J0.
X16.872 I4.42 J0.
X7.956 I-4.458 J0.
X16.948 I4.496 J0.
X7.88 I-4.534 J0.
X17.024 I4.572 J0.
X7.804 I-4.61 J0.
X17.1 I4.648 J0.
X7.728 I-4.686 J0.
X17.177 I4.724 J0.
X7.652 I-4.763 J0.
X17.253 I4.801 J0.
X7.575 I-4.839 J0.
X17.329 I4.877 J0.
X7.499 I-4.915 J0.
X17.405 I4.953 J0.
X7.423 I-4.991 J0.
X17.481 I5.029 J0.
X7.347 I-5.067 J0.
X17.558 I5.105 J0.
X7.271 I-5.144 J0.
X17.634 I5.182 J0.
X7.194 I-5.22 J0.
X17.71 I5.258 J0.
X7.118 I-5.296 J0.
X17.786 I5.334 J0.
X7.042 I-5.372 J0.
X17.862 I5.41 J0.
X6.966 I-5.448 J0.
X17.938 I5.486 J0.
X6.89 I-5.524 J0.
X18.015 I5.563 J0.
X6.813 I-5.601 J0.
X18.091 I5.639 J0.
X6.737 I-5.677 J0.
X18.167 I5.715 J0.
X6.661 I-5.753 J0.
X18.243 I5.791 J0.
X6.585 I-5.829 J0.
X18.319 I5.867 J0.
X6.509 I-5.906 J0.
X18.396 I5.944 J0.
X6.432 I-5.982 J0.
X18.472 I6.02 J0.
X6.356 I-6.058 J0.
X18.548 I6.096 J0.
X6.28 I-6.134 J0.
X18.624 I6.172 J0.
X6.204 I-6.21 J0.
X18.701 I6.248 J0.
X6.128 I-6.287 J0.
X18.777 I6.325 J0.
X6.051 I-6.363 J0.
X18.853 I6.401 J0.
X5.975 I-6.439 J0.
X18.929 I6.477 J0.
X5.899 I-6.515 J0.
X18.955 I6.528 J0.
X5.873 I-6.541 J0.
X18.955 I6.541 J0.
G1 X18.948 Y12.459
X18.929 Y12.501
X18.898 Y12.535
X18.86 Y12.559
X18.815 Y12.572
X18.77 Y12.571
X13.457 Y11.683
X13.441 Y11.68
X13.398 Y11.674
X13.355 Y11.681
X13.315 Y11.699
X13.281 Y11.727
X11.625 Y13.583
X11.592 Y13.611
X11.553 Y13.629
G3 X10.811 Y11.199 Z-2.3 I-0.371 J-1.215
X11.553 Y13.629 Z-2.314 I0.371 J1.215
X10.811 Y11.199 Z-2.328 I-0.371 J-1.215
X11.553 Y13.629 Z-2.342 I0.371 J1.215
X10.811 Y11.199 Z-2.356 I-0.371 J-1.215
X11.553 Y13.629 Z-2.37 I0.371 J1.215
X10.811 Y11.199 Z-2.383 I-0.371 J-1.215
X11.553 Y13.629 Z-2.397 I0.371 J1.215
X10.811 Y11.199 Z-2.411 I-0.371 J-1.215
X11.553 Y13.629 Z-2.425 I0.371 J1.215
X10.811 Y11.199 Z-2.439 I-0.371 J-1.215
X11.553 Y13.629 Z-2.453 I0.371 J1.215
X10.811 Y11.199 Z-2.467 I-0.371 J-1.215
X11.553 Y13.629 Z-2.481 I0.371 J1.215
X10.811 Y11.199 Z-2.495 I-0.371 J-1.215
X11.553 Y13.629 Z-2.509 I0.371 J1.215
X10.811 Y11.199 Z-2.523 I-0.371 J-1.215
X11.553 Y13.629 Z-2.537 I0.371 J1.215
X10.811 Y11.199 Z-2.551 I-0.371 J-1.215
X11.553 Y13.629 Z-2.565 I0.371 J1.215
X10.811 Y11.199 Z-2.578 I-0.371 J-1.215
X11.553 Y13.629 Z-2.592 I0.371 J1.215
X10.811 Y11.199 Z-2.606 I-0.371 J-1.215
X11.553 Y13.629 Z-2.62 I0.371 J1.215
X10.811 Y11.199 Z-2.634 I-0.371 J-1.215
X11.553 Y13.629 Z-2.648 I0.371 J1.215
X10.811 Y11.199 Z-2.662 I-0.371 J-1.215
X11.553 Y13.629 Z-2.676 I0.371 J1.215
X10.811 Y11.199 Z-2.69 I-0.371 J-1.215
X11.553 Y13.629 Z-2.704 I0.371 J1.215
X10.811 Y11.199 Z-2.718 I-0.371 J-1.215
X11.553 Y13.629 Z-2.732 I0.371 J1.215
X10.811 Y11.199 Z-2.746 I-0.371 J-1.215
X11.553 Y13.629 Z-2.76 I0.371 J1.215
X10.811 Y11.199 Z-2.773 I-0.371 J-1.215
X11.553 Y13.629 Z-2.787 I0.371 J1.215
X10.811 Y11.199 Z-2.801 I-0.371 J-1.215
X11.553 Y13.629 Z-2.815 I0.371 J1.215
X10.811 Y11.199 Z-2.829 I-0.371 J-1.215
X11.553 Y13.629 Z-2.843 I0.371 J1.215
X10.811 Y11.199 Z-2.857 I-0.371 J-1.215
X11.553 Y13.629 Z-2.871 I0.371 J1.215
X10.811 Y11.199 Z-2.885 I-0.371 J-1.215
X11.553 Y13.629 Z-2.899 I0.371 J1.215
X10.811 Y11.199 Z-2.913 I-0.371 J-1.215
X12.452 Y12.414 Z-2.921 I0.371 J1.215
G1 X12.445 Y12.436
X12.426 Y12.45
X12.402
X12.383 Y12.436
X12.376 Y12.414
X12.383 Y12.381
X12.405 Y12.354
X12.435 Y12.34
X12.469
X12.5 Y12.354
X12.521 Y12.381
X12.528 Y12.414
X12.521 Y12.453
X12.502 Y12.487
X12.471 Y12.513
X12.434 Y12.527
X12.394
X12.357 Y12.513
X12.326 Y12.487
X12.307 Y12.453
X12.3 Y12.414
G3 X12.604 I0.152 J0.
X12.224 I-0.191 J0.
X12.681 I0.229 J0.
X12.147 I-0.267 J0.
X12.757 I0.305 J0.
X12.071 I-0.343 J0.
X12.833 I0.381 J0.
X11.995 I-0.419 J0.
X12.909 I0.457 J0.
X11.919 I-0.495 J0.
X12.986 I0.533 J0.
X11.842 I-0.572 J0.
X13.062 I0.61 J0.
X11.766 I-0.648 J0.
X13.138 I0.686 J0.
X11.69 I-0.724 J0.
X13.214 I0.762 J0.
X11.614 I-0.8 J0.
X13.29 I0.838 J0.
X11.538 I-0.876 J0.
X13.366 I0.914 J0.
X11.462 I-0.953 J0.
X13.443 I0.991 J0.
X11.385 I-1.029 J0.
X13.519 I1.067 J0.
X11.309 I-1.105 J0.
X13.595 I1.143 J0.
X11.233 I-1.181 J0.
X13.671 I1.219 J0.
X11.157 I-1.257 J0.
X13.748 I1.295 J0.
X11.08 I-1.334 J0.
X13.824 I1.372 J0.
X11.004 I-1.41 J0.
X13.9 I1.448 J0.
X10.928 I-1.486 J0.
X13.976 I1.524 J0.
X10.852 I-1.562 J0.
X14.052 I1.6 J0.
X10.776 I-1.638 J0.
X14.128 I1.676 J0.
X10.7 I-1.715 J0.
X14.205 I1.753 J0.
X10.623 I-1.791 J0.
X14.281 I1.829 J0.
X10.547 I-1.867 J0.
X14.357 I1.905 J0.
X10.471 I-1.943 J0.
X14.433 I1.981 J0.
X10.395 I-2.019 J0.
X14.509 I2.057 J0.
X10.318 I-2.095 J0.
X14.586 I2.134 J0.
X10.242 I-2.172 J0.
X14.662 I2.21 J0.
X10.166 I-2.248 J0.
X14.738 I2.286 J0.
X10.09 I-2.324 J0.
X14.814 I2.362 J0.
X10.014 I-2.4 J0.
X14.891 I2.438 J0.
X9.938 I-2.477 J0.
X14.967 I2.515 J0.
X9.861 I-2.553 J0.
X15.043 I2.591 J0.
X9.785 I-2.629 J0.
X15.119 I2.667 J0.
X9.709 I-2.705 J0.
X15.195 I2.743 J0.
X9.633 I-2.781 J0.
X15.271 I2.819 J0.
X9.557 I-2.858 J0.
X15.348 I2.896 J0.
X9.48 I-2.934 J0.
X15.424 I2.972 J0.
X9.404 I-3.01 J0.
X15.5 I3.048 J0.
X9.328 I-3.086 J0.
X15.576 I3.124 J0.
X9.252 I-3.162 J0.
X15.653 I3.2 J0.
X9.175 I-3.239 J0.
X15.729 I3.277 J0.
X9.099 I-3.315 J0.
X15.805 I3.353 J0.
X9.023 I-3.391 J0.
X15.881 I3.429 J0.
X8.947 I-3.467 J0.
X15.957 I3.505 J0.
X8.871 I-3.543 J0.
X16.034 I3.581 J0.
X8.795 I-3.62 J0.
X16.11 I3.658 J0.
X8.718 I-3.696 J0.
X16.186 I3.734 J0.
X8.642 I-3.772 J0.
X16.262 I3.81 J0.
X8.566 I-3.848 J0.
X16.338 I3.886 J0.
X8.49 I-3.924 J0.
X16.414 I3.962 J0.
X8.413 I-4. J0.
X16.491 I4.039 J0.
X8.337 I-4.077 J0.
X16.567 I4.115 J0.
X8.261 I-4.153 J0.
X16.643 I4.191 J0.
X8.185 I-4.229 J0.
X16.719 I4.267 J0.
X8.109 I-4.305 J0.
X16.795 I4.343 J0.
X8.033 I-4.382 J0.
X16.872 I4.42 J0.
X7.956 I-4.458 J0.
X16.948 I4.496 J0.
X7.88 I-4.534 J0.
X17.024 I4.572 J0.
X7.804 I-4.61 J0.
X17.1 I4.648 J0.
X7.728 I-4.686 J0.
X17.177 I4.724 J0.
X7.652 I-4.763 J0.
X17.253 I4.801 J0.
X7.575 I-4.839 J0.
X17.329 I4.877 J0.
X7.499 I-4.915 J0.
X17.405 I4.953 J0.
X7.423 I-4.991 J0.
X17.481 I5.029 J0.
X7.347 I-5.067 J0.
X17.558 I5.105 J0.
X7.271 I-5.144 J0.
X17.634 I5.182 J0.
X7.194 I-5.22 J0.
X17.71 I5.258 J0.
X7.118 I-5.296 J0.
X17.786 I5.334 J0.
X7.042 I-5.372 J0.
X17.862 I5.41 J0.
X6.966 I-5.448 J0.
X17.938 I5.486 J0.
X6.89 I-5.524 J0.
X18.015 I5.563 J0.
X6.813 I-5.601 J0.
X18.091 I5.639 J0.
X6.737 I-5.677 J0.
X18.167 I5.715 J0.
X6.661 I-5.753 J0.
X18.243 I5.791 J0.
X6.585 I-5.829 J0.
X18.319 I5.867 J0.
X6.509 I-5.906 J0.
X18.396 I5.944 J0.
X6.432 I-5.982 J0.
X18.472 I6.02 J0.
X6.356 I-6.058 J0.
X18.548 I6.096 J0.
X6.28 I-6.134 J0.
X18.624 I6.172 J0.
X6.204 I-6.21 J0.
X18.701 I6.248 J0.
X6.128 I-6.287 J0.
X18.777 I6.325 J0.
X6.051 I-6.363 J0.
X18.853 I6.401 J0.
X5.975 I-6.439 J0.
X18.929 I6.477 J0.
X5.899 I-6.515 J0.
X18.955 I6.528 J0.
X5.873 I-6.541 J0.
X18.955 I6.541 J0.
G1 X18.947 Y12.461
X18.927 Y12.503
X18.895 Y12.538
X18.854 Y12.562
X18.808 Y12.572
X12.89 Y13.024
X12.87 Y13.026
X12.824 Y13.029
X12.78 Y13.018
X12.74 Y12.995
X12.708 Y12.961
X11.867 Y11.75
G3 X12.114 Y11.551 I0.13 J-0.091
X10.25 Y13.277 Z-2.935 I-0.932 J0.863
X12.114 Y11.551 Z-2.949 I0.932 J-0.863
X10.25 Y13.277 Z-2.963 I-0.932 J0.863
X12.114 Y11.551 Z-2.977 I0.932 J-0.863
X10.25 Y13.277 Z-2.991 I-0.932 J0.863
X12.114 Y11.551 Z-3.005 I0.932 J-0.863
X10.25 Y13.277 Z-3.018 I-0.932 J0.863
X12.114 Y11.551 Z-3.032 I0.932 J-0.863
X10.25 Y13.277 Z-3.046 I-0.932 J0.863
X12.114 Y11.551 Z-3.06 I0.932 J-0.863
X10.25 Y13.277 Z-3.074 I-0.932 J0.863
X12.114 Y11.551 Z-3.088 I0.932 J-0.863
X10.25 Y13.277 Z-3.102 I-0.932 J0.863
X12.114 Y11.551 Z-3.116 I0.932 J-0.863
X10.25 Y13.277 Z-3.13 I-0.932 J0.863
X12.114 Y11.551 Z-3.144 I0.932 J-0.863
X10.25 Y13.277 Z-3.158 I-0.932 J0.863
X12.114 Y11.551 Z-3.172 I0.932 J-0.863
X12.452 Y12.414 Z-3.175 I-0.932 J0.863
G1 X12.445 Y12.436
X12.426 Y12.45
X12.402
X12.383 Y12.436
X12.376 Y12.414
X12.383 Y12.381
X12.405 Y12.354
X12.435 Y12.34
X12.469
X12.5 Y12.354
X12.521 Y12.381
X12.528 Y12.414
X12.521 Y12.453
X12.502 Y12.487
X12.471 Y12.513
X12.434 Y12.527
X12.394
X12.357 Y12.513
X12.326 Y12.487
X12.307 Y12.453
X12.3 Y12.414
G3 X12.604 I0.152 J0.
X12.224 I-0.191 J0.
X12.681 I0.229 J0.
X12.147 I-0.267 J0.
X12.757 I0.305 J0.
X12.071 I-0.343 J0.
X12.833 I0.381 J0.
X11.995 I-0.419 J0.
X12.909 I0.457 J0.
X11.919 I-0.495 J0.
X12.986 I0.533 J0.
X11.842 I-0.572 J0.
X13.062 I0.61 J0.
X11.766 I-0.648 J0.
X13.138 I0.686 J0.
X11.69 I-0.724 J0.
X13.214 I0.762 J0.
X11.614 I-0.8 J0.
X13.29 I0.838 J0.
X11.538 I-0.876 J0.
X13.366 I0.914 J0.
X11.462 I-0.953 J0.
X13.443 I0.991 J0.
X11.385 I-1.029 J0.
X13.519 I1.067 J0.
X11.309 I-1.105 J0.
X13.595 I1.143 J0.
X11.233 I-1.181 J0.
X13.671 I1.219 J0.
X11.157 I-1.257 J0.
X13.748 I1.295 J0.
X11.08 I-1.334 J0.
X13.824 I1.372 J0.
X11.004 I-1.41 J0.
X13.9 I1.448 J0.
X10.928 I-1.486 J0.
X13.976 I1.524 J0.
X10.852 I-1.562 J0.
X14.052 I1.6 J0.
X10.776 I-1.638 J0.
X14.128 I1.676 J0.
X10.7 I-1.715 J0.
X14.205 I1.753 J0.
X10.623 I-1.791 J0.
X14.281 I1.829 J0.
X10.547 I-1.867 J0.
X14.357 I1.905 J0.
X10.471 I-1.943 J0.
X14.433 I1.981 J0.
X10.395 I-2.019 J0.
X14.509 I2.057 J0.
X10.318 I-2.095 J0.
X14.586 I2.134 J0.
X10.242 I-2.172 J0.
X14.662 I2.21 J0.
X10.166 I-2.248 J0.
X14.738 I2.286 J0.
X10.09 I-2.324 J0.
X14.814 I2.362 J0.
X10.014 I-2.4 J0.
X14.891 I2.438 J0.
X9.938 I-2.477 J0.
X14.967 I2.515 J0.
X9.861 I-2.553 J0.
X15.043 I2.591 J0.
X9.785 I-2.629 J0.
X15.119 I2.667 J0.
X9.709 I-2.705 J0.
X15.195 I2.743 J0.
X9.633 I-2.781 J0.
X15.271 I2.819 J0.
X9.557 I-2.858 J0.
X15.348 I2.896 J0.
X9.48 I-2.934 J0.
X15.424 I2.972 J0.
X9.404 I-3.01 J0.
X15.5 I3.048 J0.
X9.328 I-3.086 J0.
X15.576 I3.124 J0.
X9.252 I-3.162 J0.
X15.653 I3.2 J0.
X9.175 I-3.239 J0.
X15.729 I3.277 J0.
X9.099 I-3.315 J0.
X15.805 I3.353 J0.
X9.023 I-3.391 J0.
X15.881 I3.429 J0.
X8.947 I-3.467 J0.
X15.957 I3.505 J0.
X8.871 I-3.543 J0.
X16.034 I3.581 J0.
X8.795 I-3.62 J0.
X16.11 I3.658 J0.
X8.718 I-3.696 J0.
X16.186 I3.734 J0.
X8.642 I-3.772 J0.
X16.262 I3.81 J0.
X8.566 I-3.848 J0.
X16.338 I3.886 J0.
X8.49 I-3.924 J0.
X16.414 I3.962 J0.
X8.413 I-4. J0.
X16.491 I4.039 J0.
X8.337 I-4.077 J0.
X16.567 I4.115 J0.
X8.261 I-4.153 J0.
X16.643 I4.191 J0.
X8.185 I-4.229 J0.
X16.719 I4.267 J0.
X8.109 I-4.305 J0.
X16.795 I4.343 J0.
X8.033 I-4.382 J0.
X16.872 I4.42 J0.
X7.956 I-4.458 J0.
X16.948 I4.496 J0.
X7.88 I-4.534 J0.
X17.024 I4.572 J0.
X7.804 I-4.61 J0.
X17.1 I4.648 J0.
X7.728 I-4.686 J0.
X17.177 I4.724 J0.
X7.652 I-4.763 J0.
X17.253 I4.801 J0.
X7.575 I-4.839 J0.
X17.329 I4.877 J0.
X7.499 I-4.915 J0.
X17.405 I4.953 J0.
X7.423 I-4.991 J0.
X17.481 I5.029 J0.
X7.347 I-5.067 J0.
X17.558 I5.105 J0.
X7.271 I-5.144 J0.
X17.634 I5.182 J0.
X7.194 I-5.22 J0.
X17.71 I5.258 J0.
X7.118 I-5.296 J0.
X17.786 I5.334 J0.
X7.042 I-5.372 J0.
X17.862 I5.41 J0.
X6.966 I-5.448 J0.
X17.938 I5.486 J0.
X6.89 I-5.524 J0.
X18.015 I5.563 J0.
X6.813 I-5.601 J0.
X18.091 I5.639 J0.
X6.737 I-5.677 J0.
X18.167 I5.715 J0.
X6.661 I-5.753 J0.
X18.243 I5.791 J0.
X6.585 I-5.829 J0.
X18.319 I5.867 J0.
X6.509 I-5.906 J0.
X18.396 I5.944 J0.
X6.432 I-5.982 J0.
X18.472 I6.02 J0.
X6.356 I-6.058 J0.
X18.548 I6.096 J0.
X6.28 I-6.134 J0.
X18.624 I6.172 J0.
X6.204 I-6.21 J0.
X18.701 I6.248 J0.
X6.128 I-6.287 J0.
X18.777 I6.325 J0.
X6.051 I-6.363 J0.
X18.853 I6.401 J0.
X5.975 I-6.439 J0.
X18.929 I6.477 J0.
X5.899 I-6.515 J0.
X18.955 I6.528 J0.
X5.873 I-6.541 J0.
X18.955 I6.541 J0.
G1 X18.951 Y12.463 Z-3.171
X18.939 Y12.511 Z-3.159
X18.922 Y12.553 Z-3.14
X18.901 Y12.59 Z-3.114
X18.878 Y12.62 Z-3.082
X18.856 Y12.644 Z-3.044
X18.837 Y12.661 Z-3.002
X18.821 Y12.672 Z-2.956
X18.812 Y12.679 Z-2.907
X18.809 Y12.681 Z-2.858
G0 Z11.43

(2D CONTOUR1)
S16500 M3
G4 P4.
G55
G0 X24.458 Y12.477
Z11.43
Z1.305
G1 Z0.203 F51.
X24.445 Y12.447 F2500.
X24.441 Y12.414
G2 X0.387 I-12.027 J0.
X24.441 I12.027 J0.
G1 X24.437 Y12.403
X24.428 Y12.395
X24.419 Y12.387
X24.415 Y12.376
G2 X0.413 Y12.452 I-12.001 J0.038
X24.415 Y12.376 I12.001 J-0.038
G1 X24.42 Y12.343
X24.432 Y12.312
X24.458 Y12.477
Z0.152 F51.
X24.445 Y12.447 F2500.
X24.441 Y12.414
G2 X0.387 I-12.027 J0.
X24.441 I12.027 J0.
G1 X24.437 Y12.403
X24.428 Y12.395
X24.419 Y12.387
X24.415 Y12.376
G2 X0.413 Y12.452 I-12.001 J0.038
X24.415 Y12.376 I12.001 J-0.038
G1 X24.42 Y12.343
X24.432 Y12.312
X24.458 Y12.477
Z0.102 F51.
X24.445 Y12.447 F2500.
X24.441 Y12.414
G2 X0.387 I-12.027 J0.
X24.441 I12.027 J0.
G1 X24.437 Y12.403
X24.428 Y12.395
X24.419 Y12.387
X24.415 Y12.376
G2 X0.413 Y12.452 I-12.001 J0.038
X24.415 Y12.376 I12.001 J-0.038
G1 X24.42 Y12.343
X24.432 Y12.312
X24.458 Y12.477
Z0.051 F51.
X24.445 Y12.447 F2500.
X24.441 Y12.414
G2 X0.387 I-12.027 J0.
X24.441 I12.027 J0.
G1 X24.437 Y12.403
X24.428 Y12.395
X24.419 Y12.387
X24.415 Y12.376
G2 X0.413 Y12.452 I-12.001 J0.038
X24.415 Y12.376 I12.001 J-0.038
G1 X24.42 Y12.343
X24.432 Y12.312
X24.458 Y12.477
Z0. F51.
X24.445 Y12.447 F2500.
X24.441 Y12.414
G2 X0.387 I-12.027 J0.
X24.441 I12.027 J0.
G1 X24.437 Y12.403
X24.428 Y12.395
X24.419 Y12.387
X24.415 Y12.376
G2 X0.413 Y12.452 I-12.001 J0.038
X24.415 Y12.376 I12.001 J-0.038
G1 X24.42 Y12.343
X24.432 Y12.312
X24.458 Y12.477
Z-0.051 F51.
X24.445 Y12.447 F2500.
X24.441 Y12.414
G2 X0.387 I-12.027 J0.
X24.441 I12.027 J0.
G1 X24.437 Y12.403
X24.428 Y12.395
X24.419 Y12.387
X24.415 Y12.376
G2 X0.413 Y12.452 I-12.001 J0.038
X24.415 Y12.376 I12.001 J-0.038
G1 X24.42 Y12.343
X24.432 Y12.312
X24.458 Y12.477
Z-0.102 F51.
X24.445 Y12.447 F2500.
X24.441 Y12.414
G2 X0.387 I-12.027 J0.
X24.441 I12.027 J0.
G1 X24.437 Y12.403
X24.428 Y12.395
X24.419 Y12.387
X24.415 Y12.376
G2 X0.413 Y12.452 I-12.001 J0.038
X24.415 Y12.376 I12.001 J-0.038
G1 X24.42 Y12.343
X24.432 Y12.312
X24.458 Y12.477
Z-0.152 F51.
X24.445 Y12.447 F2500.
X24.441 Y12.414
G2 X0.387 I-12.027 J0.
X24.441 I12.027 J0.
G1 X24.437 Y12.403
X24.428 Y12.395
X24.419 Y12.387
X24.415 Y12.376
G2 X0.413 Y12.452 I-12.001 J0.038
X24.415 Y12.376 I12.001 J-0.038
G1 X24.42 Y12.343
X24.432 Y12.312
X24.458 Y12.477
Z-0.203 F51.
X24.445 Y12.447 F2500.
X24.441 Y12.414
G2 X0.387 I-12.027 J0.
X24.441 I12.027 J0.
G1 X24.437 Y12.403
X24.428 Y12.395
X24.419 Y12.387
X24.415 Y12.376
G2 X0.413 Y12.452 I-12.001 J0.038
X24.415 Y12.376 I12.001 J-0.038
G1 X24.42 Y12.343
X24.432 Y12.312
X24.458 Y12.477
Z-0.254 F51.
X24.445 Y12.447 F2500.
X24.441 Y12.414
G2 X0.387 I-12.027 J0.
X24.441 I12.027 J0.
G1 X24.437 Y12.403
X24.428 Y12.395
X24.419 Y12.387
X24.415 Y12.376
G2 X0.413 Y12.452 I-12.001 J0.038
X24.415 Y12.376 I12.001 J-0.038
G1 X24.42 Y12.343
X24.432 Y12.312
X24.458 Y12.477
Z-0.305 F51.
X24.445 Y12.447 F2500.
X24.441 Y12.414
G2 X0.387 I-12.027 J0.
X24.441 I12.027 J0.
G1 X24.437 Y12.403
X24.428 Y12.395
X24.419 Y12.387
X24.415 Y12.376
G2 X0.413 Y12.452 I-12.001 J0.038
X24.415 Y12.376 I12.001 J-0.038
G1 X24.42 Y12.343
X24.432 Y12.312
X24.458 Y12.477
Z-0.356 F51.
X24.445 Y12.447 F2500.
X24.441 Y12.414
G2 X0.387 I-12.027 J0.
X24.441 I12.027 J0.
G1 X24.437 Y12.403
X24.428 Y12.395
X24.419 Y12.387
X24.415 Y12.376
G2 X0.413 Y12.452 I-12.001 J0.038
X24.415 Y12.376 I12.001 J-0.038
G1 X24.42 Y12.343
X24.432 Y12.312
X24.458 Y12.477
Z-0.406 F51.
X24.445 Y12.447 F2500.
X24.441 Y12.414
G2 X0.387 I-12.027 J0.
X24.441 I12.027 J0.
G1 X24.437 Y12.403
X24.428 Y12.395
X24.419 Y12.387
X24.415 Y12.376
G2 X0.413 Y12.452 I-12.001 J0.038
X24.415 Y12.376 I12.001 J-0.038
G1 X24.42 Y12.343
X24.432 Y12.312
X24.458 Y12.477
Z-0.457 F51.
X24.445 Y12.447 F2500.
X24.441 Y12.414
G2 X0.387 I-12.027 J0.
X24.441 I12.027 J0.
G1 X24.437 Y12.403
X24.428 Y12.395
X24.419 Y12.387
X24.415 Y12.376
G2 X0.413 Y12.452 I-12.001 J0.038
X24.415 Y12.376 I12.001 J-0.038
G1 X24.42 Y12.343
X24.432 Y12.312
X24.458 Y12.477
Z-0.508 F51.
X24.445 Y12.447 F2500.
X24.441 Y12.414
G2 X0.387 I-12.027 J0.
X24.441 I12.027 J0.
G1 X24.437 Y12.403
X24.428 Y12.395
X24.419 Y12.387
X24.415 Y12.376
G2 X0.413 Y12.452 I-12.001 J0.038
X24.415 Y12.376 I12.001 J-0.038
G1 X24.42 Y12.343
X24.432 Y12.312
X24.458 Y12.477
Z-0.559 F51.
X24.445 Y12.447 F2500.
X24.441 Y12.414
G2 X0.387 I-12.027 J0.
X24.441 I12.027 J0.
G1 X24.437 Y12.403
X24.428 Y12.395
X24.419 Y12.387
X24.415 Y12.376
G2 X0.413 Y12.452 I-12.001 J0.038
X24.415 Y12.376 I12.001 J-0.038
G1 X24.42 Y12.343
X24.432 Y12.312
X24.458 Y12.477
Z-0.61 F51.
X24.445 Y12.447 F2500.
X24.441 Y12.414
G2 X0.387 I-12.027 J0.
X24.441 I12.027 J0.
G1 X24.437 Y12.403
X24.428 Y12.395
X24.419 Y12.387
X24.415 Y12.376
G2 X0.413 Y12.452 I-12.001 J0.038
X24.415 Y12.376 I12.001 J-0.038
G1 X24.42 Y12.343
X24.432 Y12.312
X24.458 Y12.477
Z-0.66 F51.
X24.445 Y12.447 F2500.
X24.441 Y12.414
G2 X0.387 I-12.027 J0.
X24.441 I12.027 J0.
G1 X24.437 Y12.403
X24.428 Y12.395
X24.419 Y12.387
X24.415 Y12.376
G2 X0.413 Y12.452 I-12.001 J0.038
X24.415 Y12.376 I12.001 J-0.038
G1 X24.42 Y12.343
X24.432 Y12.312
X24.458 Y12.477
Z-0.711 F51.
X24.445 Y12.447 F2500.
X24.441 Y12.414
G2 X0.387 I-12.027 J0.
X24.441 I12.027 J0.
G1 X24.437 Y12.403
X24.428 Y12.395
X24.419 Y12.387
X24.415 Y12.376
G2 X0.413 Y12.452 I-12.001 J0.038
X24.415 Y12.376 I12.001 J-0.038
G1 X24.42 Y12.343
X24.432 Y12.312
X24.458 Y12.477
Z-0.762 F51.
X24.445 Y12.447 F2500.
X24.441 Y12.414
G2 X0.387 I-12.027 J0.
X24.441 I12.027 J0.
G1 X24.437 Y12.403
X24.428 Y12.395
X24.419 Y12.387
X24.415 Y12.376
G2 X0.413 Y12.452 I-12.001 J0.038
X24.415 Y12.376 I12.001 J-0.038
G1 X24.42 Y12.343
X24.432 Y12.312
X24.458 Y12.477
Z-0.813 F51.
X24.445 Y12.447 F2500.
X24.441 Y12.414
G2 X0.387 I-12.027 J0.
X24.441 I12.027 J0.
G1 X24.437 Y12.403
X24.428 Y12.395
X24.419 Y12.387
X24.415 Y12.376
G2 X0.413 Y12.452 I-12.001 J0.038
X24.415 Y12.376 I12.001 J-0.038
G1 X24.42 Y12.343
X24.432 Y12.312
X24.458 Y12.477
Z-0.864 F51.
X24.445 Y12.447 F2500.
X24.441 Y12.414
G2 X0.387 I-12.027 J0.
X24.441 I12.027 J0.
G1 X24.437 Y12.403
X24.428 Y12.395
X24.419 Y12.387
X24.415 Y12.376
G2 X0.413 Y12.452 I-12.001 J0.038
X24.415 Y12.376 I12.001 J-0.038
G1 X24.42 Y12.343
X24.432 Y12.312
X24.458 Y12.477
Z-0.914 F51.
X24.445 Y12.447 F2500.
X24.441 Y12.414
G2 X0.387 I-12.027 J0.
X24.441 I12.027 J0.
G1 X24.437 Y12.403
X24.428 Y12.395
X24.419 Y12.387
X24.415 Y12.376
G2 X0.413 Y12.452 I-12.001 J0.038
X24.415 Y12.376 I12.001 J-0.038
G1 X24.42 Y12.343
X24.432 Y12.312
X24.458 Y12.477
Z-0.965 F51.
X24.445 Y12.447 F2500.
X24.441 Y12.414
G2 X0.387 I-12.027 J0.
X24.441 I12.027 J0.
G1 X24.437 Y12.403
X24.428 Y12.395
X24.419 Y12.387
X24.415 Y12.376
G2 X0.413 Y12.452 I-12.001 J0.038
X24.415 Y12.376 I12.001 J-0.038
G1 X24.42 Y12.343
X24.432 Y12.312
X24.458 Y12.477
Z-1.016 F51.
X24.445 Y12.447 F2500.
X24.441 Y12.414
G2 X0.387 I-12.027 J0.
X24.441 I12.027 J0.
G1 X24.437 Y12.403
X24.428 Y12.395
X24.419 Y12.387
X24.415 Y12.376
G2 X0.413 Y12.452 I-12.001 J0.038
X24.415 Y12.376 I12.001 J-0.038
G1 X24.42 Y12.343
X24.432 Y12.312
X24.458 Y12.477
Z-1.067 F51.
X24.445 Y12.447 F2500.
X24.441 Y12.414
G2 X0.387 I-12.027 J0.
X24.441 I12.027 J0.
G1 X24.437 Y12.403
X24.428 Y12.395
X24.419 Y12.387
X24.415 Y12.376
G2 X0.413 Y12.452 I-12.001 J0.038
X24.415 Y12.376 I12.001 J-0.038
G1 X24.42 Y12.343
X24.432 Y12.312
X24.458 Y12.477
Z-1.118 F51.
X24.445 Y12.447 F2500.
X24.441 Y12.414
G2 X0.387 I-12.027 J0.
X24.441 I12.027 J0.
G1 X24.437 Y12.403
X24.428 Y12.395
X24.419 Y12.387
X24.415 Y12.376
G2 X0.413 Y12.452 I-12.001 J0.038
X24.415 Y12.376 I12.001 J-0.038
G1 X24.42 Y12.343
X24.432 Y12.312
X24.458 Y12.477
Z-1.168 F51.
X24.445 Y12.447 F2500.
X24.441 Y12.414
G2 X0.387 I-12.027 J0.
X24.441 I12.027 J0.
G1 X24.437 Y12.403
X24.428 Y12.395
X24.419 Y12.387
X24.415 Y12.376
G2 X0.413 Y12.452 I-12.001 J0.038
X24.415 Y12.376 I12.001 J-0.038
G1 X24.42 Y12.343
X24.432 Y12.312
X24.458 Y12.477
Z-1.219 F51.
X24.445 Y12.447 F2500.
X24.441 Y12.414
G2 X0.387 I-12.027 J0.
X24.441 I12.027 J0.
G1 X24.437 Y12.403
X24.428 Y12.395
X24.419 Y12.387
X24.415 Y12.376
G2 X0.413 Y12.452 I-12.001 J0.038
X24.415 Y12.376 I12.001 J-0.038
G1 X24.42 Y12.343
X24.432 Y12.312
X24.458 Y12.477
Z-1.27 F51.
X24.445 Y12.447 F2500.
X24.441 Y12.414
G2 X0.387 I-12.027 J0.
X24.441 I12.027 J0.
G1 X24.437 Y12.403
X24.428 Y12.395
X24.419 Y12.387
X24.415 Y12.376
G2 X0.413 Y12.452 I-12.001 J0.038
X24.415 Y12.376 I12.001 J-0.038
G1 X24.42 Y12.343
X24.432 Y12.312
X24.458 Y12.477
Z-1.321 F51.
X24.445 Y12.447 F2500.
X24.441 Y12.414
G2 X0.387 I-12.027 J0.
X24.441 I12.027 J0.
G1 X24.437 Y12.403
X24.428 Y12.395
X24.419 Y12.387
X24.415 Y12.376
G2 X0.413 Y12.452 I-12.001 J0.038
X24.415 Y12.376 I12.001 J-0.038
G1 X24.42 Y12.343
X24.432 Y12.312
X24.458 Y12.477
Z-1.372 F51.
X24.445 Y12.447 F2500.
X24.441 Y12.414
G2 X0.387 I-12.027 J0.
X24.441 I12.027 J0.
G1 X24.437 Y12.403
X24.428 Y12.395
X24.419 Y12.387
X24.415 Y12.376
G2 X0.413 Y12.452 I-12.001 J0.038
X24.415 Y12.376 I12.001 J-0.038
G1 X24.42 Y12.343
X24.432 Y12.312
X24.458 Y12.477
Z-1.422 F51.
X24.445 Y12.447 F2500.
X24.441 Y12.414
G2 X0.387 I-12.027 J0.
X24.441 I12.027 J0.
G1 X24.437 Y12.403
X24.428 Y12.395
X24.419 Y12.387
X24.415 Y12.376
G2 X0.413 Y12.452 I-12.001 J0.038
X24.415 Y12.376 I12.001 J-0.038
G1 X24.42 Y12.343
X24.432 Y12.312
X24.458 Y12.477
Z-1.473 F51.
X24.445 Y12.447 F2500.
X24.441 Y12.414
G2 X0.387 I-12.027 J0.
X24.441 I12.027 J0.
G1 X24.437 Y12.403
X24.428 Y12.395
X24.419 Y12.387
X24.415 Y12.376
G2 X0.413 Y12.452 I-12.001 J0.038
X24.415 Y12.376 I12.001 J-0.038
G1 X24.42 Y12.343
X24.432 Y12.312
X24.458 Y12.477
Z-1.524 F51.
X24.445 Y12.447 F2500.
X24.441 Y12.414
G2 X0.387 I-12.027 J0.
X24.441 I12.027 J0.
G1 X24.437 Y12.403
X24.428 Y12.395
X24.419 Y12.387
X24.415 Y12.376
G2 X0.413 Y12.452 I-12.001 J0.038
X24.415 Y12.376 I12.001 J-0.038
G1 X24.42 Y12.343
X24.432 Y12.312
X24.458 Y12.477
Z-1.575 F51.
X24.445 Y12.447 F2500.
X24.441 Y12.414
G2 X0.387 I-12.027 J0.
X24.441 I12.027 J0.
G1 X24.437 Y12.403
X24.428 Y12.395
X24.419 Y12.387
X24.415 Y12.376
G2 X0.413 Y12.452 I-12.001 J0.038
X24.415 Y12.376 I12.001 J-0.038
G1 X24.42 Y12.343
X24.432 Y12.312
X24.458 Y12.477
Z-1.626 F51.
X24.445 Y12.447 F2500.
X24.441 Y12.414
G2 X0.387 I-12.027 J0.
X24.441 I12.027 J0.
G1 X24.437 Y12.403
X24.428 Y12.395
X24.419 Y12.387
X24.415 Y12.376
G2 X0.413 Y12.452 I-12.001 J0.038
X24.415 Y12.376 I12.001 J-0.038
G1 X24.42 Y12.343
X24.432 Y12.312
X24.458 Y12.477
Z-1.676 F51.
X24.445 Y12.447 F2500.
X24.441 Y12.414
G2 X0.387 I-12.027 J0.
X24.441 I12.027 J0.
G1 X24.437 Y12.403
X24.428 Y12.395
X24.419 Y12.387
X24.415 Y12.376
G2 X0.413 Y12.452 I-12.001 J0.038
X24.415 Y12.376 I12.001 J-0.038
G1 X24.42 Y12.343
X24.432 Y12.312
X24.458 Y12.477
Z-1.727 F51.
X24.445 Y12.447 F2500.
X24.441 Y12.414
G2 X0.387 I-12.027 J0.
X24.441 I12.027 J0.
G1 X24.437 Y12.403
X24.428 Y12.395
X24.419 Y12.387
X24.415 Y12.376
G2 X0.413 Y12.452 I-12.001 J0.038
X24.415 Y12.376 I12.001 J-0.038
G1 X24.42 Y12.343
X24.432 Y12.312
X24.458 Y12.477
Z-1.778 F51.
X24.445 Y12.447 F2500.
X24.441 Y12.414
G2 X0.387 I-12.027 J0.
X24.441 I12.027 J0.
G1 X24.437 Y12.403
X24.428 Y12.395
X24.419 Y12.387
X24.415 Y12.376
G2 X0.413 Y12.452 I-12.001 J0.038
X24.415 Y12.376 I12.001 J-0.038
G1 X24.42 Y12.343
X24.432 Y12.312
X24.458 Y12.477
Z-1.829 F51.
X24.445 Y12.447 F2500.
X24.441 Y12.414
G2 X0.387 I-12.027 J0.
X24.441 I12.027 J0.
G1 X24.437 Y12.403
X24.428 Y12.395
X24.419 Y12.387
X24.415 Y12.376
G2 X0.413 Y12.452 I-12.001 J0.038
X24.415 Y12.376 I12.001 J-0.038
G1 X24.42 Y12.343
X24.432 Y12.312
X24.458 Y12.477
Z-1.88 F51.
X24.445 Y12.447 F2500.
X24.441 Y12.414
G2 X0.387 I-12.027 J0.
X24.441 I12.027 J0.
G1 X24.437 Y12.403
X24.428 Y12.395
X24.419 Y12.387
X24.415 Y12.376
G2 X0.413 Y12.452 I-12.001 J0.038
X24.415 Y12.376 I12.001 J-0.038
G1 X24.42 Y12.343
X24.432 Y12.312
X24.458 Y12.477
Z-1.93 F51.
X24.445 Y12.447 F2500.
X24.441 Y12.414
G2 X0.387 I-12.027 J0.
X24.441 I12.027 J0.
G1 X24.437 Y12.403
X24.428 Y12.395
X24.419 Y12.387
X24.415 Y12.376
G2 X0.413 Y12.452 I-12.001 J0.038
X24.415 Y12.376 I12.001 J-0.038
G1 X24.42 Y12.343
X24.432 Y12.312
X24.458 Y12.477
Z-1.981 F51.
X24.445 Y12.447 F2500.
X24.441 Y12.414
G2 X0.387 I-12.027 J0.
X24.441 I12.027 J0.
G1 X24.437 Y12.403
X24.428 Y12.395
X24.419 Y12.387
X24.415 Y12.376
G2 X0.413 Y12.452 I-12.001 J0.038
X24.415 Y12.376 I12.001 J-0.038
G1 X24.42 Y12.343
X24.432 Y12.312
X24.458 Y12.477
Z-2.032 F51.
X24.445 Y12.447 F2500.
X24.441 Y12.414
G2 X0.387 I-12.027 J0.
X24.441 I12.027 J0.
G1 X24.437 Y12.403
X24.428 Y12.395
X24.419 Y12.387
X24.415 Y12.376
G2 X0.413 Y12.452 I-12.001 J0.038
X24.415 Y12.376 I12.001 J-0.038
G1 X24.42 Y12.343
X24.432 Y12.312
X24.458 Y12.477
Z-2.083 F51.
X24.445 Y12.447 F2500.
X24.441 Y12.414
G2 X0.387 I-12.027 J0.
X24.441 I12.027 J0.
G1 X24.437 Y12.403
X24.428 Y12.395
X24.419 Y12.387
X24.415 Y12.376
G2 X0.413 Y12.452 I-12.001 J0.038
X24.415 Y12.376 I12.001 J-0.038
G1 X24.42 Y12.343
X24.432 Y12.312
X24.458 Y12.477
Z-2.134 F51.
X24.445 Y12.447 F2500.
X24.441 Y12.414
G2 X0.387 I-12.027 J0.
X24.441 I12.027 J0.
G1 X24.437 Y12.403
X24.428 Y12.395
X24.419 Y12.387
X24.415 Y12.376
G2 X0.413 Y12.452 I-12.001 J0.038
X24.415 Y12.376 I12.001 J-0.038
G1 X24.42 Y12.343
X24.432 Y12.312
X24.458 Y12.477
Z-2.184 F51.
X24.445 Y12.447 F2500.
X24.441 Y12.414
G2 X0.387 I-12.027 J0.
X24.441 I12.027 J0.
G1 X24.437 Y12.403
X24.428 Y12.395
X24.419 Y12.387
X24.415 Y12.376
G2 X0.413 Y12.452 I-12.001 J0.038
X24.415 Y12.376 I12.001 J-0.038
G1 X24.42 Y12.343
X24.432 Y12.312
X24.458 Y12.477
Z-2.235 F51.
X24.445 Y12.447 F2500.
X24.441 Y12.414
G2 X0.387 I-12.027 J0.
X24.441 I12.027 J0.
G1 X24.437 Y12.403
X24.428 Y12.395
X24.419 Y12.387
X24.415 Y12.376
G2 X0.413 Y12.452 I-12.001 J0.038
X24.415 Y12.376 I12.001 J-0.038
G1 X24.42 Y12.343
X24.432 Y12.312
X24.458 Y12.477
Z-2.286 F51.
X24.445 Y12.447 F2500.
X24.441 Y12.414
G2 X0.387 I-12.027 J0.
X24.441 I12.027 J0.
G1 X24.437 Y12.403
X24.428 Y12.395
X24.419 Y12.387
X24.415 Y12.376
G2 X0.413 Y12.452 I-12.001 J0.038
X24.415 Y12.376 I12.001 J-0.038
G1 X24.42 Y12.343
X24.432 Y12.312
X24.458 Y12.477
Z-2.337 F51.
X24.445 Y12.447 F2500.
X24.441 Y12.414
G2 X0.387 I-12.027 J0.
X24.441 I12.027 J0.
G1 X24.437 Y12.403
X24.428 Y12.395
X24.419 Y12.387
X24.415 Y12.376
G2 X0.413 Y12.452 I-12.001 J0.038
X24.415 Y12.376 I12.001 J-0.038
G1 X24.42 Y12.343
X24.432 Y12.312
X24.458 Y12.477
Z-2.388 F51.
X24.445 Y12.447 F2500.
X24.441 Y12.414
G2 X0.387 I-12.027 J0.
X24.441 I12.027 J0.
G1 X24.437 Y12.403
X24.428 Y12.395
X24.419 Y12.387
X24.415 Y12.376
G2 X0.413 Y12.452 I-12.001 J0.038
X24.415 Y12.376 I12.001 J-0.038
G1 X24.42 Y12.343
X24.432 Y12.312
X24.458 Y12.477
Z-2.438 F51.
X24.445 Y12.447 F2500.
X24.441 Y12.414
G2 X0.387 I-12.027 J0.
X24.441 I12.027 J0.
G1 X24.437 Y12.403
X24.428 Y12.395
X24.419 Y12.387
X24.415 Y12.376
G2 X0.413 Y12.452 I-12.001 J0.038
X24.415 Y12.376 I12.001 J-0.038
G1 X24.42 Y12.343
X24.432 Y12.312
X24.458 Y12.477
Z-2.489 F51.
X24.445 Y12.447 F2500.
X24.441 Y12.414
G2 X0.387 I-12.027 J0.
X24.441 I12.027 J0.
G1 X24.437 Y12.403
X24.428 Y12.395
X24.419 Y12.387
X24.415 Y12.376
G2 X0.413 Y12.452 I-12.001 J0.038
X24.415 Y12.376 I12.001 J-0.038
G1 X24.42 Y12.343
X24.432 Y12.312
X24.458 Y12.477
Z-2.54 F51.
X24.445 Y12.447 F2500.
X24.441 Y12.414
G2 X0.387 I-12.027 J0.
X24.441 I12.027 J0.
G1 X24.437 Y12.403
X24.428 Y12.395
X24.419 Y12.387
X24.415 Y12.376
G2 X0.413 Y12.452 I-12.001 J0.038
X24.415 Y12.376 I12.001 J-0.038
G1 X24.42 Y12.343
X24.432 Y12.312
X24.458 Y12.477
Z-2.591 F51.
X24.445 Y12.447 F2500.
X24.441 Y12.414
G2 X0.387 I-12.027 J0.
X24.441 I12.027 J0.
G1 X24.437 Y12.403
X24.428 Y12.395
X24.419 Y12.387
X24.415 Y12.376
G2 X0.413 Y12.452 I-12.001 J0.038
X24.415 Y12.376 I12.001 J-0.038
G1 X24.42 Y12.343
X24.432 Y12.312
X24.458 Y12.477
Z-2.642 F51.
X24.445 Y12.447 F2500.
X24.441 Y12.414
G2 X0.387 I-12.027 J0.
X24.441 I12.027 J0.
G1 X24.437 Y12.403
X24.428 Y12.395
X24.419 Y12.387
X24.415 Y12.376
G2 X0.413 Y12.452 I-12.001 J0.038
X24.415 Y12.376 I12.001 J-0.038
G1 X24.42 Y12.343
X24.432 Y12.312
X24.458 Y12.477
Z-2.692 F51.
X24.445 Y12.447 F2500.
X24.441 Y12.414
G2 X0.387 I-12.027 J0.
X24.441 I12.027 J0.
G1 X24.437 Y12.403
X24.428 Y12.395
X24.419 Y12.387
X24.415 Y12.376
G2 X0.413 Y12.452 I-12.001 J0.038
X24.415 Y12.376 I12.001 J-0.038
G1 X24.42 Y12.343
X24.432 Y12.312
X24.458 Y12.477
Z-2.743 F51.
X24.445 Y12.447 F2500.
X24.441 Y12.414
G2 X0.387 I-12.027 J0.
X24.441 I12.027 J0.
G1 X24.437 Y12.403
X24.428 Y12.395
X24.419 Y12.387
X24.415 Y12.376
G2 X0.413 Y12.452 I-12.001 J0.038
X24.415 Y12.376 I12.001 J-0.038
G1 X24.42 Y12.343
X24.432 Y12.312
X24.458 Y12.477
Z-2.794 F51.
X24.445 Y12.447 F2500.
X24.441 Y12.414
G2 X0.387 I-12.027 J0.
X24.441 I12.027 J0.
G1 X24.437 Y12.403
X24.428 Y12.395
X24.419 Y12.387
X24.415 Y12.376
G2 X0.413 Y12.452 I-12.001 J0.038
X24.415 Y12.376 I12.001 J-0.038
G1 X24.42 Y12.343
X24.432 Y12.312
X24.458 Y12.477
Z-2.845 F51.
X24.445 Y12.447 F2500.
X24.441 Y12.414
G2 X0.387 I-12.027 J0.
X24.441 I12.027 J0.
G1 X24.437 Y12.403
X24.428 Y12.395
X24.419 Y12.387
X24.415 Y12.376
G2 X0.413 Y12.452 I-12.001 J0.038
X24.415 Y12.376 I12.001 J-0.038
G1 X24.42 Y12.343
X24.432 Y12.312
X24.458 Y12.477
Z-2.896 F51.
X24.445 Y12.447 F2500.
X24.441 Y12.414
G2 X0.387 I-12.027 J0.
X24.441 I12.027 J0.
G1 X24.437 Y12.403
X24.428 Y12.395
X24.419 Y12.387
X24.415 Y12.376
G2 X0.413 Y12.452 I-12.001 J0.038
X24.415 Y12.376 I12.001 J-0.038
G1 X24.42 Y12.343
X24.432 Y12.312
X24.458 Y12.477
Z-2.946 F51.
X24.445 Y12.447 F2500.
X24.441 Y12.414
G2 X0.387 I-12.027 J0.
X24.441 I12.027 J0.
G1 X24.437 Y12.403
X24.428 Y12.395
X24.419 Y12.387
X24.415 Y12.376
G2 X0.413 Y12.452 I-12.001 J0.038
X24.415 Y12.376 I12.001 J-0.038
G1 X24.42 Y12.343
X24.432 Y12.312
X24.458 Y12.477
Z-2.997 F51.
X24.445 Y12.447 F2500.
X24.441 Y12.414
G2 X0.387 I-12.027 J0.
X24.441 I12.027 J0.
G1 X24.437 Y12.403
X24.428 Y12.395
X24.419 Y12.387
X24.415 Y12.376
G2 X0.413 Y12.452 I-12.001 J0.038
X24.415 Y12.376 I12.001 J-0.038
G1 X24.42 Y12.343
X24.432 Y12.312
X24.458 Y12.477
Z-3.048 F51.
X24.445 Y12.447 F2500.
X24.441 Y12.414
G2 X0.387 I-12.027 J0.
X24.441 I12.027 J0.
G1 X24.437 Y12.403
X24.428 Y12.395
X24.419 Y12.387
X24.415 Y12.376
G2 X0.413 Y12.452 I-12.001 J0.038
X24.415 Y12.376 I12.001 J-0.038
G1 X24.42 Y12.343
X24.432 Y12.312
X24.458 Y12.477
Z-3.099 F51.
X24.445 Y12.447 F2500.
X24.441 Y12.414
G2 X0.387 I-12.027 J0.
X24.441 I12.027 J0.
G1 X24.437 Y12.403
X24.428 Y12.395
X24.419 Y12.387
X24.415 Y12.376
G2 X0.413 Y12.452 I-12.001 J0.038
X24.415 Y12.376 I12.001 J-0.038
G1 X24.42 Y12.343
X24.432 Y12.312
X24.458 Y12.477
Z-3.15 F51.
X24.445 Y12.447 F2500.
X24.441 Y12.414
G2 X0.387 I-12.027 J0.
X24.441 I12.027 J0.
G1 X24.437 Y12.403
X24.428 Y12.395
X24.419 Y12.387
X24.415 Y12.376
G2 X0.413 Y12.452 I-12.001 J0.038
X24.415 Y12.376 I12.001 J-0.038
G1 X24.42 Y12.343
X24.432 Y12.312
X24.458 Y12.477
Z-3.175 F51.
X24.445 Y12.447 F2500.
X24.441 Y12.414
G2 X0.387 I-12.027 J0.
X24.441 I12.027 J0.
G1 X24.437 Y12.403
X24.428 Y12.395
X24.419 Y12.387
X24.415 Y12.376
G2 X0.413 Y12.452 I-12.001 J0.038
X24.415 Y12.376 I12.001 J-0.038
G1 X24.42 Y12.343
X24.432 Y12.312
G0 Z11.43

G53 Z0.
M30
